P3
400 225
255
164 200 255
164 200 255
163 200 255
163 200 255
163 200 255
163 200 255
163 200 255
163 200 255
163 200 255
163 200 255
163 200 255
163 200 255
163 200 255
162 200 255
162 200 255
162 200 255
162 199 255
162 199 255
162 199 255
162 199 255
162 199 255
162 199 255
162 199 255
162 199 255
161 199 255
161 199 255
161 199 255
161 199 255
161 199 255
161 199 255
161 199 255
161 199 255
161 199 255
161 199 255
160 198 255
160 198 255
160 198 255
160 198 255
160 198 255
160 198 255
160 198 255
160 198 255
160 198 255
160 198 255
159 198 255
159 198 255
159 198 255
159 198 255
159 198 255
159 198 255
159 198 255
159 197 255
159 197 255
159 197 255
158 197 255
158 197 255
158 197 255
158 197 255
158 197 255
158 197 255
158 197 255
158 197 255
158 197 255
157 197 255
157 197 255
157 197 255
157 196 255
157 196 255
157 196 255
157 196 255
157 196 255
157 196 255
157 196 255
156 196 255
156 196 255
156 196 255
156 196 255
156 196 255
156 196 255
156 196 255
156 196 255
156 196 255
155 195 255
155 195 255
155 195 255
155 195 255
155 195 255
155 195 255
155 195 255
155 195 255
155 195 255
154 195 255
154 195 255
154 195 255
154 195 255
154 195 255
154 195 255
154 194 255
154 194 255
154 194 255
153 194 255
153 194 255
153 194 255
153 194 255
153 194 255
153 194 255
153 194 255
153 194 255
153 194 255
152 194 255
152 194 255
152 194 255
152 194 255
152 193 255
152 193 255
152 193 255
152 193 255
152 193 255
152 193 255
151 193 255
151 193 255
151 193 255
151 193 255
151 193 255
151 193 255
151 193 255
151 193 255
151 193 255
151 193 255
150 192 255
150 192 255
150 192 255
150 192 255
150 192 255
150 192 255
150 192 255
150 192 255
150 192 255
150 192 255
150 192 255
149 192 255
149 192 255
149 192 255
149 192 255
149 192 255
149 192 255
149 192 255
149 192 255
149 191 255
149 191 255
149 191 255
149 191 255
148 191 255
148 191 255
148 191 255
148 191 255
148 191 255
148 191 255
148 191 255
148 191 255
148 191 255
148 191 255
148 191 255
148 191 255
148 191 255
148 191 255
148 191 255
147 191 255
147 191 255
147 191 255
147 191 255
147 191 255
147 191 255
147 190 255
147 190 255
147 190 255
147 190 255
147 190 255
147 190 255
147 190 255
147 190 255
147 190 255
147 190 255
147 190 255
147 190 255
147 190 255
147 190 255
147 190 255
147 190 255
147 190 255
147 190 255
147 190 255
147 190 255
147 190 255
147 190 255
147 190 255
147 190 255
147 190 255
147 190 255
147 190 255
147 190 255
147 190 255
147 190 255
147 190 255
147 190 255
147 190 255
147 190 255
147 190 255
147 190 255
147 190 255
147 190 255
147 190 255
147 190 255
147 190 255
147 190 255
147 190 255
147 190 255
147 190 255
147 190 255
147 190 255
147 190 255
147 190 255
147 190 255
147 190 255
147 190 255
147 190 255
147 191 255
147 191 255
147 191 255
147 191 255
147 191 255
147 191 255
147 191 255
148 191 255
148 191 255
148 191 255
148 191 255
148 191 255
148 191 255
148 191 255
148 191 255
148 191 255
148 191 255
148 191 255
148 191 255
148 191 255
148 191 255
148 191 255
149 191 255
149 191 255
149 191 255
149 191 255
149 192 255
149 192 255
149 192 255
149 192 255
149 192 255
149 192 255
149 192 255
149 192 255
150 192 255
150 192 255
150 192 255
150 192 255
150 192 255
150 192 255
150 192 255
150 192 255
150 192 255
150 192 255
150 192 255
151 193 255
151 193 255
151 193 255
151 193 255
151 193 255
151 193 255
151 193 255
151 193 255
151 193 255
151 193 255
152 193 255
152 193 255
152 193 255
152 193 255
152 193 255
152 193 255
152 193 255
152 194 255
152 194 255
152 194 255
153 194 255
153 194 255
153 194 255
153 194 255
153 194 255
153 194 255
153 194 255
153 194 255
153 194 255
154 194 255
154 194 255
154 194 255
154 195 255
154 195 255
154 195 255
154 195 255
154 195 255
154 195 255
155 195 255
155 195 255
155 195 255
155 195 255
155 195 255
155 195 255
155 195 255
155 195 255
155 195 255
156 196 255
156 196 255
156 196 255
156 196 255
156 196 255
156 196 255
156 196 255
156 196 255
156 196 255
157 196 255
157 196 255
157 196 255
157 196 255
157 196 255
157 196 255
157 197 255
157 197 255
157 197 255
157 197 255
158 197 255
158 197 255
158 197 255
158 197 255
158 197 255
158 197 255
158 197 255
158 197 255
158 197 255
159 197 255
159 197 255
159 197 255
159 198 255
159 198 255
159 198 255
159 198 255
159 198 255
159 198 255
159 198 255
160 198 255
160 198 255
160 198 255
160 198 255
160 198 255
160 198 255
160 198 255
160 198 255
160 198 255
160 198 255
161 199 255
161 199 255
161 199 255
161 199 255
161 199 255
161 199 255
161 199 255
161 199 255
161 199 255
161 199 255
162 199 255
162 199 255
162 199 255
162 199 255
162 199 255
162 199 255
162 199 255
162 200 255
162 200 255
162 200 255
162 200 255
163 200 255
163 200 255
163 200 255
163 200 255
163 200 255
163 200 255
163 200 255
163 200 255
163 200 255
163 200 255
163 200 255
164 200 255
164 200 255
164 200 255
164 200 255
164 200 255
164 200 255
163 200 255
163 200 255
163 200 255
163 200 255
163 200 255
163 200 255
163 200 255
163 200 255
163 200 255
163 200 255
163 200 255
162 200 255
162 200 255
162 200 255
162 200 255
162 199 255
162 199 255
162 199 255
162 199 255
162 199 255
162 199 255
162 199 255
161 199 255
161 199 255
161 199 255
161 199 255
161 199 255
161 199 255
161 199 255
161 199 255
161 199 255
161 199 255
160 198 255
160 198 255
160 198 255
160 198 255
160 198 255
160 198 255
160 198 255
160 198 255
160 198 255
160 198 255
159 198 255
159 198 255
159 198 255
159 198 255
159 198 255
159 198 255
159 198 255
159 197 255
159 197 255
159 197 255
158 197 255
158 197 255
158 197 255
158 197 255
158 197 255
158 197 255
158 197 255
158 197 255
158 197 255
157 197 255
157 197 255
157 197 255
157 197 255
157 196 255
157 196 255
157 196 255
157 196 255
157 196 255
157 196 255
156 196 255
156 196 255
156 196 255
156 196 255
156 196 255
156 196 255
156 196 255
156 196 255
156 196 255
155 195 255
155 195 255
155 195 255
155 195 255
155 195 255
155 195 255
155 195 255
155 195 255
155 195 255
154 195 255
154 195 255
154 195 255
154 195 255
154 195 255
154 195 255
154 194 255
154 194 255
154 194 255
153 194 255
153 194 255
153 194 255
153 194 255
153 194 255
153 194 255
153 194 255
153 194 255
153 194 255
153 194 255
152 194 255
152 194 255
152 194 255
152 193 255
152 193 255
152 193 255
152 193 255
152 193 255
152 193 255
151 193 255
151 193 255
151 193 255
151 193 255
151 193 255
151 193 255
151 193 255
151 193 255
151 193 255
151 193 255
150 192 255
150 192 255
150 192 255
150 192 255
150 192 255
150 192 255
150 192 255
150 192 255
150 192 255
150 192 255
150 192 255
149 192 255
149 192 255
149 192 255
149 192 255
149 192 255
149 192 255
149 192 255
149 192 255
149 191 255
149 191 255
149 191 255
149 191 255
149 191 255
148 191 255
148 191 255
148 191 255
148 191 255
148 191 255
148 191 255
148 191 255
148 191 255
148 191 255
148 191 255
148 191 255
148 191 255
148 191 255
148 191 255
148 191 255
148 191 255
147 191 255
147 191 255
147 191 255
147 191 255
147 191 255
147 191 255
147 191 255
147 191 255
147 190 255
147 190 255
147 190 255
147 190 255
147 190 255
147 190 255
147 190 255
147 190 255
147 190 255
147 190 255
147 190 255
147 190 255
147 190 255
147 190 255
147 190 255
147 190 255
147 190 255
147 190 255
147 190 255
147 190 255
147 190 255
147 190 255
147 190 255
147 190 255
147 190 255
147 190 255
147 190 255
147 190 255
147 190 255
147 190 255
147 190 255
147 190 255
147 190 255
147 190 255
147 190 255
147 190 255
147 190 255
147 190 255
147 190 255
147 190 255
147 190 255
147 190 255
147 191 255
147 191 255
147 191 255
147 191 255
147 191 255
147 191 255
147 191 255
147 191 255
148 191 255
148 191 255
148 191 255
148 191 255
148 191 255
148 191 255
148 191 255
148 191 255
148 191 255
148 191 255
148 191 255
148 191 255
148 191 255
148 191 255
148 191 255
148 191 255
149 191 255
149 191 255
149 191 255
149 191 255
149 191 255
149 192 255
149 192 255
149 192 255
149 192 255
149 192 255
149 192 255
149 192 255
149 192 255
150 192 255
150 192 255
150 192 255
150 192 255
150 192 255
150 192 255
150 192 255
150 192 255
150 192 255
150 192 255
150 192 255
151 193 255
151 193 255
151 193 255
151 193 255
151 193 255
151 193 255
151 193 255
151 193 255
151 193 255
151 193 255
152 193 255
152 193 255
152 193 255
152 193 255
152 193 255
152 193 255
152 194 255
152 194 255
152 194 255
153 194 255
153 194 255
153 194 255
153 194 255
153 194 255
153 194 255
153 194 255
153 194 255
153 194 255
153 194 255
154 194 255
154 194 255
154 194 255
154 195 255
154 195 255
154 195 255
154 195 255
154 195 255
154 195 255
155 195 255
155 195 255
155 195 255
155 195 255
155 195 255
155 195 255
155 195 255
155 195 255
155 195 255
156 196 255
156 196 255
156 196 255
156 196 255
156 196 255
156 196 255
156 196 255
156 196 255
156 196 255
157 196 255
157 196 255
157 196 255
157 196 255
157 196 255
157 196 255
157 197 255
157 197 255
157 197 255
157 197 255
158 197 255
158 197 255
158 197 255
158 197 255
158 197 255
158 197 255
158 197 255
158 197 255
158 197 255
159 197 255
159 197 255
159 197 255
159 198 255
159 198 255
159 198 255
159 198 255
159 198 255
159 198 255
159 198 255
160 198 255
160 198 255
160 198 255
160 198 255
160 198 255
160 198 255
160 198 255
160 198 255
160 198 255
160 198 255
161 199 255
161 199 255
161 199 255
161 199 255
161 199 255
161 199 255
161 199 255
161 199 255
161 199 255
161 199 255
162 199 255
162 199 255
162 199 255
162 199 255
162 199 255
162 199 255
162 199 255
162 200 255
162 200 255
162 200 255
162 200 255
163 200 255
163 200 255
163 200 255
163 200 255
163 200 255
163 200 255
163 200 255
163 200 255
163 200 255
163 200 255
163 200 255
164 200 255
164 200 255
164 200 255
164 200 255
164 201 255
164 201 255
164 200 255
164 200 255
164 200 255
164 200 255
163 200 255
163 200 255
163 200 255
163 200 255
163 200 255
163 200 255
163 200 255
163 200 255
163 200 255
163 200 255
163 200 255
162 200 255
162 200 255
162 200 255
162 200 255
162 199 255
162 199 255
162 199 255
162 199 255
162 199 255
162 199 255
162 199 255
161 199 255
161 199 255
161 199 255
161 199 255
161 199 255
161 199 255
161 199 255
161 199 255
161 199 255
161 199 255
160 198 255
160 198 255
160 198 255
160 198 255
160 198 255
160 198 255
160 198 255
160 198 255
160 198 255
160 198 255
159 198 255
159 198 255
159 198 255
159 198 255
159 198 255
159 198 255
159 198 255
159 197 255
159 197 255
159 197 255
158 197 255
158 197 255
158 197 255
158 197 255
158 197 255
158 197 255
158 197 255
158 197 255
158 197 255
158 197 255
157 197 255
157 197 255
157 197 255
157 196 255
157 196 255
157 196 255
157 196 255
157 196 255
157 196 255
156 196 255
156 196 255
156 196 255
156 196 255
156 196 255
156 196 255
156 196 255
156 196 255
156 196 255
155 195 255
155 195 255
155 195 255
155 195 255
155 195 255
155 195 255
155 195 255
155 195 255
155 195 255
154 195 255
154 195 255
154 195 255
154 195 255
154 195 255
154 195 255
154 194 255
154 194 255
154 194 255
153 194 255
153 194 255
153 194 255
153 194 255
153 194 255
153 194 255
153 194 255
153 194 255
153 194 255
153 194 255
152 194 255
152 194 255
152 194 255
152 193 255
152 193 255
152 193 255
152 193 255
152 193 255
152 193 255
151 193 255
151 193 255
151 193 255
151 193 255
151 193 255
151 193 255
151 193 255
151 193 255
151 193 255
151 193 255
151 193 255
150 192 255
150 192 255
150 192 255
150 192 255
150 192 255
150 192 255
150 192 255
150 192 255
150 192 255
150 192 255
150 192 255
149 192 255
149 192 255
149 192 255
149 192 255
149 192 255
149 192 255
149 192 255
149 192 255
149 191 255
149 191 255
149 191 255
149 191 255
149 191 255
148 191 255
148 191 255
148 191 255
148 191 255
148 191 255
148 191 255
148 191 255
148 191 255
148 191 255
148 191 255
148 191 255
148 191 255
148 191 255
148 191 255
148 191 255
148 191 255
148 191 255
147 191 255
147 191 255
147 191 255
147 191 255
147 191 255
147 191 255
147 191 255
147 191 255
147 191 255
147 191 255
147 190 255
147 190 255
147 190 255
147 190 255
147 190 255
147 190 255
147 190 255
147 190 255
147 190 255
147 190 255
147 190 255
147 190 255
147 190 255
147 190 255
147 190 255
147 190 255
147 190 255
147 190 255
147 190 255
147 190 255
147 190 255
147 190 255
147 190 255
147 190 255
147 190 255
147 190 255
147 190 255
147 190 255
147 190 255
147 190 255
147 191 255
147 191 255
147 191 255
147 191 255
147 191 255
147 191 255
147 191 255
147 191 255
147 191 255
147 191 255
148 191 255
148 191 255
148 191 255
148 191 255
148 191 255
148 191 255
148 191 255
148 191 255
148 191 255
148 191 255
148 191 255
148 191 255
148 191 255
148 191 255
148 191 255
148 191 255
148 191 255
149 191 255
149 191 255
149 191 255
149 191 255
149 191 255
149 192 255
149 192 255
149 192 255
149 192 255
149 192 255
149 192 255
149 192 255
149 192 255
150 192 255
150 192 255
150 192 255
150 192 255
150 192 255
150 192 255
150 192 255
150 192 255
150 192 255
150 192 255
150 192 255
151 193 255
151 193 255
151 193 255
151 193 255
151 193 255
151 193 255
151 193 255
151 193 255
151 193 255
151 193 255
151 193 255
152 193 255
152 193 255
152 193 255
152 193 255
152 193 255
152 193 255
152 194 255
152 194 255
152 194 255
153 194 255
153 194 255
153 194 255
153 194 255
153 194 255
153 194 255
153 194 255
153 194 255
153 194 255
153 194 255
154 194 255
154 194 255
154 194 255
154 195 255
154 195 255
154 195 255
154 195 255
154 195 255
154 195 255
155 195 255
155 195 255
155 195 255
155 195 255
155 195 255
155 195 255
155 195 255
155 195 255
155 195 255
156 196 255
156 196 255
156 196 255
156 196 255
156 196 255
156 196 255
156 196 255
156 196 255
156 196 255
157 196 255
157 196 255
157 196 255
157 196 255
157 196 255
157 196 255
157 197 255
157 197 255
157 197 255
157 197 255
158 197 255
158 197 255
158 197 255
158 197 255
158 197 255
158 197 255
158 197 255
158 197 255
158 197 255
159 197 255
159 197 255
159 197 255
159 198 255
159 198 255
159 198 255
159 198 255
159 198 255
159 198 255
159 198 255
160 198 255
160 198 255
160 198 255
160 198 255
160 198 255
160 198 255
160 198 255
160 198 255
160 198 255
160 198 255
161 199 255
161 199 255
161 199 255
161 199 255
161 199 255
161 199 255
161 199 255
161 199 255
161 199 255
161 199 255
162 199 255
162 199 255
162 199 255
162 199 255
162 199 255
162 199 255
162 199 255
162 200 255
162 200 255
162 200 255
162 200 255
163 200 255
163 200 255
163 200 255
163 200 255
163 200 255
163 200 255
163 200 255
163 200 255
163 200 255
163 200 255
163 200 255
164 200 255
164 200 255
164 200 255
164 200 255
164 201 255
164 201 255
164 201 255
164 201 255
164 201 255
164 201 255
164 201 255
164 200 255
164 200 255
164 200 255
164 200 255
163 200 255
163 200 255
163 200 255
163 200 255
163 200 255
163 200 255
163 200 255
163 200 255
163 200 255
163 200 255
163 200 255
162 200 255
162 200 255
162 200 255
162 199 255
162 199 255
162 199 255
162 199 255
162 199 255
162 199 255
162 199 255
161 199 255
161 199 255
161 199 255
161 199 255
161 199 255
161 199 255
161 199 255
161 199 255
161 199 255
161 199 255
161 199 255
160 198 255
160 198 255
160 198 255
160 198 255
160 198 255
160 198 255
160 198 255
160 198 255
160 198 255
159 198 255
159 198 255
159 198 255
159 198 255
159 198 255
159 198 255
159 198 255
159 197 255
159 197 255
159 197 255
158 197 255
158 197 255
158 197 255
158 197 255
158 197 255
158 197 255
158 197 255
158 197 255
158 197 255
158 197 255
157 197 255
157 197 255
157 197 255
157 196 255
157 196 255
157 196 255
157 196 255
157 196 255
157 196 255
156 196 255
156 196 255
156 196 255
156 196 255
156 196 255
156 196 255
156 196 255
156 196 255
156 196 255
155 195 255
155 195 255
155 195 255
155 195 255
155 195 255
155 195 255
155 195 255
155 195 255
155 195 255
154 195 255
154 195 255
154 195 255
154 195 255
154 195 255
154 195 255
154 194 255
154 194 255
154 194 255
153 194 255
153 194 255
153 194 255
153 194 255
153 194 255
153 194 255
153 194 255
153 194 255
153 194 255
153 194 255
152 194 255
152 194 255
152 194 255
152 193 255
152 193 255
152 193 255
152 193 255
152 193 255
152 193 255
152 193 255
151 193 255
151 193 255
151 193 255
151 193 255
151 193 255
151 193 255
151 193 255
151 193 255
151 193 255
151 193 255
150 192 255
150 192 255
150 192 255
150 192 255
150 192 255
150 192 255
150 192 255
150 192 255
150 192 255
150 192 255
150 192 255
149 192 255
149 192 255
149 192 255
149 192 255
149 192 255
149 192 255
149 192 255
149 192 255
149 192 255
149 191 255
149 191 255
149 191 255
149 191 255
149 191 255
148 191 255
148 191 255
148 191 255
148 191 255
148 191 255
148 191 255
148 191 255
148 191 255
148 191 255
148 191 255
148 191 255
148 191 255
148 191 255
148 191 255
148 191 255
148 191 255
148 191 255
148 191 255
148 191 255
148 191 255
147 191 255
147 191 255
147 191 255
147 191 255
147 191 255
147 191 255
147 191 255
147 191 255
147 191 255
147 191 255
147 191 255
147 191 255
147 191 255
147 191 255
147 191 255
147 191 255
147 191 255
147 191 255
147 191 255
147 191 255
147 191 255
147 191 255
147 191 255
147 191 255
147 191 255
147 191 255
147 191 255
147 191 255
147 191 255
147 191 255
147 191 255
147 191 255
147 191 255
147 191 255
147 191 255
147 191 255
147 191 255
147 191 255
148 191 255
148 191 255
148 191 255
148 191 255
148 191 255
148 191 255
148 191 255
148 191 255
148 191 255
148 191 255
148 191 255
148 191 255
148 191 255
148 191 255
148 191 255
148 191 255
148 191 255
148 191 255
148 191 255
148 191 255
149 191 255
149 191 255
149 191 255
149 191 255
149 191 255
149 192 255
149 192 255
149 192 255
149 192 255
149 192 255
149 192 255
149 192 255
149 192 255
149 192 255
150 192 255
150 192 255
150 192 255
150 192 255
150 192 255
150 192 255
150 192 255
150 192 255
150 192 255
150 192 255
150 192 255
151 193 255
151 193 255
151 193 255
151 193 255
151 193 255
151 193 255
151 193 255
151 193 255
151 193 255
151 193 255
151 193 255
152 193 255
152 193 255
152 193 255
152 193 255
152 193 255
152 193 255
152 194 255
152 194 255
152 194 255
153 194 255
153 194 255
153 194 255
153 194 255
153 194 255
153 194 255
153 194 255
153 194 255
153 194 255
153 194 255
154 194 255
154 194 255
154 194 255
154 195 255
154 195 255
154 195 255
154 195 255
154 195 255
154 195 255
155 195 255
155 195 255
155 195 255
155 195 255
155 195 255
155 195 255
155 195 255
155 195 255
155 195 255
156 196 255
156 196 255
156 196 255
156 196 255
156 196 255
156 196 255
156 196 255
156 196 255
156 196 255
157 196 255
157 196 255
157 196 255
157 196 255
157 196 255
157 196 255
157 197 255
157 197 255
157 197 255
158 197 255
158 197 255
158 197 255
158 197 255
158 197 255
158 197 255
158 197 255
158 197 255
158 197 255
158 197 255
159 197 255
159 197 255
159 197 255
159 198 255
159 198 255
159 198 255
159 198 255
159 198 255
159 198 255
159 198 255
160 198 255
160 198 255
160 198 255
160 198 255
160 198 255
160 198 255
160 198 255
160 198 255
160 198 255
161 199 255
161 199 255
161 199 255
161 199 255
161 199 255
161 199 255
161 199 255
161 199 255
161 199 255
161 199 255
162 199 255
162 199 255
162 199 255
162 199 255
162 199 255
162 199 255
162 199 255
162 199 255
162 200 255
162 200 255
162 200 255
163 200 255
163 200 255
163 200 255
163 200 255
163 200 255
163 200 255
163 200 255
163 200 255
163 200 255
163 200 255
163 200 255
164 200 255
164 200 255
164 200 255
164 200 255
164 201 255
164 201 255
164 201 255
164 201 255
164 201 255
164 201 255
164 201 255
164 201 255
164 201 255
164 201 255
164 201 255
164 201 255
164 200 255
164 200 255
164 200 255
164 200 255
163 200 255
163 200 255
163 200 255
163 200 255
163 200 255
163 200 255
163 200 255
163 200 255
163 200 255
163 200 255
163 200 255
162 200 255
162 200 255
162 200 255
162 200 255
162 199 255
162 199 255
162 199 255
162 199 255
162 199 255
162 199 255
162 199 255
161 199 255
161 199 255
161 199 255
161 199 255
161 199 255
161 199 255
161 199 255
161 199 255
161 199 255
161 199 255
160 198 255
160 198 255
160 198 255
160 198 255
160 198 255
160 198 255
160 198 255
160 198 255
160 198 255
160 198 255
159 198 255
159 198 255
159 198 255
159 198 255
159 198 255
159 198 255
159 197 255
159 197 255
159 197 255
158 197 255
158 197 255
158 197 255
158 197 255
158 197 255
158 197 255
158 197 255
158 197 255
158 197 255
158 197 255
157 197 255
157 197 255
157 197 255
157 196 255
157 196 255
157 196 255
157 196 255
157 196 255
157 196 255
156 196 255
156 196 255
156 196 255
156 196 255
156 196 255
156 196 255
156 196 255
156 196 255
156 196 255
155 195 255
155 195 255
155 195 255
155 195 255
155 195 255
155 195 255
155 195 255
155 195 255
155 195 255
154 195 255
154 195 255
154 195 255
154 195 255
154 195 255
154 195 255
154 194 255
154 194 255
154 194 255
153 194 255
153 194 255
153 194 255
153 194 255
153 194 255
153 194 255
153 194 255
153 194 255
153 194 255
153 194 255
152 194 255
152 194 255
152 194 255
152 193 255
152 193 255
152 193 255
152 193 255
152 193 255
152 193 255
152 193 255
151 193 255
151 193 255
151 193 255
151 193 255
151 193 255
151 193 255
151 193 255
151 193 255
151 193 255
151 193 255
150 192 255
150 192 255
150 192 255
150 192 255
150 192 255
150 192 255
150 192 255
150 192 255
150 192 255
150 192 255
150 192 255
150 192 255
149 192 255
149 192 255
149 192 255
149 192 255
149 192 255
149 192 255
149 192 255
149 192 255
149 192 255
149 191 255
149 191 255
149 191 255
149 191 255
149 191 255
149 191 255
148 191 255
148 191 255
148 191 255
148 191 255
148 191 255
148 191 255
148 191 255
148 191 255
148 191 255
148 191 255
148 191 255
148 191 255
148 191 255
148 191 255
148 191 255
148 191 255
148 191 255
148 191 255
148 191 255
148 191 255
148 191 255
148 191 255
148 191 255
148 191 255
148 191 255
147 191 255
147 191 255
147 191 255
147 191 255
147 191 255
147 191 255
147 191 255
147 191 255
147 191 255
147 191 255
147 191 255
147 191 255
147 191 255
147 191 255
147 191 255
147 191 255
147 191 255
147 191 255
147 191 255
147 191 255
147 191 255
148 191 255
148 191 255
148 191 255
148 191 255
148 191 255
148 191 255
148 191 255
148 191 255
148 191 255
148 191 255
148 191 255
148 191 255
148 191 255
148 191 255
148 191 255
148 191 255
148 191 255
148 191 255
148 191 255
148 191 255
148 191 255
148 191 255
148 191 255
148 191 255
149 191 255
149 191 255
149 191 255
149 191 255
149 191 255
149 191 255
149 192 255
149 192 255
149 192 255
149 192 255
149 192 255
149 192 255
149 192 255
149 192 255
149 192 255
150 192 255
150 192 255
150 192 255
150 192 255
150 192 255
150 192 255
150 192 255
150 192 255
150 192 255
150 192 255
150 192 255
150 192 255
151 193 255
151 193 255
151 193 255
151 193 255
151 193 255
151 193 255
151 193 255
151 193 255
151 193 255
151 193 255
152 193 255
152 193 255
152 193 255
152 193 255
152 193 255
152 193 255
152 193 255
152 194 255
152 194 255
152 194 255
153 194 255
153 194 255
153 194 255
153 194 255
153 194 255
153 194 255
153 194 255
153 194 255
153 194 255
154 194 255
154 194 255
154 194 255
154 194 255
154 195 255
154 195 255
154 195 255
154 195 255
154 195 255
154 195 255
155 195 255
155 195 255
155 195 255
155 195 255
155 195 255
155 195 255
155 195 255
155 195 255
155 195 255
156 196 255
156 196 255
156 196 255
156 196 255
156 196 255
156 196 255
156 196 255
156 196 255
156 196 255
157 196 255
157 196 255
157 196 255
157 196 255
157 196 255
157 196 255
157 197 255
157 197 255
157 197 255
158 197 255
158 197 255
158 197 255
158 197 255
158 197 255
158 197 255
158 197 255
158 197 255
158 197 255
158 197 255
159 197 255
159 197 255
159 197 255
159 198 255
159 198 255
159 198 255
159 198 255
159 198 255
159 198 255
160 198 255
160 198 255
160 198 255
160 198 255
160 198 255
160 198 255
160 198 255
160 198 255
160 198 255
160 198 255
161 199 255
161 199 255
161 199 255
161 199 255
161 199 255
161 199 255
161 199 255
161 199 255
161 199 255
161 199 255
162 199 255
162 199 255
162 199 255
162 199 255
162 199 255
162 199 255
162 199 255
162 200 255
162 200 255
162 200 255
162 200 255
163 200 255
163 200 255
163 200 255
163 200 255
163 200 255
163 200 255
163 200 255
163 200 255
163 200 255
163 200 255
163 200 255
164 200 255
164 200 255
164 200 255
164 200 255
164 201 255
164 201 255
164 201 255
164 201 255
164 201 255
164 201 255
164 201 255
165 201 255
165 201 255
164 201 255
164 201 255
164 201 255
164 201 255
164 201 255
164 201 255
164 201 255
164 200 255
164 200 255
164 200 255
164 200 255
163 200 255
163 200 255
163 200 255
163 200 255
163 200 255
163 200 255
163 200 255
163 200 255
163 200 255
163 200 255
163 200 255
162 200 255
162 200 255
162 200 255
162 200 255
162 199 255
162 199 255
162 199 255
162 199 255
162 199 255
162 199 255
162 199 255
161 199 255
161 199 255
161 199 255
161 199 255
161 199 255
161 199 255
161 199 255
161 199 255
161 199 255
161 199 255
160 198 255
160 198 255
160 198 255
160 198 255
160 198 255
160 198 255
160 198 255
160 198 255
160 198 255
160 198 255
159 198 255
159 198 255
159 198 255
159 198 255
159 198 255
159 198 255
159 197 255
159 197 255
159 197 255
158 197 255
158 197 255
158 197 255
158 197 255
158 197 255
158 197 255
158 197 255
158 197 255
158 197 255
158 197 255
157 197 255
157 197 255
157 197 255
157 196 255
157 196 255
157 196 255
157 196 255
157 196 255
157 196 255
156 196 255
156 196 255
156 196 255
156 196 255
156 196 255
156 196 255
156 196 255
156 196 255
156 196 255
155 195 255
155 195 255
155 195 255
155 195 255
155 195 255
155 195 255
155 195 255
155 195 255
155 195 255
154 195 255
154 195 255
154 195 255
154 195 255
154 195 255
154 195 255
154 195 255
154 194 255
154 194 255
154 194 255
153 194 255
153 194 255
153 194 255
153 194 255
153 194 255
153 194 255
153 194 255
153 194 255
153 194 255
152 194 255
152 194 255
152 194 255
152 193 255
152 193 255
152 193 255
152 193 255
152 193 255
152 193 255
152 193 255
151 193 255
151 193 255
151 193 255
151 193 255
151 193 255
151 193 255
151 193 255
151 193 255
151 193 255
151 193 255
151 193 255
150 192 255
150 192 255
150 192 255
150 192 255
150 192 255
150 192 255
150 192 255
150 192 255
150 192 255
150 192 255
150 192 255
150 192 255
149 192 255
149 192 255
149 192 255
149 192 255
149 192 255
149 192 255
149 192 255
149 192 255
149 192 255
149 192 255
149 191 255
149 191 255
149 191 255
149 191 255
149 191 255
148 191 255
148 191 255
148 191 255
148 191 255
148 191 255
148 191 255
148 191 255
148 191 255
148 191 255
148 191 255
148 191 255
148 191 255
148 191 255
148 191 255
148 191 255
148 191 255
148 191 255
148 191 255
148 191 255
148 191 255
148 191 255
148 191 255
148 191 255
148 191 255
148 191 255
148 191 255
148 191 255
148 191 255
148 191 255
148 191 255
148 191 255
148 191 255
148 191 255
148 191 255
148 191 255
148 191 255
148 191 255
148 191 255
148 191 255
148 191 255
148 191 255
148 191 255
148 191 255
148 191 255
148 191 255
148 191 255
148 191 255
148 191 255
148 191 255
148 191 255
148 191 255
148 191 255
148 191 255
148 191 255
148 191 255
148 191 255
148 191 255
148 191 255
148 191 255
148 191 255
148 191 255
148 191 255
148 191 255
148 191 255
149 191 255
149 191 255
149 191 255
149 191 255
149 191 255
149 192 255
149 192 255
149 192 255
149 192 255
149 192 255
149 192 255
149 192 255
149 192 255
149 192 255
149 192 255
150 192 255
150 192 255
150 192 255
150 192 255
150 192 255
150 192 255
150 192 255
150 192 255
150 192 255
150 192 255
150 192 255
150 192 255
151 193 255
151 193 255
151 193 255
151 193 255
151 193 255
151 193 255
151 193 255
151 193 255
151 193 255
151 193 255
151 193 255
152 193 255
152 193 255
152 193 255
152 193 255
152 193 255
152 193 255
152 193 255
152 194 255
152 194 255
152 194 255
153 194 255
153 194 255
153 194 255
153 194 255
153 194 255
153 194 255
153 194 255
153 194 255
153 194 255
154 194 255
154 194 255
154 194 255
154 195 255
154 195 255
154 195 255
154 195 255
154 195 255
154 195 255
154 195 255
155 195 255
155 195 255
155 195 255
155 195 255
155 195 255
155 195 255
155 195 255
155 195 255
155 195 255
156 196 255
156 196 255
156 196 255
156 196 255
156 196 255
156 196 255
156 196 255
156 196 255
156 196 255
157 196 255
157 196 255
157 196 255
157 196 255
157 196 255
157 196 255
157 197 255
157 197 255
157 197 255
158 197 255
158 197 255
158 197 255
158 197 255
158 197 255
158 197 255
158 197 255
158 197 255
158 197 255
159 197 255
159 197 255
159 197 255
159 197 255
159 198 255
159 198 255
159 198 255
159 198 255
159 198 255
159 198 255
160 198 255
160 198 255
160 198 255
160 198 255
160 198 255
160 198 255
160 198 255
160 198 255
160 198 255
160 198 255
161 199 255
161 199 255
161 199 255
161 199 255
161 199 255
161 199 255
161 199 255
161 199 255
161 199 255
161 199 255
162 199 255
162 199 255
162 199 255
162 199 255
162 199 255
162 199 255
162 199 255
162 200 255
162 200 255
162 200 255
163 200 255
163 200 255
163 200 255
163 200 255
163 200 255
163 200 255
163 200 255
163 200 255
163 200 255
163 200 255
163 200 255
163 200 255
164 200 255
164 200 255
164 200 255
164 201 255
164 201 255
164 201 255
164 201 255
164 201 255
164 201 255
164 201 255
164 201 255
165 201 255
165 201 255
165 201 255
165 201 255
165 201 255
165 201 255
164 201 255
164 201 255
164 201 255
164 201 255
164 201 255
164 201 255
164 201 255
164 201 255
164 200 255
164 200 255
164 200 255
164 200 255
163 200 255
163 200 255
163 200 255
163 200 255
163 200 255
163 200 255
163 200 255
163 200 255
163 200 255
163 200 255
163 200 255
162 200 255
162 200 255
162 200 255
162 199 255
162 199 255
162 199 255
162 199 255
162 199 255
162 199 255
162 199 255
161 199 255
161 199 255
161 199 255
161 199 255
161 199 255
161 199 255
161 199 255
161 199 255
161 199 255
161 199 255
160 198 255
160 198 255
160 198 255
160 198 255
160 198 255
160 198 255
160 198 255
160 198 255
160 198 255
160 198 255
159 198 255
159 198 255
159 198 255
159 198 255
159 198 255
159 198 255
159 198 255
159 197 255
159 197 255
159 197 255
158 197 255
158 197 255
158 197 255
158 197 255
158 197 255
158 197 255
158 197 255
158 197 255
158 197 255
157 197 255
157 197 255
157 197 255
157 196 255
157 196 255
157 196 255
157 196 255
157 196 255
157 196 255
156 196 255
156 196 255
156 196 255
156 196 255
156 196 255
156 196 255
156 196 255
156 196 255
156 196 255
155 195 255
155 195 255
155 195 255
155 195 255
155 195 255
155 195 255
155 195 255
155 195 255
155 195 255
155 195 255
154 195 255
154 195 255
154 195 255
154 195 255
154 195 255
154 195 255
154 194 255
154 194 255
154 194 255
153 194 255
153 194 255
153 194 255
153 194 255
153 194 255
153 194 255
153 194 255
153 194 255
153 194 255
153 194 255
152 194 255
152 194 255
152 194 255
152 193 255
152 193 255
152 193 255
152 193 255
152 193 255
152 193 255
152 193 255
151 193 255
151 193 255
151 193 255
151 193 255
151 193 255
151 193 255
151 193 255
151 193 255
151 193 255
151 193 255
151 193 255
150 192 255
150 192 255
150 192 255
150 192 255
150 192 255
150 192 255
150 192 255
150 192 255
150 192 255
150 192 255
150 192 255
150 192 255
149 192 255
149 192 255
149 192 255
149 192 255
149 192 255
149 192 255
149 192 255
149 192 255
149 192 255
149 192 255
149 192 255
149 191 255
149 191 255
149 191 255
149 191 255
149 191 255
149 191 255
148 191 255
148 191 255
148 191 255
148 191 255
148 191 255
148 191 255
148 191 255
148 191 255
148 191 255
148 191 255
148 191 255
148 191 255
148 191 255
148 191 255
148 191 255
148 191 255
148 191 255
148 191 255
148 191 255
148 191 255
148 191 255
148 191 255
148 191 255
148 191 255
148 191 255
148 191 255
148 191 255
148 191 255
148 191 255
148 191 255
148 191 255
148 191 255
148 191 255
148 191 255
148 191 255
148 191 255
148 191 255
148 191 255
148 191 255
148 191 255
148 191 255
148 191 255
148 191 255
148 191 255
148 191 255
148 191 255
148 191 255
148 191 255
148 191 255
148 191 255
148 191 255
148 191 255
148 191 255
148 191 255
149 191 255
149 191 255
149 191 255
149 191 255
149 191 255
149 191 255
149 192 255
149 192 255
149 192 255
149 192 255
149 192 255
149 192 255
149 192 255
149 192 255
149 192 255
149 192 255
149 192 255
150 192 255
150 192 255
150 192 255
150 192 255
150 192 255
150 192 255
150 192 255
150 192 255
150 192 255
150 192 255
150 192 255
150 192 255
151 193 255
151 193 255
151 193 255
151 193 255
151 193 255
151 193 255
151 193 255
151 193 255
151 193 255
151 193 255
151 193 255
152 193 255
152 193 255
152 193 255
152 193 255
152 193 255
152 193 255
152 193 255
152 194 255
152 194 255
152 194 255
152 194 255
153 194 255
153 194 255
153 194 255
153 194 255
153 194 255
153 194 255
153 194 255
153 194 255
153 194 255
154 194 255
154 194 255
154 194 255
154 195 255
154 195 255
154 195 255
154 195 255
154 195 255
154 195 255
155 195 255
155 195 255
155 195 255
155 195 255
155 195 255
155 195 255
155 195 255
155 195 255
155 195 255
155 195 255
156 196 255
156 196 255
156 196 255
156 196 255
156 196 255
156 196 255
156 196 255
156 196 255
156 196 255
157 196 255
157 196 255
157 196 255
157 196 255
157 196 255
157 196 255
157 197 255
157 197 255
157 197 255
158 197 255
158 197 255
158 197 255
158 197 255
158 197 255
158 197 255
158 197 255
158 197 255
158 197 255
159 197 255
159 197 255
159 197 255
159 197 255
159 198 255
159 198 255
159 198 255
159 198 255
159 198 255
159 198 255
160 198 255
160 198 255
160 198 255
160 198 255
160 198 255
160 198 255
160 198 255
160 198 255
160 198 255
160 198 255
161 199 255
161 199 255
161 199 255
161 199 255
161 199 255
161 199 255
161 199 255
161 199 255
161 199 255
161 199 255
162 199 255
162 199 255
162 199 255
162 199 255
162 199 255
162 199 255
162 199 255
162 200 255
162 200 255
162 200 255
163 200 255
163 200 255
163 200 255
163 200 255
163 200 255
163 200 255
163 200 255
163 200 255
163 200 255
163 200 255
163 200 255
164 200 255
164 200 255
164 200 255
164 200 255
164 201 255
164 201 255
164 201 255
164 201 255
164 201 255
164 201 255
164 201 255
164 201 255
165 201 255
165 201 255
165 201 255
165 201 255
165 201 255
165 201 255
165 201 255
165 201 255
165 201 255
165 201 255
165 201 255
164 201 255
164 201 255
164 201 255
164 201 255
164 201 255
164 201 255
164 201 255
164 201 255
164 200 255
164 200 255
164 200 255
163 200 255
163 200 255
163 200 255
163 200 255
163 200 255
163 200 255
163 200 255
163 200 255
163 200 255
163 200 255
163 200 255
162 200 255
162 200 255
162 200 255
162 200 255
162 199 255
162 199 255
162 199 255
162 199 255
162 199 255
162 199 255
161 199 255
161 199 255
161 199 255
161 199 255
161 199 255
161 199 255
161 199 255
161 199 255
161 199 255
161 199 255
160 198 255
160 198 255
160 198 255
160 198 255
160 198 255
160 198 255
160 198 255
160 198 255
160 198 255
160 198 255
159 198 255
159 198 255
159 198 255
159 198 255
159 198 255
159 198 255
159 198 255
159 197 255
159 197 255
159 197 255
158 197 255
158 197 255
158 197 255
158 197 255
158 197 255
158 197 255
158 197 255
158 197 255
158 197 255
157 197 255
157 197 255
157 197 255
157 196 255
157 196 255
157 196 255
157 196 255
157 196 255
157 196 255
156 196 255
156 196 255
156 196 255
156 196 255
156 196 255
156 196 255
156 196 255
156 196 255
156 196 255
155 195 255
155 195 255
155 195 255
155 195 255
155 195 255
155 195 255
155 195 255
155 195 255
155 195 255
155 195 255
154 195 255
154 195 255
154 195 255
154 195 255
154 195 255
154 195 255
154 194 255
154 194 255
154 194 255
153 194 255
153 194 255
153 194 255
153 194 255
153 194 255
153 194 255
153 194 255
153 194 255
153 194 255
153 194 255
152 194 255
152 194 255
152 194 255
152 193 255
152 193 255
152 193 255
152 193 255
152 193 255
152 193 255
152 193 255
151 193 255
151 193 255
151 193 255
151 193 255
151 193 255
151 193 255
151 193 255
151 193 255
151 193 255
151 193 255
151 193 255
150 192 255
150 192 255
150 192 255
150 192 255
150 192 255
150 192 255
150 192 255
150 192 255
150 192 255
150 192 255
150 192 255
150 192 255
150 192 255
149 192 255
149 192 255
149 192 255
149 192 255
149 192 255
149 192 255
149 192 255
149 192 255
149 192 255
149 192 255
149 192 255
149 192 255
149 191 255
149 191 255
149 191 255
149 191 255
149 191 255
149 191 255
149 191 255
148 191 255
148 191 255
148 191 255
148 191 255
148 191 255
148 191 255
148 191 255
148 191 255
148 191 255
148 191 255
148 191 255
148 191 255
148 191 255
148 191 255
148 191 255
148 191 255
148 191 255
148 191 255
148 191 255
148 191 255
148 191 255
148 191 255
148 191 255
148 191 255
148 191 255
148 191 255
148 191 255
148 191 255
148 191 255
148 191 255
148 191 255
148 191 255
148 191 255
148 191 255
148 191 255
148 191 255
148 191 255
148 191 255
148 191 255
148 191 255
148 191 255
148 191 255
148 191 255
148 191 255
149 191 255
149 191 255
149 191 255
149 191 255
149 191 255
149 191 255
149 191 255
149 191 255
149 192 255
149 192 255
149 192 255
149 192 255
149 192 255
149 192 255
149 192 255
149 192 255
149 192 255
149 192 255
149 192 255
150 192 255
150 192 255
150 192 255
150 192 255
150 192 255
150 192 255
150 192 255
150 192 255
150 192 255
150 192 255
150 192 255
150 192 255
150 192 255
151 193 255
151 193 255
151 193 255
151 193 255
151 193 255
151 193 255
151 193 255
151 193 255
151 193 255
151 193 255
151 193 255
152 193 255
152 193 255
152 193 255
152 193 255
152 193 255
152 193 255
152 193 255
152 194 255
152 194 255
152 194 255
153 194 255
153 194 255
153 194 255
153 194 255
153 194 255
153 194 255
153 194 255
153 194 255
153 194 255
153 194 255
154 194 255
154 194 255
154 194 255
154 195 255
154 195 255
154 195 255
154 195 255
154 195 255
154 195 255
155 195 255
155 195 255
155 195 255
155 195 255
155 195 255
155 195 255
155 195 255
155 195 255
155 195 255
156 196 255
156 196 255
156 196 255
156 196 255
156 196 255
156 196 255
156 196 255
156 196 255
156 196 255
156 196 255
157 196 255
157 196 255
157 196 255
157 196 255
157 196 255
157 196 255
157 197 255
157 197 255
157 197 255
158 197 255
158 197 255
158 197 255
158 197 255
158 197 255
158 197 255
158 197 255
158 197 255
158 197 255
159 197 255
159 197 255
159 197 255
159 198 255
159 198 255
159 198 255
159 198 255
159 198 255
159 198 255
159 198 255
160 198 255
160 198 255
160 198 255
160 198 255
160 198 255
160 198 255
160 198 255
160 198 255
160 198 255
161 199 255
161 199 255
161 199 255
161 199 255
161 199 255
161 199 255
161 199 255
161 199 255
161 199 255
161 199 255
162 199 255
162 199 255
162 199 255
162 199 255
162 199 255
162 199 255
162 199 255
162 200 255
162 200 255
162 200 255
162 200 255
163 200 255
163 200 255
163 200 255
163 200 255
163 200 255
163 200 255
163 200 255
163 200 255
163 200 255
163 200 255
163 200 255
164 200 255
164 200 255
164 200 255
164 201 255
164 201 255
164 201 255
164 201 255
164 201 255
164 201 255
164 201 255
164 201 255
165 201 255
165 201 255
165 201 255
165 201 255
165 201 255
165 201 255
165 201 255
165 201 255
165 201 255
165 201 255
165 201 255
165 201 255
165 201 255
165 201 255
165 201 255
165 201 255
164 201 255
164 201 255
164 201 255
164 201 255
164 201 255
164 201 255
164 201 255
164 201 255
164 200 255
164 200 255
164 200 255
164 200 255
163 200 255
163 200 255
163 200 255
163 200 255
163 200 255
163 200 255
163 200 255
163 200 255
163 200 255
163 200 255
162 200 255
162 200 255
162 200 255
162 200 255
162 199 255
162 199 255
162 199 255
162 199 255
162 199 255
162 199 255
162 199 255
161 199 255
161 199 255
161 199 255
161 199 255
161 199 255
161 199 255
161 199 255
161 199 255
161 199 255
161 199 255
160 198 255
160 198 255
160 198 255
160 198 255
160 198 255
160 198 255
160 198 255
160 198 255
160 198 255
159 198 255
159 198 255
159 198 255
159 198 255
159 198 255
159 198 255
159 198 255
159 197 255
159 197 255
159 197 255
158 197 255
158 197 255
158 197 255
158 197 255
158 197 255
158 197 255
158 197 255
158 197 255
158 197 255
157 197 255
157 197 255
157 197 255
157 196 255
157 196 255
157 196 255
157 196 255
157 196 255
157 196 255
157 196 255
156 196 255
156 196 255
156 196 255
156 196 255
156 196 255
156 196 255
156 196 255
156 196 255
156 196 255
155 195 255
155 195 255
155 195 255
155 195 255
155 195 255
155 195 255
155 195 255
155 195 255
155 195 255
154 195 255
154 195 255
154 195 255
154 195 255
154 195 255
154 195 255
154 194 255
154 194 255
154 194 255
153 194 255
153 194 255
153 194 255
153 194 255
153 194 255
153 194 255
153 194 255
153 194 255
153 194 255
153 194 255
152 194 255
152 194 255
152 194 255
152 194 255
152 193 255
152 193 255
152 193 255
152 193 255
152 193 255
152 193 255
151 193 255
151 193 255
151 193 255
151 193 255
151 193 255
151 193 255
151 193 255
151 193 255
151 193 255
151 193 255
151 193 255
151 193 255
150 192 255
150 192 255
150 192 255
150 192 255
150 192 255
150 192 255
150 192 255
150 192 255
150 192 255
150 192 255
150 192 255
150 192 255
150 192 255
150 192 255
149 192 255
149 192 255
149 192 255
149 192 255
149 192 255
149 192 255
149 192 255
149 192 255
149 192 255
149 192 255
149 192 255
149 192 255
149 191 255
149 191 255
149 191 255
149 191 255
149 191 255
149 191 255
149 191 255
149 191 255
149 191 255
149 191 255
148 191 255
148 191 255
148 191 255
148 191 255
148 191 255
148 191 255
148 191 255
148 191 255
148 191 255
148 191 255
148 191 255
148 191 255
148 191 255
148 191 255
148 191 255
148 191 255
148 191 255
148 191 255
148 191 255
148 191 255
148 191 255
148 191 255
148 191 255
148 191 255
148 191 255
148 191 255
148 191 255
148 191 255
148 191 255
148 191 255
149 191 255
149 191 255
149 191 255
149 191 255
149 191 255
149 191 255
149 191 255
149 191 255
149 191 255
149 192 255
149 192 255
149 192 255
149 192 255
149 192 255
149 192 255
149 192 255
149 192 255
149 192 255
149 192 255
149 192 255
149 192 255
149 192 255
150 192 255
150 192 255
150 192 255
150 192 255
150 192 255
150 192 255
150 192 255
150 192 255
150 192 255
150 192 255
150 192 255
150 192 255
150 192 255
150 192 255
151 193 255
151 193 255
151 193 255
151 193 255
151 193 255
151 193 255
151 193 255
151 193 255
151 193 255
151 193 255
151 193 255
152 193 255
152 193 255
152 193 255
152 193 255
152 193 255
152 193 255
152 193 255
152 194 255
152 194 255
152 194 255
152 194 255
153 194 255
153 194 255
153 194 255
153 194 255
153 194 255
153 194 255
153 194 255
153 194 255
153 194 255
153 194 255
154 194 255
154 194 255
154 194 255
154 195 255
154 195 255
154 195 255
154 195 255
154 195 255
154 195 255
155 195 255
155 195 255
155 195 255
155 195 255
155 195 255
155 195 255
155 195 255
155 195 255
155 195 255
156 196 255
156 196 255
156 196 255
156 196 255
156 196 255
156 196 255
156 196 255
156 196 255
156 196 255
156 196 255
157 196 255
157 196 255
157 196 255
157 196 255
157 196 255
157 196 255
157 197 255
157 197 255
157 197 255
158 197 255
158 197 255
158 197 255
158 197 255
158 197 255
158 197 255
158 197 255
158 197 255
158 197 255
159 197 255
159 197 255
159 197 255
159 198 255
159 198 255
159 198 255
159 198 255
159 198 255
159 198 255
160 198 255
160 198 255
160 198 255
160 198 255
160 198 255
160 198 255
160 198 255
160 198 255
160 198 255
160 198 255
161 199 255
161 199 255
161 199 255
161 199 255
161 199 255
161 199 255
161 199 255
161 199 255
161 199 255
161 199 255
162 199 255
162 199 255
162 199 255
162 199 255
162 199 255
162 199 255
162 199 255
162 200 255
162 200 255
162 200 255
162 200 255
163 200 255
163 200 255
163 200 255
163 200 255
163 200 255
163 200 255
163 200 255
163 200 255
163 200 255
163 200 255
164 200 255
164 200 255
164 200 255
164 200 255
164 201 255
164 201 255
164 201 255
164 201 255
164 201 255
164 201 255
164 201 255
164 201 255
165 201 255
165 201 255
165 201 255
165 201 255
165 201 255
165 201 255
165 201 255
165 201 255
165 201 255
165 201 255
165 201 255
165 201 255
165 201 255
165 201 255
165 201 255
165 201 255
165 201 255
165 201 255
165 201 255
165 201 255
165 201 255
164 201 255
164 201 255
164 201 255
164 201 255
164 201 255
164 201 255
164 201 255
164 200 255
164 200 255
164 200 255
164 200 255
163 200 255
163 200 255
163 200 255
163 200 255
163 200 255
163 200 255
163 200 255
163 200 255
163 200 255
163 200 255
163 200 255
162 200 255
162 200 255
162 200 255
162 199 255
162 199 255
162 199 255
162 199 255
162 199 255
162 199 255
162 199 255
161 199 255
161 199 255
161 199 255
161 199 255
161 199 255
161 199 255
161 199 255
161 199 255
161 199 255
161 199 255
160 198 255
160 198 255
160 198 255
160 198 255
160 198 255
160 198 255
160 198 255
160 198 255
160 198 255
160 198 255
159 198 255
159 198 255
159 198 255
159 198 255
159 198 255
159 198 255
159 197 255
159 197 255
159 197 255
158 197 255
158 197 255
158 197 255
158 197 255
158 197 255
158 197 255
158 197 255
158 197 255
158 197 255
158 197 255
157 197 255
157 197 255
157 197 255
157 196 255
157 196 255
157 196 255
157 196 255
157 196 255
157 196 255
156 196 255
156 196 255
156 196 255
156 196 255
156 196 255
156 196 255
156 196 255
156 196 255
156 196 255
155 195 255
155 195 255
155 195 255
155 195 255
155 195 255
155 195 255
155 195 255
155 195 255
155 195 255
154 195 255
154 195 255
154 195 255
154 195 255
154 195 255
154 195 255
154 194 255
154 194 255
154 194 255
154 194 255
153 194 255
153 194 255
153 194 255
153 194 255
153 194 255
153 194 255
153 194 255
153 194 255
153 194 255
153 194 255
152 194 255
152 194 255
152 194 255
152 193 255
152 193 255
152 193 255
152 193 255
152 193 255
152 193 255
152 193 255
151 193 255
151 193 255
151 193 255
151 193 255
151 193 255
151 193 255
151 193 255
151 193 255
151 193 255
151 193 255
151 193 255
151 193 255
150 192 255
150 192 255
150 192 255
150 192 255
150 192 255
150 192 255
150 192 255
150 192 255
150 192 255
150 192 255
150 192 255
150 192 255
150 192 255
150 192 255
150 192 255
149 192 255
149 192 255
149 192 255
149 192 255
149 192 255
149 192 255
149 192 255
149 192 255
149 192 255
149 192 255
149 192 255
149 192 255
149 192 255
149 192 255
149 191 255
149 191 255
149 191 255
149 191 255
149 191 255
149 191 255
149 191 255
149 191 255
149 191 255
149 191 255
149 191 255
149 191 255
149 191 255
149 191 255
149 191 255
149 191 255
149 191 255
149 191 255
149 191 255
149 191 255
149 191 255
149 191 255
149 191 255
149 191 255
149 191 255
149 191 255
149 191 255
149 191 255
149 191 255
149 191 255
149 191 255
149 191 255
149 191 255
149 191 255
149 191 255
149 191 255
149 191 255
149 191 255
149 192 255
149 192 255
149 192 255
149 192 255
149 192 255
149 192 255
149 192 255
149 192 255
149 192 255
149 192 255
149 192 255
149 192 255
149 192 255
149 192 255
150 192 255
150 192 255
150 192 255
150 192 255
150 192 255
150 192 255
150 192 255
150 192 255
150 192 255
150 192 255
150 192 255
150 192 255
150 192 255
150 192 255
150 192 255
151 193 255
151 193 255
151 193 255
151 193 255
151 193 255
151 193 255
151 193 255
151 193 255
151 193 255
151 193 255
151 193 255
151 193 255
152 193 255
152 193 255
152 193 255
152 193 255
152 193 255
152 193 255
152 193 255
152 194 255
152 194 255
152 194 255
153 194 255
153 194 255
153 194 255
153 194 255
153 194 255
153 194 255
153 194 255
153 194 255
153 194 255
153 194 255
154 194 255
154 194 255
154 194 255
154 194 255
154 195 255
154 195 255
154 195 255
154 195 255
154 195 255
154 195 255
155 195 255
155 195 255
155 195 255
155 195 255
155 195 255
155 195 255
155 195 255
155 195 255
155 195 255
156 196 255
156 196 255
156 196 255
156 196 255
156 196 255
156 196 255
156 196 255
156 196 255
156 196 255
157 196 255
157 196 255
157 196 255
157 196 255
157 196 255
157 196 255
157 197 255
157 197 255
157 197 255
157 197 255
158 197 255
158 197 255
158 197 255
158 197 255
158 197 255
158 197 255
158 197 255
158 197 255
158 197 255
159 197 255
159 197 255
159 197 255
159 198 255
159 198 255
159 198 255
159 198 255
159 198 255
159 198 255
160 198 255
160 198 255
160 198 255
160 198 255
160 198 255
160 198 255
160 198 255
160 198 255
160 198 255
160 198 255
161 199 255
161 199 255
161 199 255
161 199 255
161 199 255
161 199 255
161 199 255
161 199 255
161 199 255
161 199 255
162 199 255
162 199 255
162 199 255
162 199 255
162 199 255
162 199 255
162 199 255
162 200 255
162 200 255
162 200 255
163 200 255
163 200 255
163 200 255
163 200 255
163 200 255
163 200 255
163 200 255
163 200 255
163 200 255
163 200 255
163 200 255
164 200 255
164 200 255
164 200 255
164 200 255
164 201 255
164 201 255
164 201 255
164 201 255
164 201 255
164 201 255
164 201 255
165 201 255
165 201 255
165 201 255
165 201 255
165 201 255
165 201 255
165 201 255
165 201 255
165 201 255
165 201 255
165 201 255
165 201 255
166 202 255
166 202 255
166 202 255
165 201 255
165 201 255
165 201 255
165 201 255
165 201 255
165 201 255
165 201 255
165 201 255
165 201 255
165 201 255
165 201 255
164 201 255
164 201 255
164 201 255
164 201 255
164 201 255
164 201 255
164 201 255
164 201 255
164 200 255
164 200 255
164 200 255
164 200 255
163 200 255
163 200 255
163 200 255
163 200 255
163 200 255
163 200 255
163 200 255
163 200 255
163 200 255
163 200 255
162 200 255
162 200 255
162 200 255
162 200 255
162 199 255
162 199 255
162 199 255
162 199 255
162 199 255
162 199 255
161 199 255
161 199 255
161 199 255
161 199 255
161 199 255
161 199 255
161 199 255
161 199 255
161 199 255
161 199 255
161 199 255
160 198 255
160 198 255
160 198 255
160 198 255
160 198 255
160 198 255
160 198 255
160 198 255
160 198 255
159 198 255
159 198 255
159 198 255
159 198 255
159 198 255
159 198 255
159 197 255
159 197 255
159 197 255
158 197 255
158 197 255
158 197 255
158 197 255
158 197 255
158 197 255
158 197 255
158 197 255
158 197 255
158 197 255
157 197 255
157 197 255
157 197 255
157 196 255
157 196 255
157 196 255
157 196 255
157 196 255
157 196 255
156 196 255
156 196 255
156 196 255
156 196 255
156 196 255
156 196 255
156 196 255
156 196 255
156 196 255
155 195 255
155 195 255
155 195 255
155 195 255
155 195 255
155 195 255
155 195 255
155 195 255
155 195 255
154 195 255
154 195 255
154 195 255
154 195 255
154 195 255
154 195 255
154 195 255
154 194 255
154 194 255
154 194 255
153 194 255
153 194 255
153 194 255
153 194 255
153 194 255
153 194 255
153 194 255
153 194 255
153 194 255
153 194 255
152 194 255
152 194 255
152 194 255
152 193 255
152 193 255
152 193 255
152 193 255
152 193 255
152 193 255
152 193 255
152 193 255
151 193 255
151 193 255
151 193 255
151 193 255
151 193 255
151 193 255
151 193 255
151 193 255
151 193 255
151 193 255
151 193 255
151 193 255
150 192 255
150 192 255
150 192 255
150 192 255
150 192 255
150 192 255
150 192 255
150 192 255
150 192 255
150 192 255
150 192 255
150 192 255
150 192 255
150 192 255
150 192 255
150 192 255
149 192 255
149 192 255
149 192 255
149 192 255
149 192 255
149 192 255
149 192 255
149 192 255
149 192 255
149 192 255
149 192 255
149 192 255
149 192 255
149 192 255
149 192 255
149 192 255
149 192 255
149 192 255
149 192 255
149 191 255
149 191 255
149 191 255
149 191 255
149 191 255
149 191 255
149 191 255
149 191 255
149 191 255
149 191 255
149 191 255
149 191 255
149 191 255
149 191 255
149 191 255
149 191 255
149 191 255
149 191 255
149 191 255
149 191 255
149 192 255
149 192 255
149 192 255
149 192 255
149 192 255
149 192 255
149 192 255
149 192 255
149 192 255
149 192 255
149 192 255
149 192 255
149 192 255
149 192 255
149 192 255
149 192 255
149 192 255
149 192 255
149 192 255
150 192 255
150 192 255
150 192 255
150 192 255
150 192 255
150 192 255
150 192 255
150 192 255
150 192 255
150 192 255
150 192 255
150 192 255
150 192 255
150 192 255
150 192 255
150 192 255
151 193 255
151 193 255
151 193 255
151 193 255
151 193 255
151 193 255
151 193 255
151 193 255
151 193 255
151 193 255
151 193 255
151 193 255
152 193 255
152 193 255
152 193 255
152 193 255
152 193 255
152 193 255
152 193 255
152 194 255
152 194 255
152 194 255
152 194 255
153 194 255
153 194 255
153 194 255
153 194 255
153 194 255
153 194 255
153 194 255
153 194 255
153 194 255
153 194 255
154 194 255
154 194 255
154 194 255
154 195 255
154 195 255
154 195 255
154 195 255
154 195 255
154 195 255
154 195 255
155 195 255
155 195 255
155 195 255
155 195 255
155 195 255
155 195 255
155 195 255
155 195 255
155 195 255
156 196 255
156 196 255
156 196 255
156 196 255
156 196 255
156 196 255
156 196 255
156 196 255
156 196 255
157 196 255
157 196 255
157 196 255
157 196 255
157 196 255
157 196 255
157 197 255
157 197 255
157 197 255
158 197 255
158 197 255
158 197 255
158 197 255
158 197 255
158 197 255
158 197 255
158 197 255
158 197 255
158 197 255
159 197 255
159 197 255
159 197 255
159 198 255
159 198 255
159 198 255
159 198 255
159 198 255
159 198 255
160 198 255
160 198 255
160 198 255
160 198 255
160 198 255
160 198 255
160 198 255
160 198 255
160 198 255
160 198 255
161 199 255
161 199 255
161 199 255
161 199 255
161 199 255
161 199 255
161 199 255
161 199 255
161 199 255
162 199 255
162 199 255
162 199 255
162 199 255
162 199 255
162 199 255
162 199 255
162 200 255
162 200 255
162 200 255
162 200 255
163 200 255
163 200 255
163 200 255
163 200 255
163 200 255
163 200 255
163 200 255
163 200 255
163 200 255
163 200 255
163 200 255
164 200 255
164 200 255
164 200 255
164 201 255
164 201 255
164 201 255
164 201 255
164 201 255
164 201 255
164 201 255
164 201 255
165 201 255
165 201 255
165 201 255
165 201 255
165 201 255
165 201 255
165 201 255
165 201 255
165 201 255
165 201 255
165 201 255
165 201 255
166 202 255
166 202 255
166 202 255
166 202 255
166 202 255
166 202 255
166 202 255
165 201 255
165 201 255
165 201 255
165 201 255
165 201 255
165 201 255
165 201 255
165 201 255
165 201 255
165 201 255
165 201 255
165 201 255
164 201 255
164 201 255
164 201 255
164 201 255
164 201 255
164 201 255
164 201 255
164 200 255
164 200 255
164 200 255
164 200 255
163 200 255
163 200 255
163 200 255
163 200 255
163 200 255
163 200 255
163 200 255
163 200 255
163 200 255
163 200 255
163 200 255
162 200 255
162 200 255
162 200 255
162 199 255
162 199 255
162 199 255
162 199 255
162 199 255
162 199 255
162 199 255
161 199 255
161 199 255
161 199 255
161 199 255
161 199 255
161 199 255
161 199 255
161 199 255
161 199 255
161 199 255
160 198 255
160 198 255
160 198 255
160 198 255
160 198 255
160 198 255
160 198 255
160 198 255
160 198 255
159 198 255
159 198 255
159 198 255
159 198 255
159 198 255
159 198 255
159 198 255
159 197 255
159 197 255
159 197 255
158 197 255
158 197 255
158 197 255
158 197 255
158 197 255
158 197 255
158 197 255
158 197 255
158 197 255
157 197 255
157 197 255
157 197 255
157 196 255
157 196 255
157 196 255
157 196 255
157 196 255
157 196 255
156 196 255
156 196 255
156 196 255
156 196 255
156 196 255
156 196 255
156 196 255
156 196 255
156 196 255
155 195 255
155 195 255
155 195 255
155 195 255
155 195 255
155 195 255
155 195 255
155 195 255
155 195 255
155 195 255
154 195 255
154 195 255
154 195 255
154 195 255
154 195 255
154 195 255
154 194 255
154 194 255
154 194 255
153 194 255
153 194 255
153 194 255
153 194 255
153 194 255
153 194 255
153 194 255
153 194 255
153 194 255
153 194 255
153 194 255
152 194 255
152 194 255
152 194 255
152 193 255
152 193 255
152 193 255
152 193 255
152 193 255
152 193 255
152 193 255
152 193 255
151 193 255
151 193 255
151 193 255
151 193 255
151 193 255
151 193 255
151 193 255
151 193 255
151 193 255
151 193 255
151 193 255
151 193 255
151 193 255
150 192 255
150 192 255
150 192 255
150 192 255
150 192 255
150 192 255
150 192 255
150 192 255
150 192 255
150 192 255
150 192 255
150 192 255
150 192 255
150 192 255
150 192 255
150 192 255
150 192 255
149 192 255
149 192 255
149 192 255
149 192 255
149 192 255
149 192 255
149 192 255
149 192 255
149 192 255
149 192 255
149 192 255
149 192 255
149 192 255
149 192 255
149 192 255
149 192 255
149 192 255
149 192 255
149 192 255
149 192 255
149 192 255
149 192 255
149 192 255
149 192 255
149 192 255
149 192 255
149 192 255
149 192 255
149 192 255
149 192 255
149 192 255
149 192 255
149 192 255
149 192 255
149 192 255
149 192 255
149 192 255
149 192 255
149 192 255
149 192 255
149 192 255
149 192 255
149 192 255
149 192 255
149 192 255
149 192 255
149 192 255
149 192 255
150 192 255
150 192 255
150 192 255
150 192 255
150 192 255
150 192 255
150 192 255
150 192 255
150 192 255
150 192 255
150 192 255
150 192 255
150 192 255
150 192 255
150 192 255
150 192 255
150 192 255
151 193 255
151 193 255
151 193 255
151 193 255
151 193 255
151 193 255
151 193 255
151 193 255
151 193 255
151 193 255
151 193 255
151 193 255
151 193 255
152 193 255
152 193 255
152 193 255
152 193 255
152 193 255
152 193 255
152 193 255
152 193 255
152 194 255
152 194 255
152 194 255
153 194 255
153 194 255
153 194 255
153 194 255
153 194 255
153 194 255
153 194 255
153 194 255
153 194 255
153 194 255
153 194 255
154 194 255
154 194 255
154 194 255
154 195 255
154 195 255
154 195 255
154 195 255
154 195 255
154 195 255
155 195 255
155 195 255
155 195 255
155 195 255
155 195 255
155 195 255
155 195 255
155 195 255
155 195 255
155 195 255
156 196 255
156 196 255
156 196 255
156 196 255
156 196 255
156 196 255
156 196 255
156 196 255
156 196 255
157 196 255
157 196 255
157 196 255
157 196 255
157 196 255
157 196 255
157 197 255
157 197 255
157 197 255
158 197 255
158 197 255
158 197 255
158 197 255
158 197 255
158 197 255
158 197 255
158 197 255
158 197 255
159 197 255
159 197 255
159 197 255
159 198 255
159 198 255
159 198 255
159 198 255
159 198 255
159 198 255
159 198 255
160 198 255
160 198 255
160 198 255
160 198 255
160 198 255
160 198 255
160 198 255
160 198 255
160 198 255
161 199 255
161 199 255
161 199 255
161 199 255
161 199 255
161 199 255
161 199 255
161 199 255
161 199 255
161 199 255
162 199 255
162 199 255
162 199 255
162 199 255
162 199 255
162 199 255
162 199 255
162 200 255
162 200 255
162 200 255
163 200 255
163 200 255
163 200 255
163 200 255
163 200 255
163 200 255
163 200 255
163 200 255
163 200 255
163 200 255
163 200 255
164 200 255
164 200 255
164 200 255
164 200 255
164 201 255
164 201 255
164 201 255
164 201 255
164 201 255
164 201 255
164 201 255
165 201 255
165 201 255
165 201 255
165 201 255
165 201 255
165 201 255
165 201 255
165 201 255
165 201 255
165 201 255
165 201 255
165 201 255
166 202 255
166 202 255
166 202 255
166 202 255
166 202 255
166 202 255
166 202 255
166 202 255
166 202 255
166 202 255
166 202 255
166 202 255
166 202 255
165 201 255
165 201 255
165 201 255
165 201 255
165 201 255
165 201 255
165 201 255
165 201 255
165 201 255
165 201 255
165 201 255
164 201 255
164 201 255
164 201 255
164 201 255
164 201 255
164 201 255
164 201 255
164 201 255
164 200 255
164 200 255
164 200 255
163 200 255
163 200 255
163 200 255
163 200 255
163 200 255
163 200 255
163 200 255
163 200 255
163 200 255
163 200 255
163 200 255
162 200 255
162 200 255
162 200 255
162 200 255
162 199 255
162 199 255
162 199 255
162 199 255
162 199 255
162 199 255
161 199 255
161 199 255
161 199 255
161 199 255
161 199 255
161 199 255
161 199 255
161 199 255
161 199 255
161 199 255
160 198 255
160 198 255
160 198 255
160 198 255
160 198 255
160 198 255
160 198 255
160 198 255
160 198 255
160 198 255
159 198 255
159 198 255
159 198 255
159 198 255
159 198 255
159 198 255
159 197 255
159 197 255
159 197 255
158 197 255
158 197 255
158 197 255
158 197 255
158 197 255
158 197 255
158 197 255
158 197 255
158 197 255
157 197 255
157 197 255
157 197 255
157 196 255
157 196 255
157 196 255
157 196 255
157 196 255
157 196 255
156 196 255
156 196 255
156 196 255
156 196 255
156 196 255
156 196 255
156 196 255
156 196 255
156 196 255
156 196 255
155 195 255
155 195 255
155 195 255
155 195 255
155 195 255
155 195 255
155 195 255
155 195 255
155 195 255
154 195 255
154 195 255
154 195 255
154 195 255
154 195 255
154 195 255
154 195 255
154 194 255
154 194 255
154 194 255
153 194 255
153 194 255
153 194 255
153 194 255
153 194 255
153 194 255
153 194 255
153 194 255
153 194 255
153 194 255
152 194 255
152 194 255
152 194 255
152 194 255
152 193 255
152 193 255
152 193 255
152 193 255
152 193 255
152 193 255
152 193 255
152 193 255
151 193 255
151 193 255
151 193 255
151 193 255
151 193 255
151 193 255
151 193 255
151 193 255
151 193 255
151 193 255
151 193 255
151 193 255
151 193 255
150 192 255
150 192 255
150 192 255
150 192 255
150 192 255
150 192 255
150 192 255
150 192 255
150 192 255
150 192 255
150 192 255
150 192 255
150 192 255
150 192 255
150 192 255
150 192 255
150 192 255
150 192 255
150 192 255
150 192 255
150 192 255
149 192 255
149 192 255
149 192 255
149 192 255
149 192 255
149 192 255
149 192 255
149 192 255
149 192 255
149 192 255
149 192 255
149 192 255
149 192 255
149 192 255
149 192 255
149 192 255
149 192 255
149 192 255
149 192 255
149 192 255
149 192 255
149 192 255
149 192 255
149 192 255
149 192 255
149 192 255
149 192 255
149 192 255
149 192 255
149 192 255
149 192 255
149 192 255
149 192 255
149 192 255
150 192 255
150 192 255
150 192 255
150 192 255
150 192 255
150 192 255
150 192 255
150 192 255
150 192 255
150 192 255
150 192 255
150 192 255
150 192 255
150 192 255
150 192 255
150 192 255
150 192 255
150 192 255
150 192 255
150 192 255
150 192 255
151 193 255
151 193 255
151 193 255
151 193 255
151 193 255
151 193 255
151 193 255
151 193 255
151 193 255
151 193 255
151 193 255
151 193 255
151 193 255
152 193 255
152 193 255
152 193 255
152 193 255
152 193 255
152 193 255
152 193 255
152 193 255
152 194 255
152 194 255
152 194 255
152 194 255
153 194 255
153 194 255
153 194 255
153 194 255
153 194 255
153 194 255
153 194 255
153 194 255
153 194 255
153 194 255
154 194 255
154 194 255
154 194 255
154 195 255
154 195 255
154 195 255
154 195 255
154 195 255
154 195 255
154 195 255
155 195 255
155 195 255
155 195 255
155 195 255
155 195 255
155 195 255
155 195 255
155 195 255
155 195 255
156 196 255
156 196 255
156 196 255
156 196 255
156 196 255
156 196 255
156 196 255
156 196 255
156 196 255
156 196 255
157 196 255
157 196 255
157 196 255
157 196 255
157 196 255
157 196 255
157 197 255
157 197 255
157 197 255
158 197 255
158 197 255
158 197 255
158 197 255
158 197 255
158 197 255
158 197 255
158 197 255
158 197 255
159 197 255
159 197 255
159 197 255
159 198 255
159 198 255
159 198 255
159 198 255
159 198 255
159 198 255
160 198 255
160 198 255
160 198 255
160 198 255
160 198 255
160 198 255
160 198 255
160 198 255
160 198 255
160 198 255
161 199 255
161 199 255
161 199 255
161 199 255
161 199 255
161 199 255
161 199 255
161 199 255
161 199 255
161 199 255
162 199 255
162 199 255
162 199 255
162 199 255
162 199 255
162 199 255
162 200 255
162 200 255
162 200 255
162 200 255
163 200 255
163 200 255
163 200 255
163 200 255
163 200 255
163 200 255
163 200 255
163 200 255
163 200 255
163 200 255
164 200 255
164 200 255
164 200 255
164 200 255
164 201 255
164 201 255
164 201 255
164 201 255
164 201 255
164 201 255
164 201 255
164 201 255
165 201 255
165 201 255
165 201 255
165 201 255
165 201 255
165 201 255
165 201 255
165 201 255
165 201 255
165 201 255
165 201 255
166 202 255
166 202 255
166 202 255
166 202 255
166 202 255
166 202 255
166 202 255
166 202 255
166 202 255
166 202 255
166 202 255
166 202 255
166 202 255
166 202 255
166 202 255
166 202 255
166 202 255
166 202 255
166 202 255
165 201 255
165 201 255
165 201 255
165 201 255
165 201 255
165 201 255
165 201 255
165 201 255
165 201 255
165 201 255
165 201 255
164 201 255
164 201 255
164 201 255
164 201 255
164 201 255
164 201 255
164 201 255
164 200 255
164 200 255
164 200 255
164 200 255
163 200 255
163 200 255
163 200 255
163 200 255
163 200 255
163 200 255
163 200 255
163 200 255
163 200 255
163 200 255
162 200 255
162 200 255
162 200 255
162 200 255
162 199 255
162 199 255
162 199 255
162 199 255
162 199 255
162 199 255
162 199 255
161 199 255
161 199 255
161 199 255
161 199 255
161 199 255
161 199 255
161 199 255
161 199 255
161 199 255
160 198 255
160 198 255
160 198 255
160 198 255
160 198 255
160 198 255
160 198 255
160 198 255
160 198 255
160 198 255
159 198 255
159 198 255
159 198 255
159 198 255
159 198 255
159 198 255
159 197 255
159 197 255
159 197 255
158 197 255
158 197 255
158 197 255
158 197 255
158 197 255
158 197 255
158 197 255
158 197 255
158 197 255
157 197 255
157 197 255
157 197 255
157 197 255
157 196 255
157 196 255
157 196 255
157 196 255
157 196 255
157 196 255
156 196 255
156 196 255
156 196 255
156 196 255
156 196 255
156 196 255
156 196 255
156 196 255
156 196 255
155 195 255
155 195 255
155 195 255
155 195 255
155 195 255
155 195 255
155 195 255
155 195 255
155 195 255
155 195 255
154 195 255
154 195 255
154 195 255
154 195 255
154 195 255
154 195 255
154 194 255
154 194 255
154 194 255
153 194 255
153 194 255
153 194 255
153 194 255
153 194 255
153 194 255
153 194 255
153 194 255
153 194 255
153 194 255
153 194 255
152 194 255
152 194 255
152 194 255
152 194 255
152 193 255
152 193 255
152 193 255
152 193 255
152 193 255
152 193 255
152 193 255
152 193 255
151 193 255
151 193 255
151 193 255
151 193 255
151 193 255
151 193 255
151 193 255
151 193 255
151 193 255
151 193 255
151 193 255
151 193 255
151 193 255
151 193 255
150 192 255
150 192 255
150 192 255
150 192 255
150 192 255
150 192 255
150 192 255
150 192 255
150 192 255
150 192 255
150 192 255
150 192 255
150 192 255
150 192 255
150 192 255
150 192 255
150 192 255
150 192 255
150 192 255
150 192 255
150 192 255
150 192 255
150 192 255
150 192 255
150 192 255
150 192 255
150 192 255
150 192 255
149 192 255
149 192 255
149 192 255
149 192 255
149 192 255
149 192 255
149 192 255
149 192 255
149 192 255
149 192 255
149 192 255
149 192 255
149 192 255
150 192 255
150 192 255
150 192 255
150 192 255
150 192 255
150 192 255
150 192 255
150 192 255
150 192 255
150 192 255
150 192 255
150 192 255
150 192 255
150 192 255
150 192 255
150 192 255
150 192 255
150 192 255
150 192 255
150 192 255
150 192 255
150 192 255
150 192 255
150 192 255
150 192 255
150 192 255
150 192 255
151 193 255
151 193 255
151 193 255
151 193 255
151 193 255
151 193 255
151 193 255
151 193 255
151 193 255
151 193 255
151 193 255
151 193 255
151 193 255
151 193 255
152 193 255
152 193 255
152 193 255
152 193 255
152 193 255
152 193 255
152 193 255
152 193 255
152 194 255
152 194 255
152 194 255
152 194 255
153 194 255
153 194 255
153 194 255
153 194 255
153 194 255
153 194 255
153 194 255
153 194 255
153 194 255
153 194 255
153 194 255
154 194 255
154 194 255
154 194 255
154 195 255
154 195 255
154 195 255
154 195 255
154 195 255
154 195 255
155 195 255
155 195 255
155 195 255
155 195 255
155 195 255
155 195 255
155 195 255
155 195 255
155 195 255
155 195 255
156 196 255
156 196 255
156 196 255
156 196 255
156 196 255
156 196 255
156 196 255
156 196 255
156 196 255
157 196 255
157 196 255
157 196 255
157 196 255
157 196 255
157 196 255
157 197 255
157 197 255
157 197 255
157 197 255
158 197 255
158 197 255
158 197 255
158 197 255
158 197 255
158 197 255
158 197 255
158 197 255
158 197 255
159 197 255
159 197 255
159 197 255
159 198 255
159 198 255
159 198 255
159 198 255
159 198 255
159 198 255
160 198 255
160 198 255
160 198 255
160 198 255
160 198 255
160 198 255
160 198 255
160 198 255
160 198 255
160 198 255
161 199 255
161 199 255
161 199 255
161 199 255
161 199 255
161 199 255
161 199 255
161 199 255
161 199 255
161 199 255
162 199 255
162 199 255
162 199 255
162 199 255
162 199 255
162 199 255
162 200 255
162 200 255
162 200 255
162 200 255
163 200 255
163 200 255
163 200 255
163 200 255
163 200 255
163 200 255
163 200 255
163 200 255
163 200 255
163 200 255
164 200 255
164 200 255
164 200 255
164 200 255
164 201 255
164 201 255
164 201 255
164 201 255
164 201 255
164 201 255
164 201 255
165 201 255
165 201 255
165 201 255
165 201 255
165 201 255
165 201 255
165 201 255
165 201 255
165 201 255
165 201 255
165 201 255
166 202 255
166 202 255
166 202 255
166 202 255
166 202 255
166 202 255
166 202 255
166 202 255
166 202 255
166 202 255
166 202 255
167 202 255
166 202 255
166 202 255
166 202 255
166 202 255
166 202 255
166 202 255
166 202 255
166 202 255
166 202 255
166 202 255
166 202 255
166 202 255
165 201 255
165 201 255
165 201 255
165 201 255
165 201 255
165 201 255
165 201 255
165 201 255
165 201 255
165 201 255
165 201 255
165 201 255
164 201 255
164 201 255
164 201 255
164 201 255
164 201 255
164 201 255
164 201 255
164 200 255
164 200 255
164 200 255
163 200 255
163 200 255
163 200 255
163 200 255
163 200 255
163 200 255
163 200 255
163 200 255
163 200 255
163 200 255
163 200 255
162 200 255
162 200 255
162 200 255
162 199 255
162 199 255
162 199 255
162 199 255
162 199 255
162 199 255
162 199 255
161 199 255
161 199 255
161 199 255
161 199 255
161 199 255
161 199 255
161 199 255
161 199 255
161 199 255
161 199 255
160 198 255
160 198 255
160 198 255
160 198 255
160 198 255
160 198 255
160 198 255
160 198 255
160 198 255
159 198 255
159 198 255
159 198 255
159 198 255
159 198 255
159 198 255
159 198 255
159 197 255
159 197 255
159 197 255
158 197 255
158 197 255
158 197 255
158 197 255
158 197 255
158 197 255
158 197 255
158 197 255
158 197 255
157 197 255
157 197 255
157 197 255
157 196 255
157 196 255
157 196 255
157 196 255
157 196 255
157 196 255
156 196 255
156 196 255
156 196 255
156 196 255
156 196 255
156 196 255
156 196 255
156 196 255
156 196 255
155 195 255
155 195 255
155 195 255
155 195 255
155 195 255
155 195 255
155 195 255
155 195 255
155 195 255
155 195 255
154 195 255
154 195 255
154 195 255
154 195 255
154 195 255
154 195 255
154 195 255
154 194 255
154 194 255
154 194 255
153 194 255
153 194 255
153 194 255
153 194 255
153 194 255
153 194 255
153 194 255
153 194 255
153 194 255
153 194 255
153 194 255
152 194 255
152 194 255
152 194 255
152 194 255
152 193 255
152 193 255
152 193 255
152 193 255
152 193 255
152 193 255
152 193 255
152 193 255
151 193 255
151 193 255
151 193 255
151 193 255
151 193 255
151 193 255
151 193 255
151 193 255
151 193 255
151 193 255
151 193 255
151 193 255
151 193 255
151 193 255
151 193 255
151 193 255
150 192 255
150 192 255
150 192 255
150 192 255
150 192 255
150 192 255
150 192 255
150 192 255
150 192 255
150 192 255
150 192 255
150 192 255
150 192 255
150 192 255
150 192 255
150 192 255
150 192 255
150 192 255
150 192 255
150 192 255
150 192 255
150 192 255
150 192 255
150 192 255
150 192 255
150 192 255
150 192 255
150 192 255
150 192 255
150 192 255
150 192 255
150 192 255
150 192 255
150 192 255
150 192 255
150 192 255
150 192 255
150 192 255
150 192 255
150 192 255
150 192 255
150 192 255
150 192 255
150 192 255
150 192 255
150 192 255
150 192 255
150 192 255
150 192 255
150 192 255
150 192 255
150 192 255
150 192 255
150 192 255
150 192 255
150 192 255
150 192 255
150 192 255
150 192 255
151 193 255
151 193 255
151 193 255
151 193 255
151 193 255
151 193 255
151 193 255
151 193 255
151 193 255
151 193 255
151 193 255
151 193 255
151 193 255
151 193 255
151 193 255
152 193 255
152 193 255
152 193 255
152 193 255
152 193 255
152 193 255
152 193 255
152 193 255
152 194 255
152 194 255
152 194 255
152 194 255
153 194 255
153 194 255
153 194 255
153 194 255
153 194 255
153 194 255
153 194 255
153 194 255
153 194 255
153 194 255
153 194 255
154 194 255
154 194 255
154 194 255
154 195 255
154 195 255
154 195 255
154 195 255
154 195 255
154 195 255
154 195 255
155 195 255
155 195 255
155 195 255
155 195 255
155 195 255
155 195 255
155 195 255
155 195 255
155 195 255
156 196 255
156 196 255
156 196 255
156 196 255
156 196 255
156 196 255
156 196 255
156 196 255
156 196 255
156 196 255
157 196 255
157 196 255
157 196 255
157 196 255
157 196 255
157 196 255
157 197 255
157 197 255
157 197 255
158 197 255
158 197 255
158 197 255
158 197 255
158 197 255
158 197 255
158 197 255
158 197 255
158 197 255
159 197 255
159 197 255
159 197 255
159 198 255
159 198 255
159 198 255
159 198 255
159 198 255
159 198 255
159 198 255
160 198 255
160 198 255
160 198 255
160 198 255
160 198 255
160 198 255
160 198 255
160 198 255
160 198 255
161 199 255
161 199 255
161 199 255
161 199 255
161 199 255
161 199 255
161 199 255
161 199 255
161 199 255
161 199 255
162 199 255
162 199 255
162 199 255
162 199 255
162 199 255
162 199 255
162 199 255
162 200 255
162 200 255
162 200 255
163 200 255
163 200 255
163 200 255
163 200 255
163 200 255
163 200 255
163 200 255
163 200 255
163 200 255
163 200 255
163 200 255
164 200 255
164 200 255
164 200 255
164 201 255
164 201 255
164 201 255
164 201 255
164 201 255
164 201 255
164 201 255
165 201 255
165 201 255
165 201 255
165 201 255
165 201 255
165 201 255
165 201 255
165 201 255
165 201 255
165 201 255
165 201 255
165 201 255
166 202 255
166 202 255
166 202 255
166 202 255
166 202 255
166 202 255
166 202 255
166 202 255
166 202 255
166 202 255
166 202 255
166 202 255
167 202 255
167 202 255
167 202 255
167 202 255
167 202 255
166 202 255
166 202 255
166 202 255
166 202 255
166 202 255
166 202 255
166 202 255
166 202 255
166 202 255
166 202 255
166 202 255
166 202 255
165 201 255
165 201 255
165 201 255
165 201 255
165 201 255
165 201 255
165 201 255
165 201 255
165 201 255
165 201 255
165 201 255
164 201 255
164 201 255
164 201 255
164 201 255
164 201 255
164 201 255
164 201 255
164 200 255
164 200 255
164 200 255
164 200 255
163 200 255
163 200 255
163 200 255
163 200 255
163 200 255
163 200 255
163 200 255
163 200 255
163 200 255
163 200 255
162 200 255
162 200 255
162 200 255
162 200 255
162 199 255
162 199 255
162 199 255
162 199 255
162 199 255
162 199 255
161 199 255
161 199 255
161 199 255
161 199 255
161 199 255
161 199 255
161 199 255
161 199 255
161 199 255
161 199 255
160 198 255
160 198 255
160 198 255
160 198 255
160 198 255
160 198 255
160 198 255
160 198 255
160 198 255
160 198 255
159 198 255
159 198 255
159 198 255
159 198 255
159 198 255
159 198 255
159 197 255
159 197 255
159 197 255
158 197 255
158 197 255
158 197 255
158 197 255
158 197 255
158 197 255
158 197 255
158 197 255
158 197 255
157 197 255
157 197 255
157 197 255
157 196 255
157 196 255
157 196 255
157 196 255
157 196 255
157 196 255
156 196 255
156 196 255
156 196 255
156 196 255
156 196 255
156 196 255
156 196 255
156 196 255
156 196 255
156 196 255
155 195 255
155 195 255
155 195 255
155 195 255
155 195 255
155 195 255
155 195 255
155 195 255
155 195 255
154 195 255
154 195 255
154 195 255
154 195 255
154 195 255
154 195 255
154 195 255
154 194 255
154 194 255
154 194 255
154 194 255
153 194 255
153 194 255
153 194 255
153 194 255
153 194 255
153 194 255
153 194 255
153 194 255
153 194 255
153 194 255
152 194 255
152 194 255
152 194 255
152 194 255
152 194 255
152 193 255
152 193 255
152 193 255
152 193 255
152 193 255
152 193 255
152 193 255
152 193 255
151 193 255
151 193 255
151 193 255
151 193 255
151 193 255
151 193 255
151 193 255
151 193 255
151 193 255
151 193 255
151 193 255
151 193 255
151 193 255
151 193 255
151 193 255
151 193 255
151 193 255
151 193 255
150 192 255
150 192 255
150 192 255
150 192 255
150 192 255
150 192 255
150 192 255
150 192 255
150 192 255
150 192 255
150 192 255
150 192 255
150 192 255
150 192 255
150 192 255
150 192 255
150 192 255
150 192 255
150 192 255
150 192 255
150 192 255
150 192 255
150 192 255
150 192 255
150 192 255
150 192 255
150 192 255
150 192 255
150 192 255
150 192 255
150 192 255
150 192 255
150 192 255
150 192 255
150 192 255
150 192 255
150 192 255
150 192 255
150 192 255
150 192 255
150 192 255
150 192 255
150 192 255
150 192 255
150 192 255
150 192 255
150 192 255
150 192 255
151 193 255
151 193 255
151 193 255
151 193 255
151 193 255
151 193 255
151 193 255
151 193 255
151 193 255
151 193 255
151 193 255
151 193 255
151 193 255
151 193 255
151 193 255
151 193 255
151 193 255
152 193 255
152 193 255
152 193 255
152 193 255
152 193 255
152 193 255
152 193 255
152 193 255
152 193 255
152 194 255
152 194 255
152 194 255
152 194 255
153 194 255
153 194 255
153 194 255
153 194 255
153 194 255
153 194 255
153 194 255
153 194 255
153 194 255
153 194 255
153 194 255
154 194 255
154 194 255
154 194 255
154 194 255
154 195 255
154 195 255
154 195 255
154 195 255
154 195 255
154 195 255
155 195 255
155 195 255
155 195 255
155 195 255
155 195 255
155 195 255
155 195 255
155 195 255
155 195 255
155 195 255
156 196 255
156 196 255
156 196 255
156 196 255
156 196 255
156 196 255
156 196 255
156 196 255
156 196 255
156 196 255
157 196 255
157 196 255
157 196 255
157 196 255
157 196 255
157 196 255
157 197 255
157 197 255
157 197 255
158 197 255
158 197 255
158 197 255
158 197 255
158 197 255
158 197 255
158 197 255
158 197 255
158 197 255
159 197 255
159 197 255
159 197 255
159 198 255
159 198 255
159 198 255
159 198 255
159 198 255
159 198 255
159 198 255
160 198 255
160 198 255
160 198 255
160 198 255
160 198 255
160 198 255
160 198 255
160 198 255
160 198 255
161 199 255
161 199 255
161 199 255
161 199 255
161 199 255
161 199 255
161 199 255
161 199 255
161 199 255
161 199 255
162 199 255
162 199 255
162 199 255
162 199 255
162 199 255
162 199 255
162 200 255
162 200 255
162 200 255
162 200 255
163 200 255
163 200 255
163 200 255
163 200 255
163 200 255
163 200 255
163 200 255
163 200 255
163 200 255
163 200 255
164 200 255
164 200 255
164 200 255
164 200 255
164 201 255
164 201 255
164 201 255
164 201 255
164 201 255
164 201 255
164 201 255
165 201 255
165 201 255
165 201 255
165 201 255
165 201 255
165 201 255
165 201 255
165 201 255
165 201 255
165 201 255
165 201 255
166 202 255
166 202 255
166 202 255
166 202 255
166 202 255
166 202 255
166 202 255
166 202 255
166 202 255
166 202 255
166 202 255
166 202 255
167 202 255
167 202 255
167 202 255
167 202 255
167 202 255
167 202 255
167 202 255
167 202 255
167 202 255
167 202 255
166 202 255
166 202 255
166 202 255
166 202 255
166 202 255
166 202 255
166 202 255
166 202 255
166 202 255
166 202 255
166 202 255
166 202 255
165 201 255
165 201 255
165 201 255
165 201 255
165 201 255
165 201 255
165 201 255
165 201 255
165 201 255
165 201 255
165 201 255
165 201 255
164 201 255
164 201 255
164 201 255
164 201 255
164 201 255
164 201 255
164 201 255
164 200 255
164 200 255
164 200 255
163 200 255
163 200 255
163 200 255
163 200 255
163 200 255
163 200 255
163 200 255
163 200 255
163 200 255
163 200 255
163 200 255
162 200 255
162 200 255
162 200 255
162 199 255
162 199 255
162 199 255
162 199 255
162 199 255
162 199 255
162 199 255
161 199 255
161 199 255
161 199 255
161 199 255
161 199 255
161 199 255
161 199 255
161 199 255
161 199 255
161 199 255
160 198 255
160 198 255
160 198 255
160 198 255
160 198 255
160 198 255
160 198 255
160 198 255
160 198 255
159 198 255
159 198 255
159 198 255
159 198 255
159 198 255
159 198 255
159 197 255
159 197 255
159 197 255
158 197 255
158 197 255
158 197 255
158 197 255
158 197 255
158 197 255
158 197 255
158 197 255
158 197 255
157 197 255
157 197 255
157 197 255
157 197 255
157 196 255
157 196 255
157 196 255
157 196 255
157 196 255
157 196 255
156 196 255
156 196 255
156 196 255
156 196 255
156 196 255
156 196 255
156 196 255
156 196 255
156 196 255
155 195 255
155 195 255
155 195 255
155 195 255
155 195 255
155 195 255
155 195 255
155 195 255
155 195 255
155 195 255
154 195 255
154 195 255
154 195 255
154 195 255
154 195 255
154 195 255
154 195 255
154 194 255
154 194 255
154 194 255
153 194 255
153 194 255
153 194 255
153 194 255
153 194 255
153 194 255
153 194 255
153 194 255
153 194 255
153 194 255
153 194 255
153 194 255
152 194 255
152 194 255
152 194 255
152 194 255
152 193 255
152 193 255
152 193 255
152 193 255
152 193 255
152 193 255
152 193 255
152 193 255
152 193 255
151 193 255
151 193 255
151 193 255
151 193 255
151 193 255
151 193 255
151 193 255
151 193 255
151 193 255
151 193 255
151 193 255
151 193 255
151 193 255
151 193 255
151 193 255
151 193 255
151 193 255
151 193 255
151 193 255
151 193 255
150 192 255
150 192 255
150 192 255
150 192 255
150 192 255
150 192 255
150 192 255
150 192 255
150 192 255
150 192 255
150 192 255
150 192 255
150 192 255
150 192 255
150 192 255
150 192 255
150 192 255
150 192 255
150 192 255
150 192 255
150 192 255
150 192 255
150 192 255
150 192 255
150 192 255
150 192 255
150 192 255
150 192 255
150 192 255
150 192 255
150 192 255
150 192 255
150 192 255
150 192 255
150 192 255
150 192 255
151 193 255
151 193 255
151 193 255
151 193 255
151 193 255
151 193 255
151 193 255
151 193 255
151 193 255
151 193 255
151 193 255
151 193 255
151 193 255
151 193 255
151 193 255
151 193 255
151 193 255
151 193 255
151 193 255
151 193 255
152 193 255
152 193 255
152 193 255
152 193 255
152 193 255
152 193 255
152 193 255
152 193 255
152 193 255
152 194 255
152 194 255
152 194 255
152 194 255
153 194 255
153 194 255
153 194 255
153 194 255
153 194 255
153 194 255
153 194 255
153 194 255
153 194 255
153 194 255
153 194 255
153 194 255
154 194 255
154 194 255
154 194 255
154 195 255
154 195 255
154 195 255
154 195 255
154 195 255
154 195 255
154 195 255
155 195 255
155 195 255
155 195 255
155 195 255
155 195 255
155 195 255
155 195 255
155 195 255
155 195 255
155 195 255
156 196 255
156 196 255
156 196 255
156 196 255
156 196 255
156 196 255
156 196 255
156 196 255
156 196 255
157 196 255
157 196 255
157 196 255
157 196 255
157 196 255
157 196 255
157 197 255
157 197 255
157 197 255
157 197 255
158 197 255
158 197 255
158 197 255
158 197 255
158 197 255
158 197 255
158 197 255
158 197 255
158 197 255
159 197 255
159 197 255
159 197 255
159 198 255
159 198 255
159 198 255
159 198 255
159 198 255
159 198 255
160 198 255
160 198 255
160 198 255
160 198 255
160 198 255
160 198 255
160 198 255
160 198 255
160 198 255
160 198 255
161 199 255
161 199 255
161 199 255
161 199 255
161 199 255
161 199 255
161 199 255
161 199 255
161 199 255
162 199 255
162 199 255
162 199 255
162 199 255
162 199 255
162 199 255
162 199 255
162 200 255
162 200 255
162 200 255
163 200 255
163 200 255
163 200 255
163 200 255
163 200 255
163 200 255
163 200 255
163 200 255
163 200 255
163 200 255
163 200 255
164 200 255
164 200 255
164 200 255
164 201 255
164 201 255
164 201 255
164 201 255
164 201 255
164 201 255
164 201 255
165 201 255
165 201 255
165 201 255
165 201 255
165 201 255
165 201 255
165 201 255
165 201 255
165 201 255
165 201 255
165 201 255
165 201 255
166 202 255
166 202 255
166 202 255
166 202 255
166 202 255
166 202 255
166 202 255
166 202 255
166 202 255
166 202 255
166 202 255
167 202 255
167 202 255
167 202 255
167 202 255
167 202 255
167 202 255
167 202 255
167 203 255
167 202 255
167 202 255
167 202 255
167 202 255
167 202 255
167 202 255
167 202 255
167 202 255
166 202 255
166 202 255
166 202 255
166 202 255
166 202 255
166 202 255
166 202 255
166 202 255
166 202 255
166 202 255
166 202 255
166 202 255
165 201 255
165 201 255
165 201 255
165 201 255
165 201 255
165 201 255
165 201 255
165 201 255
165 201 255
165 201 255
165 201 255
164 201 255
164 201 255
164 201 255
164 201 255
164 201 255
164 201 255
164 201 255
164 201 255
164 200 255
164 200 255
164 200 255
163 200 255
163 200 255
163 200 255
163 200 255
163 200 255
163 200 255
163 200 255
163 200 255
163 200 255
163 200 255
162 200 255
162 200 255
162 200 255
162 200 255
162 199 255
162 199 255
162 199 255
162 199 255
162 199 255
162 199 255
161 199 255
161 199 255
161 199 255
161 199 255
161 199 255
161 199 255
161 199 255
161 199 255
161 199 255
161 199 255
160 198 255
160 198 255
160 198 255
160 198 255
160 198 255
160 198 255
160 198 255
160 198 255
160 198 255
159 198 255
159 198 255
159 198 255
159 198 255
159 198 255
159 198 255
159 198 255
159 197 255
159 197 255
159 197 255
158 197 255
158 197 255
158 197 255
158 197 255
158 197 255
158 197 255
158 197 255
158 197 255
158 197 255
157 197 255
157 197 255
157 197 255
157 196 255
157 196 255
157 196 255
157 196 255
157 196 255
157 196 255
156 196 255
156 196 255
156 196 255
156 196 255
156 196 255
156 196 255
156 196 255
156 196 255
156 196 255
156 196 255
155 195 255
155 195 255
155 195 255
155 195 255
155 195 255
155 195 255
155 195 255
155 195 255
155 195 255
155 195 255
154 195 255
154 195 255
154 195 255
154 195 255
154 195 255
154 195 255
154 195 255
154 194 255
154 194 255
154 194 255
153 194 255
153 194 255
153 194 255
153 194 255
153 194 255
153 194 255
153 194 255
153 194 255
153 194 255
153 194 255
153 194 255
153 194 255
152 194 255
152 194 255
152 194 255
152 194 255
152 193 255
152 193 255
152 193 255
152 193 255
152 193 255
152 193 255
152 193 255
152 193 255
152 193 255
152 193 255
151 193 255
151 193 255
151 193 255
151 193 255
151 193 255
151 193 255
151 193 255
151 193 255
151 193 255
151 193 255
151 193 255
151 193 255
151 193 255
151 193 255
151 193 255
151 193 255
151 193 255
151 193 255
151 193 255
151 193 255
151 193 255
151 193 255
151 193 255
151 193 255
151 193 255
151 193 255
151 193 255
151 193 255
150 192 255
150 192 255
150 192 255
150 192 255
150 192 255
150 192 255
150 192 255
150 192 255
150 192 255
150 192 255
150 192 255
150 192 255
150 192 255
151 193 255
151 193 255
151 193 255
151 193 255
151 193 255
151 193 255
151 193 255
151 193 255
151 193 255
151 193 255
151 193 255
151 193 255
151 193 255
151 193 255
151 193 255
151 193 255
151 193 255
151 193 255
151 193 255
151 193 255
151 193 255
151 193 255
151 193 255
151 193 255
151 193 255
151 193 255
151 193 255
152 193 255
152 193 255
152 193 255
152 193 255
152 193 255
152 193 255
152 193 255
152 193 255
152 193 255
152 193 255
152 194 255
152 194 255
152 194 255
152 194 255
153 194 255
153 194 255
153 194 255
153 194 255
153 194 255
153 194 255
153 194 255
153 194 255
153 194 255
153 194 255
153 194 255
153 194 255
154 194 255
154 194 255
154 194 255
154 195 255
154 195 255
154 195 255
154 195 255
154 195 255
154 195 255
154 195 255
155 195 255
155 195 255
155 195 255
155 195 255
155 195 255
155 195 255
155 195 255
155 195 255
155 195 255
155 195 255
156 196 255
156 196 255
156 196 255
156 196 255
156 196 255
156 196 255
156 196 255
156 196 255
156 196 255
156 196 255
157 196 255
157 196 255
157 196 255
157 196 255
157 196 255
157 196 255
157 197 255
157 197 255
157 197 255
158 197 255
158 197 255
158 197 255
158 197 255
158 197 255
158 197 255
158 197 255
158 197 255
158 197 255
159 197 255
159 197 255
159 197 255
159 198 255
159 198 255
159 198 255
159 198 255
159 198 255
159 198 255
159 198 255
160 198 255
160 198 255
160 198 255
160 198 255
160 198 255
160 198 255
160 198 255
160 198 255
160 198 255
161 199 255
161 199 255
161 199 255
161 199 255
161 199 255
161 199 255
161 199 255
161 199 255
161 199 255
161 199 255
162 199 255
162 199 255
162 199 255
162 199 255
162 199 255
162 199 255
162 200 255
162 200 255
162 200 255
162 200 255
163 200 255
163 200 255
163 200 255
163 200 255
163 200 255
163 200 255
163 200 255
163 200 255
163 200 255
163 200 255
164 200 255
164 200 255
164 200 255
164 200 255
164 201 255
164 201 255
164 201 255
164 201 255
164 201 255
164 201 255
164 201 255
165 201 255
165 201 255
165 201 255
165 201 255
165 201 255
165 201 255
165 201 255
165 201 255
165 201 255
165 201 255
165 201 255
166 202 255
166 202 255
166 202 255
166 202 255
166 202 255
166 202 255
166 202 255
166 202 255
166 202 255
166 202 255
166 202 255
166 202 255
167 202 255
167 202 255
167 202 255
167 202 255
167 202 255
167 202 255
167 202 255
167 202 255
167 203 255
167 203 255
167 203 255
167 203 255
167 203 255
167 202 255
167 202 255
167 202 255
167 202 255
167 202 255
167 202 255
167 202 255
167 202 255
166 202 255
166 202 255
166 202 255
166 202 255
166 202 255
166 202 255
166 202 255
166 202 255
166 202 255
166 202 255
166 202 255
166 202 255
165 201 255
165 201 255
165 201 255
165 201 255
165 201 255
165 201 255
165 201 255
165 201 255
165 201 255
165 201 255
165 201 255
164 201 255
164 201 255
164 201 255
164 201 255
164 201 255
164 201 255
164 201 255
164 200 255
164 200 255
164 200 255
163 200 255
163 200 255
163 200 255
163 200 255
163 200 255
163 200 255
163 200 255
163 200 255
163 200 255
163 200 255
163 200 255
162 200 255
162 200 255
162 200 255
162 199 255
162 199 255
162 199 255
162 199 255
162 199 255
162 199 255
162 199 255
161 199 255
161 199 255
161 199 255
161 199 255
161 199 255
161 199 255
161 199 255
161 199 255
161 199 255
160 198 255
160 198 255
160 198 255
160 198 255
160 198 255
160 198 255
160 198 255
160 198 255
160 198 255
160 198 255
159 198 255
159 198 255
159 198 255
159 198 255
159 198 255
159 198 255
159 197 255
159 197 255
159 197 255
158 197 255
158 197 255
158 197 255
158 197 255
158 197 255
158 197 255
158 197 255
158 197 255
158 197 255
157 197 255
157 197 255
157 197 255
157 197 255
157 196 255
157 196 255
157 196 255
157 196 255
157 196 255
157 196 255
156 196 255
156 196 255
156 196 255
156 196 255
156 196 255
156 196 255
156 196 255
156 196 255
156 196 255
155 195 255
155 195 255
155 195 255
155 195 255
155 195 255
155 195 255
155 195 255
155 195 255
155 195 255
155 195 255
154 195 255
154 195 255
154 195 255
154 195 255
154 195 255
154 195 255
154 195 255
154 195 255
154 194 255
154 194 255
154 194 255
153 194 255
153 194 255
153 194 255
153 194 255
153 194 255
153 194 255
153 194 255
153 194 255
153 194 255
153 194 255
153 194 255
153 194 255
152 194 255
152 194 255
152 194 255
152 194 255
152 194 255
152 193 255
152 193 255
152 193 255
152 193 255
152 193 255
152 193 255
152 193 255
152 193 255
152 193 255
152 193 255
152 193 255
151 193 255
151 193 255
151 193 255
151 193 255
151 193 255
151 193 255
151 193 255
151 193 255
151 193 255
151 193 255
151 193 255
151 193 255
151 193 255
151 193 255
151 193 255
151 193 255
151 193 255
151 193 255
151 193 255
151 193 255
151 193 255
151 193 255
151 193 255
151 193 255
151 193 255
151 193 255
151 193 255
151 193 255
151 193 255
151 193 255
151 193 255
151 193 255
151 193 255
151 193 255
151 193 255
151 193 255
151 193 255
151 193 255
151 193 255
151 193 255
151 193 255
151 193 255
151 193 255
151 193 255
151 193 255
151 193 255
151 193 255
151 193 255
151 193 255
151 193 255
151 193 255
151 193 255
151 193 255
151 193 255
151 193 255
151 193 255
151 193 255
151 193 255
152 193 255
152 193 255
152 193 255
152 193 255
152 193 255
152 193 255
152 193 255
152 193 255
152 193 255
152 193 255
152 193 255
152 194 255
152 194 255
152 194 255
152 194 255
152 194 255
153 194 255
153 194 255
153 194 255
153 194 255
153 194 255
153 194 255
153 194 255
153 194 255
153 194 255
153 194 255
153 194 255
153 194 255
154 194 255
154 194 255
154 194 255
154 195 255
154 195 255
154 195 255
154 195 255
154 195 255
154 195 255
154 195 255
154 195 255
155 195 255
155 195 255
155 195 255
155 195 255
155 195 255
155 195 255
155 195 255
155 195 255
155 195 255
155 195 255
156 196 255
156 196 255
156 196 255
156 196 255
156 196 255
156 196 255
156 196 255
156 196 255
156 196 255
157 196 255
157 196 255
157 196 255
157 196 255
157 196 255
157 196 255
157 196 255
157 197 255
157 197 255
157 197 255
158 197 255
158 197 255
158 197 255
158 197 255
158 197 255
158 197 255
158 197 255
158 197 255
158 197 255
159 197 255
159 197 255
159 197 255
159 198 255
159 198 255
159 198 255
159 198 255
159 198 255
159 198 255
160 198 255
160 198 255
160 198 255
160 198 255
160 198 255
160 198 255
160 198 255
160 198 255
160 198 255
160 198 255
161 199 255
161 199 255
161 199 255
161 199 255
161 199 255
161 199 255
161 199 255
161 199 255
161 199 255
162 199 255
162 199 255
162 199 255
162 199 255
162 199 255
162 199 255
162 199 255
162 200 255
162 200 255
162 200 255
163 200 255
163 200 255
163 200 255
163 200 255
163 200 255
163 200 255
163 200 255
163 200 255
163 200 255
163 200 255
164 200 255
164 200 255
164 200 255
164 200 255
164 201 255
164 201 255
164 201 255
164 201 255
164 201 255
164 201 255
164 201 255
165 201 255
165 201 255
165 201 255
165 201 255
165 201 255
165 201 255
165 201 255
165 201 255
165 201 255
165 201 255
165 201 255
166 202 255
166 202 255
166 202 255
166 202 255
166 202 255
166 202 255
166 202 255
166 202 255
166 202 255
166 202 255
166 202 255
166 202 255
167 202 255
167 202 255
167 202 255
167 202 255
167 202 255
167 202 255
167 202 255
167 202 255
167 203 255
167 203 255
167 203 255
167 203 255
168 203 255
168 203 255
167 203 255
167 203 255
167 203 255
167 203 255
167 203 255
167 202 255
167 202 255
167 202 255
167 202 255
167 202 255
167 202 255
167 202 255
167 202 255
166 202 255
166 202 255
166 202 255
166 202 255
166 202 255
166 202 255
166 202 255
166 202 255
166 202 255
166 202 255
166 202 255
165 201 255
165 201 255
165 201 255
165 201 255
165 201 255
165 201 255
165 201 255
165 201 255
165 201 255
165 201 255
165 201 255
164 201 255
164 201 255
164 201 255
164 201 255
164 201 255
164 201 255
164 201 255
164 200 255
164 200 255
164 200 255
164 200 255
163 200 255
163 200 255
163 200 255
163 200 255
163 200 255
163 200 255
163 200 255
163 200 255
163 200 255
163 200 255
162 200 255
162 200 255
162 200 255
162 200 255
162 199 255
162 199 255
162 199 255
162 199 255
162 199 255
162 199 255
161 199 255
161 199 255
161 199 255
161 199 255
161 199 255
161 199 255
161 199 255
161 199 255
161 199 255
161 199 255
160 198 255
160 198 255
160 198 255
160 198 255
160 198 255
160 198 255
160 198 255
160 198 255
160 198 255
159 198 255
159 198 255
159 198 255
159 198 255
159 198 255
159 198 255
159 197 255
159 197 255
159 197 255
158 197 255
158 197 255
158 197 255
158 197 255
158 197 255
158 197 255
158 197 255
158 197 255
158 197 255
158 197 255
157 197 255
157 197 255
157 197 255
157 196 255
157 196 255
157 196 255
157 196 255
157 196 255
157 196 255
156 196 255
156 196 255
156 196 255
156 196 255
156 196 255
156 196 255
156 196 255
156 196 255
156 196 255
156 196 255
155 195 255
155 195 255
155 195 255
155 195 255
155 195 255
155 195 255
155 195 255
155 195 255
155 195 255
155 195 255
154 195 255
154 195 255
154 195 255
154 195 255
154 195 255
154 195 255
154 195 255
154 194 255
154 194 255
154 194 255
154 194 255
153 194 255
153 194 255
153 194 255
153 194 255
153 194 255
153 194 255
153 194 255
153 194 255
153 194 255
153 194 255
153 194 255
153 194 255
153 194 255
152 194 255
152 194 255
152 194 255
152 194 255
152 194 255
152 193 255
152 193 255
152 193 255
152 193 255
152 193 255
152 193 255
152 193 255
152 193 255
152 193 255
152 193 255
152 193 255
152 193 255
151 193 255
151 193 255
151 193 255
151 193 255
151 193 255
151 193 255
151 193 255
151 193 255
151 193 255
151 193 255
151 193 255
151 193 255
151 193 255
151 193 255
151 193 255
151 193 255
151 193 255
151 193 255
151 193 255
151 193 255
151 193 255
151 193 255
151 193 255
151 193 255
151 193 255
151 193 255
151 193 255
151 193 255
151 193 255
151 193 255
151 193 255
151 193 255
151 193 255
151 193 255
151 193 255
151 193 255
151 193 255
151 193 255
151 193 255
151 193 255
151 193 255
151 193 255
151 193 255
151 193 255
151 193 255
151 193 255
151 193 255
152 193 255
152 193 255
152 193 255
152 193 255
152 193 255
152 193 255
152 193 255
152 193 255
152 193 255
152 193 255
152 193 255
152 193 255
152 193 255
152 194 255
152 194 255
152 194 255
152 194 255
152 194 255
153 194 255
153 194 255
153 194 255
153 194 255
153 194 255
153 194 255
153 194 255
153 194 255
153 194 255
153 194 255
153 194 255
153 194 255
153 194 255
154 194 255
154 194 255
154 194 255
154 195 255
154 195 255
154 195 255
154 195 255
154 195 255
154 195 255
154 195 255
154 195 255
155 195 255
155 195 255
155 195 255
155 195 255
155 195 255
155 195 255
155 195 255
155 195 255
155 195 255
155 195 255
156 196 255
156 196 255
156 196 255
156 196 255
156 196 255
156 196 255
156 196 255
156 196 255
156 196 255
156 196 255
157 196 255
157 196 255
157 196 255
157 196 255
157 196 255
157 196 255
157 197 255
157 197 255
157 197 255
158 197 255
158 197 255
158 197 255
158 197 255
158 197 255
158 197 255
158 197 255
158 197 255
158 197 255
158 197 255
159 197 255
159 197 255
159 197 255
159 198 255
159 198 255
159 198 255
159 198 255
159 198 255
159 198 255
160 198 255
160 198 255
160 198 255
160 198 255
160 198 255
160 198 255
160 198 255
160 198 255
160 198 255
161 199 255
161 199 255
161 199 255
161 199 255
161 199 255
161 199 255
161 199 255
161 199 255
161 199 255
161 199 255
162 199 255
162 199 255
162 199 255
162 199 255
162 199 255
162 199 255
162 200 255
162 200 255
162 200 255
162 200 255
163 200 255
163 200 255
163 200 255
163 200 255
163 200 255
163 200 255
163 200 255
163 200 255
163 200 255
163 200 255
164 200 255
164 200 255
164 200 255
164 201 255
164 201 255
164 201 255
164 201 255
164 201 255
164 201 255
164 201 255
164 201 255
165 201 255
165 201 255
165 201 255
165 201 255
165 201 255
165 201 255
165 201 255
165 201 255
165 201 255
165 201 255
165 201 255
166 202 255
166 202 255
166 202 255
166 202 255
166 202 255
166 202 255
166 202 255
166 202 255
166 202 255
166 202 255
166 202 255
167 202 255
167 202 255
167 202 255
167 202 255
167 202 255
167 202 255
167 202 255
167 202 255
167 202 255
167 203 255
167 203 255
167 203 255
167 203 255
168 203 255
168 203 255
168 203 255
168 203 255
168 203 255
168 203 255
168 203 255
167 203 255
167 203 255
167 203 255
167 203 255
167 202 255
167 202 255
167 202 255
167 202 255
167 202 255
167 202 255
167 202 255
167 202 255
167 202 255
166 202 255
166 202 255
166 202 255
166 202 255
166 202 255
166 202 255
166 202 255
166 202 255
166 202 255
166 202 255
166 202 255
165 201 255
165 201 255
165 201 255
165 201 255
165 201 255
165 201 255
165 201 255
165 201 255
165 201 255
165 201 255
165 201 255
164 201 255
164 201 255
164 201 255
164 201 255
164 201 255
164 201 255
164 201 255
164 200 255
164 200 255
164 200 255
164 200 255
163 200 255
163 200 255
163 200 255
163 200 255
163 200 255
163 200 255
163 200 255
163 200 255
163 200 255
163 200 255
162 200 255
162 200 255
162 200 255
162 199 255
162 199 255
162 199 255
162 199 255
162 199 255
162 199 255
162 199 255
161 199 255
161 199 255
161 199 255
161 199 255
161 199 255
161 199 255
161 199 255
161 199 255
161 199 255
160 198 255
160 198 255
160 198 255
160 198 255
160 198 255
160 198 255
160 198 255
160 198 255
160 198 255
159 198 255
159 198 255
159 198 255
159 198 255
159 198 255
159 198 255
159 198 255
159 197 255
159 197 255
159 197 255
158 197 255
158 197 255
158 197 255
158 197 255
158 197 255
158 197 255
158 197 255
158 197 255
158 197 255
157 197 255
157 197 255
157 197 255
157 197 255
157 196 255
157 196 255
157 196 255
157 196 255
157 196 255
157 196 255
156 196 255
156 196 255
156 196 255
156 196 255
156 196 255
156 196 255
156 196 255
156 196 255
156 196 255
156 196 255
155 195 255
155 195 255
155 195 255
155 195 255
155 195 255
155 195 255
155 195 255
155 195 255
155 195 255
155 195 255
154 195 255
154 195 255
154 195 255
154 195 255
154 195 255
154 195 255
154 195 255
154 194 255
154 194 255
154 194 255
154 194 255
153 194 255
153 194 255
153 194 255
153 194 255
153 194 255
153 194 255
153 194 255
153 194 255
153 194 255
153 194 255
153 194 255
153 194 255
153 194 255
153 194 255
152 194 255
152 194 255
152 194 255
152 194 255
152 194 255
152 194 255
152 193 255
152 193 255
152 193 255
152 193 255
152 193 255
152 193 255
152 193 255
152 193 255
152 193 255
152 193 255
152 193 255
152 193 255
152 193 255
152 193 255
152 193 255
151 193 255
151 193 255
151 193 255
151 193 255
151 193 255
151 193 255
151 193 255
151 193 255
151 193 255
151 193 255
151 193 255
151 193 255
151 193 255
151 193 255
151 193 255
151 193 255
151 193 255
151 193 255
151 193 255
151 193 255
151 193 255
151 193 255
151 193 255
151 193 255
151 193 255
151 193 255
151 193 255
151 193 255
151 193 255
151 193 255
151 193 255
151 193 255
152 193 255
152 193 255
152 193 255
152 193 255
152 193 255
152 193 255
152 193 255
152 193 255
152 193 255
152 193 255
152 193 255
152 193 255
152 193 255
152 193 255
152 193 255
152 194 255
152 194 255
152 194 255
152 194 255
152 194 255
152 194 255
153 194 255
153 194 255
153 194 255
153 194 255
153 194 255
153 194 255
153 194 255
153 194 255
153 194 255
153 194 255
153 194 255
153 194 255
153 194 255
153 194 255
154 194 255
154 194 255
154 194 255
154 194 255
154 195 255
154 195 255
154 195 255
154 195 255
154 195 255
154 195 255
154 195 255
155 195 255
155 195 255
155 195 255
155 195 255
155 195 255
155 195 255
155 195 255
155 195 255
155 195 255
155 195 255
156 196 255
156 196 255
156 196 255
156 196 255
156 196 255
156 196 255
156 196 255
156 196 255
156 196 255
156 196 255
157 196 255
157 196 255
157 196 255
157 196 255
157 196 255
157 196 255
157 196 255
157 197 255
157 197 255
157 197 255
158 197 255
158 197 255
158 197 255
158 197 255
158 197 255
158 197 255
158 197 255
158 197 255
158 197 255
159 197 255
159 197 255
159 197 255
159 198 255
159 198 255
159 198 255
159 198 255
159 198 255
159 198 255
160 198 255
160 198 255
160 198 255
160 198 255
160 198 255
160 198 255
160 198 255
160 198 255
160 198 255
160 198 255
161 199 255
161 199 255
161 199 255
161 199 255
161 199 255
161 199 255
161 199 255
161 199 255
161 199 255
162 199 255
162 199 255
162 199 255
162 199 255
162 199 255
162 199 255
162 199 255
162 200 255
162 200 255
162 200 255
163 200 255
163 200 255
163 200 255
163 200 255
163 200 255
163 200 255
163 200 255
163 200 255
163 200 255
163 200 255
164 200 255
164 200 255
164 200 255
164 200 255
164 201 255
164 201 255
164 201 255
164 201 255
164 201 255
164 201 255
164 201 255
165 201 255
165 201 255
165 201 255
165 201 255
165 201 255
165 201 255
165 201 255
165 201 255
165 201 255
165 201 255
165 201 255
166 202 255
166 202 255
166 202 255
166 202 255
166 202 255
166 202 255
166 202 255
166 202 255
166 202 255
166 202 255
166 202 255
166 202 255
167 202 255
167 202 255
167 202 255
167 202 255
167 202 255
167 202 255
167 202 255
167 202 255
167 203 255
167 203 255
167 203 255
167 203 255
168 203 255
168 203 255
168 203 255
168 203 255
168 203 255
168 203 255
168 203 255
168 203 255
168 203 255
168 203 255
168 203 255
168 203 255
168 203 255
167 203 255
167 203 255
167 203 255
167 203 255
167 202 255
167 202 255
167 202 255
167 202 255
167 202 255
167 202 255
167 202 255
167 202 255
166 202 255
166 202 255
166 202 255
166 202 255
166 202 255
166 202 255
166 202 255
166 202 255
166 202 255
166 202 255
166 202 255
166 202 255
165 201 255
165 201 255
165 201 255
165 201 255
165 201 255
165 201 255
165 201 255
165 201 255
165 201 255
165 201 255
165 201 255
164 201 255
164 201 255
164 201 255
164 201 255
164 201 255
164 201 255
164 201 255
164 200 255
164 200 255
164 200 255
163 200 255
163 200 255
163 200 255
163 200 255
163 200 255
163 200 255
163 200 255
163 200 255
163 200 255
163 200 255
162 200 255
162 200 255
162 200 255
162 200 255
162 199 255
162 199 255
162 199 255
162 199 255
162 199 255
162 199 255
161 199 255
161 199 255
161 199 255
161 199 255
161 199 255
161 199 255
161 199 255
161 199 255
161 199 255
161 199 255
160 198 255
160 198 255
160 198 255
160 198 255
160 198 255
160 198 255
160 198 255
160 198 255
160 198 255
159 198 255
159 198 255
159 198 255
159 198 255
159 198 255
159 198 255
159 197 255
159 197 255
159 197 255
158 197 255
158 197 255
158 197 255
158 197 255
158 197 255
158 197 255
158 197 255
158 197 255
158 197 255
158 197 255
157 197 255
157 197 255
157 197 255
157 196 255
157 196 255
157 196 255
157 196 255
157 196 255
157 196 255
156 196 255
156 196 255
156 196 255
156 196 255
156 196 255
156 196 255
156 196 255
156 196 255
156 196 255
156 196 255
156 196 255
155 195 255
155 195 255
155 195 255
155 195 255
155 195 255
155 195 255
155 195 255
155 195 255
155 195 255
155 195 255
154 195 255
154 195 255
154 195 255
154 195 255
154 195 255
154 195 255
154 195 255
154 195 255
154 194 255
154 194 255
154 194 255
154 194 255
153 194 255
153 194 255
153 194 255
153 194 255
153 194 255
153 194 255
153 194 255
153 194 255
153 194 255
153 194 255
153 194 255
153 194 255
153 194 255
153 194 255
152 194 255
152 194 255
152 194 255
152 194 255
152 194 255
152 194 255
152 194 255
152 193 255
152 193 255
152 193 255
152 193 255
152 193 255
152 193 255
152 193 255
152 193 255
152 193 255
152 193 255
152 193 255
152 193 255
152 193 255
152 193 255
152 193 255
152 193 255
152 193 255
152 193 255
152 193 255
152 193 255
152 193 255
152 193 255
152 193 255
152 193 255
152 193 255
152 193 255
152 193 255
152 193 255
152 193 255
152 193 255
152 193 255
152 193 255
152 193 255
152 193 255
152 193 255
152 193 255
152 193 255
152 193 255
152 193 255
152 193 255
152 193 255
152 193 255
152 193 255
152 193 255
152 193 255
152 193 255
152 193 255
152 193 255
152 193 255
152 193 255
152 193 255
152 193 255
152 194 255
152 194 255
152 194 255
152 194 255
152 194 255
152 194 255
153 194 255
153 194 255
153 194 255
153 194 255
153 194 255
153 194 255
153 194 255
153 194 255
153 194 255
153 194 255
153 194 255
153 194 255
153 194 255
153 194 255
153 194 255
154 194 255
154 194 255
154 194 255
154 194 255
154 195 255
154 195 255
154 195 255
154 195 255
154 195 255
154 195 255
154 195 255
154 195 255
155 195 255
155 195 255
155 195 255
155 195 255
155 195 255
155 195 255
155 195 255
155 195 255
155 195 255
155 195 255
155 195 255
156 196 255
156 196 255
156 196 255
156 196 255
156 196 255
156 196 255
156 196 255
156 196 255
156 196 255
157 196 255
157 196 255
157 196 255
157 196 255
157 196 255
157 196 255
157 196 255
157 197 255
157 197 255
157 197 255
158 197 255
158 197 255
158 197 255
158 197 255
158 197 255
158 197 255
158 197 255
158 197 255
158 197 255
158 197 255
159 197 255
159 197 255
159 197 255
159 198 255
159 198 255
159 198 255
159 198 255
159 198 255
159 198 255
160 198 255
160 198 255
160 198 255
160 198 255
160 198 255
160 198 255
160 198 255
160 198 255
160 198 255
161 199 255
161 199 255
161 199 255
161 199 255
161 199 255
161 199 255
161 199 255
161 199 255
161 199 255
161 199 255
162 199 255
162 199 255
162 199 255
162 199 255
162 199 255
162 199 255
162 199 255
162 200 255
162 200 255
162 200 255
163 200 255
163 200 255
163 200 255
163 200 255
163 200 255
163 200 255
163 200 255
163 200 255
163 200 255
163 200 255
164 200 255
164 200 255
164 200 255
164 201 255
164 201 255
164 201 255
164 201 255
164 201 255
164 201 255
164 201 255
165 201 255
165 201 255
165 201 255
165 201 255
165 201 255
165 201 255
165 201 255
165 201 255
165 201 255
165 201 255
165 201 255
166 202 255
166 202 255
166 202 255
166 202 255
166 202 255
166 202 255
166 202 255
166 202 255
166 202 255
166 202 255
166 202 255
166 202 255
167 202 255
167 202 255
167 202 255
167 202 255
167 202 255
167 202 255
167 202 255
167 202 255
167 203 255
167 203 255
167 203 255
167 203 255
168 203 255
168 203 255
168 203 255
168 203 255
168 203 255
168 203 255
168 203 255
168 203 255
168 203 255
168 203 255
168 203 255
168 203 255
168 203 255
168 203 255
168 203 255
168 203 255
168 203 255
168 203 255
168 203 255
167 203 255
167 203 255
167 203 255
167 203 255
167 202 255
167 202 255
167 202 255
167 202 255
167 202 255
167 202 255
167 202 255
167 202 255
166 202 255
166 202 255
166 202 255
166 202 255
166 202 255
166 202 255
166 202 255
166 202 255
166 202 255
166 202 255
166 202 255
165 201 255
165 201 255
165 201 255
165 201 255
165 201 255
165 201 255
165 201 255
165 201 255
165 201 255
165 201 255
165 201 255
164 201 255
164 201 255
164 201 255
164 201 255
164 201 255
164 201 255
164 201 255
164 200 255
164 200 255
164 200 255
164 200 255
163 200 255
163 200 255
163 200 255
163 200 255
163 200 255
163 200 255
163 200 255
163 200 255
163 200 255
163 200 255
162 200 255
162 200 255
162 200 255
162 199 255
162 199 255
162 199 255
162 199 255
162 199 255
162 199 255
162 199 255
161 199 255
161 199 255
161 199 255
161 199 255
161 199 255
161 199 255
161 199 255
161 199 255
161 199 255
160 198 255
160 198 255
160 198 255
160 198 255
160 198 255
160 198 255
160 198 255
160 198 255
160 198 255
160 198 255
159 198 255
159 198 255
159 198 255
159 198 255
159 198 255
159 198 255
159 197 255
159 197 255
159 197 255
158 197 255
158 197 255
158 197 255
158 197 255
158 197 255
158 197 255
158 197 255
158 197 255
158 197 255
157 197 255
157 197 255
157 197 255
157 197 255
157 196 255
157 196 255
157 196 255
157 196 255
157 196 255
157 196 255
156 196 255
156 196 255
156 196 255
156 196 255
156 196 255
156 196 255
156 196 255
156 196 255
156 196 255
156 196 255
155 195 255
155 195 255
155 195 255
155 195 255
155 195 255
155 195 255
155 195 255
155 195 255
155 195 255
155 195 255
155 195 255
154 195 255
154 195 255
154 195 255
154 195 255
154 195 255
154 195 255
154 195 255
154 195 255
154 194 255
154 194 255
154 194 255
154 194 255
154 194 255
153 194 255
153 194 255
153 194 255
153 194 255
153 194 255
153 194 255
153 194 255
153 194 255
153 194 255
153 194 255
153 194 255
153 194 255
153 194 255
153 194 255
153 194 255
152 194 255
152 194 255
152 194 255
152 194 255
152 194 255
152 194 255
152 194 255
152 194 255
152 193 255
152 193 255
152 193 255
152 193 255
152 193 255
152 193 255
152 193 255
152 193 255
152 193 255
152 193 255
152 193 255
152 193 255
152 193 255
152 193 255
152 193 255
152 193 255
152 193 255
152 193 255
152 193 255
152 193 255
152 193 255
152 193 255
152 193 255
152 193 255
152 193 255
152 193 255
152 193 255
152 193 255
152 193 255
152 193 255
152 193 255
152 193 255
152 193 255
152 193 255
152 193 255
152 193 255
152 193 255
152 193 255
152 193 255
152 193 255
152 194 255
152 194 255
152 194 255
152 194 255
152 194 255
152 194 255
152 194 255
152 194 255
153 194 255
153 194 255
153 194 255
153 194 255
153 194 255
153 194 255
153 194 255
153 194 255
153 194 255
153 194 255
153 194 255
153 194 255
153 194 255
153 194 255
153 194 255
153 194 255
154 194 255
154 194 255
154 194 255
154 194 255
154 195 255
154 195 255
154 195 255
154 195 255
154 195 255
154 195 255
154 195 255
154 195 255
155 195 255
155 195 255
155 195 255
155 195 255
155 195 255
155 195 255
155 195 255
155 195 255
155 195 255
155 195 255
155 195 255
156 196 255
156 196 255
156 196 255
156 196 255
156 196 255
156 196 255
156 196 255
156 196 255
156 196 255
156 196 255
157 196 255
157 196 255
157 196 255
157 196 255
157 196 255
157 196 255
157 197 255
157 197 255
157 197 255
158 197 255
158 197 255
158 197 255
158 197 255
158 197 255
158 197 255
158 197 255
158 197 255
158 197 255
158 197 255
159 197 255
159 197 255
159 197 255
159 198 255
159 198 255
159 198 255
159 198 255
159 198 255
159 198 255
160 198 255
160 198 255
160 198 255
160 198 255
160 198 255
160 198 255
160 198 255
160 198 255
160 198 255
160 198 255
161 199 255
161 199 255
161 199 255
161 199 255
161 199 255
161 199 255
161 199 255
161 199 255
161 199 255
162 199 255
162 199 255
162 199 255
162 199 255
162 199 255
162 199 255
162 199 255
162 200 255
162 200 255
162 200 255
163 200 255
163 200 255
163 200 255
163 200 255
163 200 255
163 200 255
163 200 255
163 200 255
163 200 255
163 200 255
164 200 255
164 200 255
164 200 255
164 200 255
164 201 255
164 201 255
164 201 255
164 201 255
164 201 255
164 201 255
164 201 255
165 201 255
165 201 255
165 201 255
165 201 255
165 201 255
165 201 255
165 201 255
165 201 255
165 201 255
165 201 255
165 201 255
166 202 255
166 202 255
166 202 255
166 202 255
166 202 255
166 202 255
166 202 255
166 202 255
166 202 255
166 202 255
166 202 255
167 202 255
167 202 255
167 202 255
167 202 255
167 202 255
167 202 255
167 202 255
167 202 255
167 203 255
167 203 255
167 203 255
167 203 255
168 203 255
168 203 255
168 203 255
168 203 255
168 203 255
168 203 255
168 203 255
168 203 255
168 203 255
168 203 255
168 203 255
169 203 255
168 203 255
168 203 255
168 203 255
168 203 255
168 203 255
168 203 255
168 203 255
168 203 255
168 203 255
168 203 255
168 203 255
168 203 255
168 203 255
167 203 255
167 203 255
167 203 255
167 203 255
167 202 255
167 202 255
167 202 255
167 202 255
167 202 255
167 202 255
167 202 255
167 202 255
166 202 255
166 202 255
166 202 255
166 202 255
166 202 255
166 202 255
166 202 255
166 202 255
166 202 255
166 202 255
166 202 255
165 201 255
165 201 255
165 201 255
165 201 255
165 201 255
165 201 255
165 201 255
165 201 255
165 201 255
165 201 255
165 201 255
164 201 255
164 201 255
164 201 255
164 201 255
164 201 255
164 201 255
164 201 255
164 200 255
164 200 255
164 200 255
163 200 255
163 200 255
163 200 255
163 200 255
163 200 255
163 200 255
163 200 255
163 200 255
163 200 255
163 200 255
162 200 255
162 200 255
162 200 255
162 200 255
162 199 255
162 199 255
162 199 255
162 199 255
162 199 255
162 199 255
161 199 255
161 199 255
161 199 255
161 199 255
161 199 255
161 199 255
161 199 255
161 199 255
161 199 255
161 199 255
160 198 255
160 198 255
160 198 255
160 198 255
160 198 255
160 198 255
160 198 255
160 198 255
160 198 255
159 198 255
159 198 255
159 198 255
159 198 255
159 198 255
159 198 255
159 198 255
159 197 255
159 197 255
159 197 255
158 197 255
158 197 255
158 197 255
158 197 255
158 197 255
158 197 255
158 197 255
158 197 255
158 197 255
157 197 255
157 197 255
157 197 255
157 196 255
157 196 255
157 196 255
157 196 255
157 196 255
157 196 255
157 196 255
156 196 255
156 196 255
156 196 255
156 196 255
156 196 255
156 196 255
156 196 255
156 196 255
156 196 255
156 196 255
155 195 255
155 195 255
155 195 255
155 195 255
155 195 255
155 195 255
155 195 255
155 195 255
155 195 255
155 195 255
155 195 255
154 195 255
154 195 255
154 195 255
154 195 255
154 195 255
154 195 255
154 195 255
154 195 255
154 195 255
154 194 255
154 194 255
154 194 255
154 194 255
153 194 255
153 194 255
153 194 255
153 194 255
153 194 255
153 194 255
153 194 255
153 194 255
153 194 255
153 194 255
153 194 255
153 194 255
153 194 255
153 194 255
153 194 255
153 194 255
153 194 255
153 194 255
152 194 255
152 194 255
152 194 255
152 194 255
152 194 255
152 194 255
152 194 255
152 194 255
152 194 255
152 194 255
152 194 255
152 193 255
152 193 255
152 193 255
152 193 255
152 193 255
152 193 255
152 193 255
152 193 255
152 193 255
152 193 255
152 193 255
152 193 255
152 193 255
152 193 255
152 193 255
152 193 255
152 193 255
152 193 255
152 193 255
152 193 255
152 194 255
152 194 255
152 194 255
152 194 255
152 194 255
152 194 255
152 194 255
152 194 255
152 194 255
152 194 255
152 194 255
152 194 255
153 194 255
153 194 255
153 194 255
153 194 255
153 194 255
153 194 255
153 194 255
153 194 255
153 194 255
153 194 255
153 194 255
153 194 255
153 194 255
153 194 255
153 194 255
153 194 255
153 194 255
153 194 255
153 194 255
154 194 255
154 194 255
154 194 255
154 194 255
154 195 255
154 195 255
154 195 255
154 195 255
154 195 255
154 195 255
154 195 255
154 195 255
154 195 255
155 195 255
155 195 255
155 195 255
155 195 255
155 195 255
155 195 255
155 195 255
155 195 255
155 195 255
155 195 255
155 195 255
156 196 255
156 196 255
156 196 255
156 196 255
156 196 255
156 196 255
156 196 255
156 196 255
156 196 255
156 196 255
157 196 255
157 196 255
157 196 255
157 196 255
157 196 255
157 196 255
157 196 255
157 197 255
157 197 255
157 197 255
158 197 255
158 197 255
158 197 255
158 197 255
158 197 255
158 197 255
158 197 255
158 197 255
158 197 255
159 197 255
159 197 255
159 197 255
159 197 255
159 198 255
159 198 255
159 198 255
159 198 255
159 198 255
159 198 255
160 198 255
160 198 255
160 198 255
160 198 255
160 198 255
160 198 255
160 198 255
160 198 255
160 198 255
161 199 255
161 199 255
161 199 255
161 199 255
161 199 255
161 199 255
161 199 255
161 199 255
161 199 255
161 199 255
162 199 255
162 199 255
162 199 255
162 199 255
162 199 255
162 199 255
162 200 255
162 200 255
162 200 255
162 200 255
163 200 255
163 200 255
163 200 255
163 200 255
163 200 255
163 200 255
163 200 255
163 200 255
163 200 255
163 200 255
164 200 255
164 200 255
164 200 255
164 201 255
164 201 255
164 201 255
164 201 255
164 201 255
164 201 255
164 201 255
165 201 255
165 201 255
165 201 255
165 201 255
165 201 255
165 201 255
165 201 255
165 201 255
165 201 255
165 201 255
165 201 255
166 202 255
166 202 255
166 202 255
166 202 255
166 202 255
166 202 255
166 202 255
166 202 255
166 202 255
166 202 255
166 202 255
167 202 255
167 202 255
167 202 255
167 202 255
167 202 255
167 202 255
167 202 255
167 202 255
167 203 255
167 203 255
167 203 255
167 203 255
168 203 255
168 203 255
168 203 255
168 203 255
168 203 255
168 203 255
168 203 255
168 203 255
168 203 255
168 203 255
168 203 255
168 203 255
168 203 255
169 203 255
169 203 255
169 203 255
169 203 255
169 203 255
168 203 255
168 203 255
168 203 255
168 203 255
168 203 255
168 203 255
168 203 255
168 203 255
168 203 255
168 203 255
168 203 255
168 203 255
168 203 255
167 203 255
167 203 255
167 203 255
167 203 255
167 202 255
167 202 255
167 202 255
167 202 255
167 202 255
167 202 255
167 202 255
166 202 255
166 202 255
166 202 255
166 202 255
166 202 255
166 202 255
166 202 255
166 202 255
166 202 255
166 202 255
166 202 255
166 202 255
165 201 255
165 201 255
165 201 255
165 201 255
165 201 255
165 201 255
165 201 255
165 201 255
165 201 255
165 201 255
165 201 255
164 201 255
164 201 255
164 201 255
164 201 255
164 201 255
164 201 255
164 201 255
164 200 255
164 200 255
164 200 255
163 200 255
163 200 255
163 200 255
163 200 255
163 200 255
163 200 255
163 200 255
163 200 255
163 200 255
163 200 255
162 200 255
162 200 255
162 200 255
162 199 255
162 199 255
162 199 255
162 199 255
162 199 255
162 199 255
162 199 255
161 199 255
161 199 255
161 199 255
161 199 255
161 199 255
161 199 255
161 199 255
161 199 255
161 199 255
160 198 255
160 198 255
160 198 255
160 198 255
160 198 255
160 198 255
160 198 255
160 198 255
160 198 255
160 198 255
159 198 255
159 198 255
159 198 255
159 198 255
159 198 255
159 198 255
159 197 255
159 197 255
159 197 255
158 197 255
158 197 255
158 197 255
158 197 255
158 197 255
158 197 255
158 197 255
158 197 255
158 197 255
158 197 255
157 197 255
157 197 255
157 197 255
157 196 255
157 196 255
157 196 255
157 196 255
157 196 255
157 196 255
157 196 255
156 196 255
156 196 255
156 196 255
156 196 255
156 196 255
156 196 255
156 196 255
156 196 255
156 196 255
156 196 255
155 195 255
155 195 255
155 195 255
155 195 255
155 195 255
155 195 255
155 195 255
155 195 255
155 195 255
155 195 255
155 195 255
155 195 255
154 195 255
154 195 255
154 195 255
154 195 255
154 195 255
154 195 255
154 195 255
154 195 255
154 195 255
154 194 255
154 194 255
154 194 255
154 194 255
154 194 255
153 194 255
153 194 255
153 194 255
153 194 255
153 194 255
153 194 255
153 194 255
153 194 255
153 194 255
153 194 255
153 194 255
153 194 255
153 194 255
153 194 255
153 194 255
153 194 255
153 194 255
153 194 255
153 194 255
153 194 255
153 194 255
153 194 255
153 194 255
152 194 255
152 194 255
152 194 255
152 194 255
152 194 255
152 194 255
152 194 255
152 194 255
152 194 255
152 194 255
152 194 255
152 194 255
152 194 255
152 194 255
152 194 255
152 194 255
152 194 255
152 194 255
152 194 255
152 194 255
152 194 255
152 194 255
152 194 255
152 194 255
153 194 255
153 194 255
153 194 255
153 194 255
153 194 255
153 194 255
153 194 255
153 194 255
153 194 255
153 194 255
153 194 255
153 194 255
153 194 255
153 194 255
153 194 255
153 194 255
153 194 255
153 194 255
153 194 255
153 194 255
153 194 255
153 194 255
153 194 255
154 194 255
154 194 255
154 194 255
154 194 255
154 194 255
154 195 255
154 195 255
154 195 255
154 195 255
154 195 255
154 195 255
154 195 255
154 195 255
154 195 255
155 195 255
155 195 255
155 195 255
155 195 255
155 195 255
155 195 255
155 195 255
155 195 255
155 195 255
155 195 255
155 195 255
155 195 255
156 196 255
156 196 255
156 196 255
156 196 255
156 196 255
156 196 255
156 196 255
156 196 255
156 196 255
156 196 255
157 196 255
157 196 255
157 196 255
157 196 255
157 196 255
157 196 255
157 196 255
157 197 255
157 197 255
157 197 255
158 197 255
158 197 255
158 197 255
158 197 255
158 197 255
158 197 255
158 197 255
158 197 255
158 197 255
158 197 255
159 197 255
159 197 255
159 197 255
159 198 255
159 198 255
159 198 255
159 198 255
159 198 255
159 198 255
160 198 255
160 198 255
160 198 255
160 198 255
160 198 255
160 198 255
160 198 255
160 198 255
160 198 255
160 198 255
161 199 255
161 199 255
161 199 255
161 199 255
161 199 255
161 199 255
161 199 255
161 199 255
161 199 255
162 199 255
162 199 255
162 199 255
162 199 255
162 199 255
162 199 255
162 199 255
162 200 255
162 200 255
162 200 255
163 200 255
163 200 255
163 200 255
163 200 255
163 200 255
163 200 255
163 200 255
163 200 255
163 200 255
163 200 255
164 200 255
164 200 255
164 200 255
164 201 255
164 201 255
164 201 255
164 201 255
164 201 255
164 201 255
164 201 255
165 201 255
165 201 255
165 201 255
165 201 255
165 201 255
165 201 255
165 201 255
165 201 255
165 201 255
165 201 255
165 201 255
166 202 255
166 202 255
166 202 255
166 202 255
166 202 255
166 202 255
166 202 255
166 202 255
166 202 255
166 202 255
166 202 255
167 202 255
167 202 255
167 202 255
167 202 255
167 202 255
167 202 255
167 202 255
167 202 255
167 203 255
167 203 255
167 203 255
167 203 255
168 203 255
168 203 255
168 203 255
168 203 255
168 203 255
168 203 255
168 203 255
168 203 255
168 203 255
168 203 255
168 203 255
168 203 255
168 203 255
169 203 255
169 203 255
169 203 255
169 203 255
169 204 255
169 204 255
169 204 255
169 203 255
169 203 255
169 203 255
169 203 255
168 203 255
168 203 255
168 203 255
168 203 255
168 203 255
168 203 255
168 203 255
168 203 255
168 203 255
168 203 255
168 203 255
168 203 255
168 203 255
167 203 255
167 203 255
167 203 255
167 203 255
167 202 255
167 202 255
167 202 255
167 202 255
167 202 255
167 202 255
167 202 255
166 202 255
166 202 255
166 202 255
166 202 255
166 202 255
166 202 255
166 202 255
166 202 255
166 202 255
166 202 255
166 202 255
165 201 255
165 201 255
165 201 255
165 201 255
165 201 255
165 201 255
165 201 255
165 201 255
165 201 255
165 201 255
165 201 255
164 201 255
164 201 255
164 201 255
164 201 255
164 201 255
164 201 255
164 201 255
164 200 255
164 200 255
164 200 255
164 200 255
163 200 255
163 200 255
163 200 255
163 200 255
163 200 255
163 200 255
163 200 255
163 200 255
163 200 255
163 200 255
162 200 255
162 200 255
162 200 255
162 199 255
162 199 255
162 199 255
162 199 255
162 199 255
162 199 255
161 199 255
161 199 255
161 199 255
161 199 255
161 199 255
161 199 255
161 199 255
161 199 255
161 199 255
161 199 255
160 198 255
160 198 255
160 198 255
160 198 255
160 198 255
160 198 255
160 198 255
160 198 255
160 198 255
159 198 255
159 198 255
159 198 255
159 198 255
159 198 255
159 198 255
159 198 255
159 197 255
159 197 255
159 197 255
158 197 255
158 197 255
158 197 255
158 197 255
158 197 255
158 197 255
158 197 255
158 197 255
158 197 255
157 197 255
157 197 255
157 197 255
157 197 255
157 196 255
157 196 255
157 196 255
157 196 255
157 196 255
157 196 255
157 196 255
156 196 255
156 196 255
156 196 255
156 196 255
156 196 255
156 196 255
156 196 255
156 196 255
156 196 255
156 196 255
155 195 255
155 195 255
155 195 255
155 195 255
155 195 255
155 195 255
155 195 255
155 195 255
155 195 255
155 195 255
155 195 255
155 195 255
154 195 255
154 195 255
154 195 255
154 195 255
154 195 255
154 195 255
154 195 255
154 195 255
154 195 255
154 195 255
154 194 255
154 194 255
154 194 255
154 194 255
154 194 255
153 194 255
153 194 255
153 194 255
153 194 255
153 194 255
153 194 255
153 194 255
153 194 255
153 194 255
153 194 255
153 194 255
153 194 255
153 194 255
153 194 255
153 194 255
153 194 255
153 194 255
153 194 255
153 194 255
153 194 255
153 194 255
153 194 255
153 194 255
153 194 255
153 194 255
153 194 255
153 194 255
153 194 255
153 194 255
153 194 255
153 194 255
153 194 255
153 194 255
153 194 255
153 194 255
153 194 255
153 194 255
153 194 255
153 194 255
153 194 255
153 194 255
153 194 255
153 194 255
153 194 255
153 194 255
153 194 255
153 194 255
153 194 255
153 194 255
153 194 255
153 194 255
153 194 255
153 194 255
153 194 255
153 194 255
153 194 255
153 194 255
153 194 255
153 194 255
153 194 255
153 194 255
154 194 255
154 194 255
154 194 255
154 194 255
154 194 255
154 194 255
154 195 255
154 195 255
154 195 255
154 195 255
154 195 255
154 195 255
154 195 255
154 195 255
154 195 255
154 195 255
155 195 255
155 195 255
155 195 255
155 195 255
155 195 255
155 195 255
155 195 255
155 195 255
155 195 255
155 195 255
155 195 255
155 195 255
156 196 255
156 196 255
156 196 255
156 196 255
156 196 255
156 196 255
156 196 255
156 196 255
156 196 255
156 196 255
156 196 255
157 196 255
157 196 255
157 196 255
157 196 255
157 196 255
157 196 255
157 197 255
157 197 255
157 197 255
158 197 255
158 197 255
158 197 255
158 197 255
158 197 255
158 197 255
158 197 255
158 197 255
158 197 255
158 197 255
159 197 255
159 197 255
159 197 255
159 198 255
159 198 255
159 198 255
159 198 255
159 198 255
159 198 255
159 198 255
160 198 255
160 198 255
160 198 255
160 198 255
160 198 255
160 198 255
160 198 255
160 198 255
160 198 255
161 199 255
161 199 255
161 199 255
161 199 255
161 199 255
161 199 255
161 199 255
161 199 255
161 199 255
161 199 255
162 199 255
162 199 255
162 199 255
162 199 255
162 199 255
162 199 255
162 200 255
162 200 255
162 200 255
163 200 255
163 200 255
163 200 255
163 200 255
163 200 255
163 200 255
163 200 255
163 200 255
163 200 255
163 200 255
164 200 255
164 200 255
164 200 255
164 200 255
164 201 255
164 201 255
164 201 255
164 201 255
164 201 255
164 201 255
164 201 255
165 201 255
165 201 255
165 201 255
165 201 255
165 201 255
165 201 255
165 201 255
165 201 255
165 201 255
165 201 255
166 202 255
166 202 255
166 202 255
166 202 255
166 202 255
166 202 255
166 202 255
166 202 255
166 202 255
166 202 255
166 202 255
166 202 255
167 202 255
167 202 255
167 202 255
167 202 255
167 202 255
167 202 255
167 202 255
167 203 255
167 203 255
167 203 255
167 203 255
168 203 255
168 203 255
168 203 255
168 203 255
168 203 255
168 203 255
168 203 255
168 203 255
168 203 255
168 203 255
168 203 255
168 203 255
168 203 255
169 203 255
169 203 255
169 203 255
169 203 255
169 204 255
169 204 255
169 204 255
169 204 255
169 204 255
169 204 255
169 204 255
169 204 255
169 204 255
169 203 255
169 203 255
169 203 255
169 203 255
168 203 255
168 203 255
168 203 255
168 203 255
168 203 255
168 203 255
168 203 255
168 203 255
168 203 255
168 203 255
168 203 255
168 203 255
168 203 255
167 203 255
167 203 255
167 203 255
167 202 255
167 202 255
167 202 255
167 202 255
167 202 255
167 202 255
167 202 255
167 202 255
166 202 255
166 202 255
166 202 255
166 202 255
166 202 255
166 202 255
166 202 255
166 202 255
166 202 255
166 202 255
166 202 255
165 201 255
165 201 255
165 201 255
165 201 255
165 201 255
165 201 255
165 201 255
165 201 255
165 201 255
165 201 255
165 201 255
164 201 255
164 201 255
164 201 255
164 201 255
164 201 255
164 201 255
164 201 255
164 200 255
164 200 255
164 200 255
163 200 255
163 200 255
163 200 255
163 200 255
163 200 255
163 200 255
163 200 255
163 200 255
163 200 255
163 200 255
162 200 255
162 200 255
162 200 255
162 199 255
162 199 255
162 199 255
162 199 255
162 199 255
162 199 255
162 199 255
161 199 255
161 199 255
161 199 255
161 199 255
161 199 255
161 199 255
161 199 255
161 199 255
161 199 255
161 199 255
160 198 255
160 198 255
160 198 255
160 198 255
160 198 255
160 198 255
160 198 255
160 198 255
160 198 255
159 198 255
159 198 255
159 198 255
159 198 255
159 198 255
159 198 255
159 197 255
159 197 255
159 197 255
159 197 255
158 197 255
158 197 255
158 197 255
158 197 255
158 197 255
158 197 255
158 197 255
158 197 255
158 197 255
158 197 255
157 197 255
157 197 255
157 197 255
157 196 255
157 196 255
157 196 255
157 196 255
157 196 255
157 196 255
156 196 255
156 196 255
156 196 255
156 196 255
156 196 255
156 196 255
156 196 255
156 196 255
156 196 255
156 196 255
156 196 255
156 196 255
155 195 255
155 195 255
155 195 255
155 195 255
155 195 255
155 195 255
155 195 255
155 195 255
155 195 255
155 195 255
155 195 255
155 195 255
154 195 255
154 195 255
154 195 255
154 195 255
154 195 255
154 195 255
154 195 255
154 195 255
154 195 255
154 195 255
154 195 255
154 194 255
154 194 255
154 194 255
154 194 255
154 194 255
154 194 255
153 194 255
153 194 255
153 194 255
153 194 255
153 194 255
153 194 255
153 194 255
153 194 255
153 194 255
153 194 255
153 194 255
153 194 255
153 194 255
153 194 255
153 194 255
153 194 255
153 194 255
153 194 255
153 194 255
153 194 255
153 194 255
153 194 255
153 194 255
153 194 255
153 194 255
153 194 255
153 194 255
153 194 255
153 194 255
153 194 255
153 194 255
153 194 255
153 194 255
153 194 255
153 194 255
153 194 255
153 194 255
153 194 255
153 194 255
153 194 255
153 194 255
153 194 255
153 194 255
153 194 255
153 194 255
153 194 255
153 194 255
153 194 255
153 194 255
153 194 255
154 194 255
154 194 255
154 194 255
154 194 255
154 194 255
154 194 255
154 195 255
154 195 255
154 195 255
154 195 255
154 195 255
154 195 255
154 195 255
154 195 255
154 195 255
154 195 255
154 195 255
155 195 255
155 195 255
155 195 255
155 195 255
155 195 255
155 195 255
155 195 255
155 195 255
155 195 255
155 195 255
155 195 255
155 195 255
156 196 255
156 196 255
156 196 255
156 196 255
156 196 255
156 196 255
156 196 255
156 196 255
156 196 255
156 196 255
156 196 255
157 196 255
157 196 255
157 196 255
157 196 255
157 196 255
157 196 255
157 196 255
157 197 255
157 197 255
157 197 255
157 197 255
158 197 255
158 197 255
158 197 255
158 197 255
158 197 255
158 197 255
158 197 255
158 197 255
158 197 255
158 197 255
159 197 255
159 197 255
159 197 255
159 198 255
159 198 255
159 198 255
159 198 255
159 198 255
159 198 255
160 198 255
160 198 255
160 198 255
160 198 255
160 198 255
160 198 255
160 198 255
160 198 255
160 198 255
161 199 255
161 199 255
161 199 255
161 199 255
161 199 255
161 199 255
161 199 255
161 199 255
161 199 255
161 199 255
162 199 255
162 199 255
162 199 255
162 199 255
162 199 255
162 199 255
162 200 255
162 200 255
162 200 255
162 200 255
163 200 255
163 200 255
163 200 255
163 200 255
163 200 255
163 200 255
163 200 255
163 200 255
163 200 255
163 200 255
164 200 255
164 200 255
164 200 255
164 201 255
164 201 255
164 201 255
164 201 255
164 201 255
164 201 255
164 201 255
165 201 255
165 201 255
165 201 255
165 201 255
165 201 255
165 201 255
165 201 255
165 201 255
165 201 255
165 201 255
165 201 255
166 202 255
166 202 255
166 202 255
166 202 255
166 202 255
166 202 255
166 202 255
166 202 255
166 202 255
166 202 255
166 202 255
167 202 255
167 202 255
167 202 255
167 202 255
167 202 255
167 202 255
167 202 255
167 202 255
167 203 255
167 203 255
167 203 255
168 203 255
168 203 255
168 203 255
168 203 255
168 203 255
168 203 255
168 203 255
168 203 255
168 203 255
168 203 255
168 203 255
168 203 255
168 203 255
169 203 255
169 203 255
169 203 255
169 203 255
169 204 255
169 204 255
169 204 255
169 204 255
169 204 255
169 204 255
169 204 255
169 204 255
169 204 255
169 204 255
169 204 255
169 204 255
169 204 255
169 204 255
169 204 255
169 203 255
169 203 255
169 203 255
169 203 255
168 203 255
168 203 255
168 203 255
168 203 255
168 203 255
168 203 255
168 203 255
168 203 255
168 203 255
168 203 255
168 203 255
168 203 255
167 203 255
167 203 255
167 203 255
167 203 255
167 202 255
167 202 255
167 202 255
167 202 255
167 202 255
167 202 255
167 202 255
167 202 255
166 202 255
166 202 255
166 202 255
166 202 255
166 202 255
166 202 255
166 202 255
166 202 255
166 202 255
166 202 255
166 202 255
165 201 255
165 201 255
165 201 255
165 201 255
165 201 255
165 201 255
165 201 255
165 201 255
165 201 255
165 201 255
165 201 255
164 201 255
164 201 255
164 201 255
164 201 255
164 201 255
164 201 255
164 200 255
164 200 255
164 200 255
164 200 255
163 200 255
163 200 255
163 200 255
163 200 255
163 200 255
163 200 255
163 200 255
163 200 255
163 200 255
163 200 255
162 200 255
162 200 255
162 200 255
162 199 255
162 199 255
162 199 255
162 199 255
162 199 255
162 199 255
162 199 255
161 199 255
161 199 255
161 199 255
161 199 255
161 199 255
161 199 255
161 199 255
161 199 255
161 199 255
160 198 255
160 198 255
160 198 255
160 198 255
160 198 255
160 198 255
160 198 255
160 198 255
160 198 255
160 198 255
159 198 255
159 198 255
159 198 255
159 198 255
159 198 255
159 198 255
159 197 255
159 197 255
159 197 255
158 197 255
158 197 255
158 197 255
158 197 255
158 197 255
158 197 255
158 197 255
158 197 255
158 197 255
158 197 255
157 197 255
157 197 255
157 197 255
157 197 255
157 196 255
157 196 255
157 196 255
157 196 255
157 196 255
157 196 255
157 196 255
156 196 255
156 196 255
156 196 255
156 196 255
156 196 255
156 196 255
156 196 255
156 196 255
156 196 255
156 196 255
156 196 255
155 195 255
155 195 255
155 195 255
155 195 255
155 195 255
155 195 255
155 195 255
155 195 255
155 195 255
155 195 255
155 195 255
155 195 255
155 195 255
154 195 255
154 195 255
154 195 255
154 195 255
154 195 255
154 195 255
154 195 255
154 195 255
154 195 255
154 195 255
154 195 255
154 195 255
154 194 255
154 194 255
154 194 255
154 194 255
154 194 255
154 194 255
154 194 255
154 194 255
154 194 255
153 194 255
153 194 255
153 194 255
153 194 255
153 194 255
153 194 255
153 194 255
153 194 255
153 194 255
153 194 255
153 194 255
153 194 255
153 194 255
153 194 255
153 194 255
153 194 255
153 194 255
153 194 255
153 194 255
153 194 255
153 194 255
153 194 255
153 194 255
153 194 255
153 194 255
153 194 255
153 194 255
153 194 255
153 194 255
153 194 255
153 194 255
153 194 255
153 194 255
153 194 255
154 194 255
154 194 255
154 194 255
154 194 255
154 194 255
154 194 255
154 194 255
154 194 255
154 194 255
154 195 255
154 195 255
154 195 255
154 195 255
154 195 255
154 195 255
154 195 255
154 195 255
154 195 255
154 195 255
154 195 255
154 195 255
155 195 255
155 195 255
155 195 255
155 195 255
155 195 255
155 195 255
155 195 255
155 195 255
155 195 255
155 195 255
155 195 255
155 195 255
155 195 255
156 196 255
156 196 255
156 196 255
156 196 255
156 196 255
156 196 255
156 196 255
156 196 255
156 196 255
156 196 255
156 196 255
157 196 255
157 196 255
157 196 255
157 196 255
157 196 255
157 196 255
157 196 255
157 197 255
157 197 255
157 197 255
158 197 255
158 197 255
158 197 255
158 197 255
158 197 255
158 197 255
158 197 255
158 197 255
158 197 255
158 197 255
158 197 255
159 197 255
159 197 255
159 197 255
159 198 255
159 198 255
159 198 255
159 198 255
159 198 255
159 198 255
160 198 255
160 198 255
160 198 255
160 198 255
160 198 255
160 198 255
160 198 255
160 198 255
160 198 255
160 198 255
161 199 255
161 199 255
161 199 255
161 199 255
161 199 255
161 199 255
161 199 255
161 199 255
161 199 255
162 199 255
162 199 255
162 199 255
162 199 255
162 199 255
162 199 255
162 199 255
162 200 255
162 200 255
162 200 255
163 200 255
163 200 255
163 200 255
163 200 255
163 200 255
163 200 255
163 200 255
163 200 255
163 200 255
163 200 255
164 200 255
164 200 255
164 200 255
164 201 255
164 201 255
164 201 255
164 201 255
164 201 255
164 201 255
164 201 255
165 201 255
165 201 255
165 201 255
165 201 255
165 201 255
165 201 255
165 201 255
165 201 255
165 201 255
165 201 255
165 201 255
166 202 255
166 202 255
166 202 255
166 202 255
166 202 255
166 202 255
166 202 255
166 202 255
166 202 255
166 202 255
166 202 255
167 202 255
167 202 255
167 202 255
167 202 255
167 202 255
167 202 255
167 202 255
167 202 255
167 203 255
167 203 255
167 203 255
168 203 255
168 203 255
168 203 255
168 203 255
168 203 255
168 203 255
168 203 255
168 203 255
168 203 255
168 203 255
168 203 255
168 203 255
168 203 255
169 203 255
169 203 255
169 203 255
169 203 255
169 204 255
169 204 255
169 204 255
169 204 255
169 204 255
169 204 255
169 204 255
169 204 255
169 204 255
170 204 255
170 204 255
170 204 255
169 204 255
169 204 255
169 204 255
169 204 255
169 204 255
169 204 255
169 204 255
169 204 255
169 204 255
169 203 255
169 203 255
169 203 255
169 203 255
168 203 255
168 203 255
168 203 255
168 203 255
168 203 255
168 203 255
168 203 255
168 203 255
168 203 255
168 203 255
168 203 255
168 203 255
168 203 255
167 203 255
167 203 255
167 203 255
167 202 255
167 202 255
167 202 255
167 202 255
167 202 255
167 202 255
167 202 255
167 202 255
166 202 255
166 202 255
166 202 255
166 202 255
166 202 255
166 202 255
166 202 255
166 202 255
166 202 255
166 202 255
166 202 255
165 201 255
165 201 255
165 201 255
165 201 255
165 201 255
165 201 255
165 201 255
165 201 255
165 201 255
165 201 255
165 201 255
164 201 255
164 201 255
164 201 255
164 201 255
164 201 255
164 201 255
164 201 255
164 200 255
164 200 255
164 200 255
163 200 255
163 200 255
163 200 255
163 200 255
163 200 255
163 200 255
163 200 255
163 200 255
163 200 255
163 200 255
162 200 255
162 200 255
162 200 255
162 199 255
162 199 255
162 199 255
162 199 255
162 199 255
162 199 255
161 199 255
161 199 255
161 199 255
161 199 255
161 199 255
161 199 255
161 199 255
161 199 255
161 199 255
161 199 255
160 198 255
160 198 255
160 198 255
160 198 255
160 198 255
160 198 255
160 198 255
160 198 255
160 198 255
159 198 255
159 198 255
159 198 255
159 198 255
159 198 255
159 198 255
159 198 255
159 197 255
159 197 255
159 197 255
158 197 255
158 197 255
158 197 255
158 197 255
158 197 255
158 197 255
158 197 255
158 197 255
158 197 255
158 197 255
157 197 255
157 197 255
157 197 255
157 197 255
157 196 255
157 196 255
157 196 255
157 196 255
157 196 255
157 196 255
157 196 255
156 196 255
156 196 255
156 196 255
156 196 255
156 196 255
156 196 255
156 196 255
156 196 255
156 196 255
156 196 255
156 196 255
156 196 255
155 195 255
155 195 255
155 195 255
155 195 255
155 195 255
155 195 255
155 195 255
155 195 255
155 195 255
155 195 255
155 195 255
155 195 255
155 195 255
155 195 255
154 195 255
154 195 255
154 195 255
154 195 255
154 195 255
154 195 255
154 195 255
154 195 255
154 195 255
154 195 255
154 195 255
154 195 255
154 195 255
154 195 255
154 194 255
154 194 255
154 194 255
154 194 255
154 194 255
154 194 255
154 194 255
154 194 255
154 194 255
154 194 255
154 194 255
154 194 255
154 194 255
154 194 255
154 194 255
154 194 255
154 194 255
154 194 255
154 194 255
153 194 255
154 194 255
154 194 255
154 194 255
154 194 255
154 194 255
154 194 255
154 194 255
154 194 255
154 194 255
154 194 255
154 194 255
154 194 255
154 194 255
154 194 255
154 194 255
154 194 255
154 194 255
154 194 255
154 195 255
154 195 255
154 195 255
154 195 255
154 195 255
154 195 255
154 195 255
154 195 255
154 195 255
154 195 255
154 195 255
154 195 255
154 195 255
154 195 255
155 195 255
155 195 255
155 195 255
155 195 255
155 195 255
155 195 255
155 195 255
155 195 255
155 195 255
155 195 255
155 195 255
155 195 255
155 195 255
155 195 255
156 196 255
156 196 255
156 196 255
156 196 255
156 196 255
156 196 255
156 196 255
156 196 255
156 196 255
156 196 255
156 196 255
156 196 255
157 196 255
157 196 255
157 196 255
157 196 255
157 196 255
157 196 255
157 196 255
157 197 255
157 197 255
157 197 255
157 197 255
158 197 255
158 197 255
158 197 255
158 197 255
158 197 255
158 197 255
158 197 255
158 197 255
158 197 255
158 197 255
159 197 255
159 197 255
159 197 255
159 198 255
159 198 255
159 198 255
159 198 255
159 198 255
159 198 255
160 198 255
160 198 255
160 198 255
160 198 255
160 198 255
160 198 255
160 198 255
160 198 255
160 198 255
160 198 255
161 199 255
161 199 255
161 199 255
161 199 255
161 199 255
161 199 255
161 199 255
161 199 255
161 199 255
161 199 255
162 199 255
162 199 255
162 199 255
162 199 255
162 199 255
162 199 255
162 200 255
162 200 255
162 200 255
163 200 255
163 200 255
163 200 255
163 200 255
163 200 255
163 200 255
163 200 255
163 200 255
163 200 255
163 200 255
164 200 255
164 200 255
164 200 255
164 201 255
164 201 255
164 201 255
164 201 255
164 201 255
164 201 255
164 201 255
165 201 255
165 201 255
165 201 255
165 201 255
165 201 255
165 201 255
165 201 255
165 201 255
165 201 255
165 201 255
165 201 255
166 202 255
166 202 255
166 202 255
166 202 255
166 202 255
166 202 255
166 202 255
166 202 255
166 202 255
166 202 255
166 202 255
167 202 255
167 202 255
167 202 255
167 202 255
167 202 255
167 202 255
167 202 255
167 202 255
167 203 255
167 203 255
167 203 255
167 203 255
168 203 255
168 203 255
168 203 255
168 203 255
168 203 255
168 203 255
168 203 255
168 203 255
168 203 255
168 203 255
168 203 255
168 203 255
169 203 255
169 203 255
169 203 255
169 203 255
169 204 255
169 204 255
169 204 255
169 204 255
169 204 255
169 204 255
169 204 255
169 204 255
169 204 255
170 204 255
170 204 255
170 204 255
170 204 255
170 204 255
170 204 255
170 204 255
170 204 255
170 204 255
169 204 255
169 204 255
169 204 255
169 204 255
169 204 255
169 204 255
169 204 255
169 204 255
169 204 255
169 203 255
169 203 255
169 203 255
169 203 255
168 203 255
168 203 255
168 203 255
168 203 255
168 203 255
168 203 255
168 203 255
168 203 255
168 203 255
168 203 255
168 203 255
168 203 255
167 203 255
167 203 255
167 203 255
167 203 255
167 202 255
167 202 255
167 202 255
167 202 255
167 202 255
167 202 255
167 202 255
167 202 255
166 202 255
166 202 255
166 202 255
166 202 255
166 202 255
166 202 255
166 202 255
166 202 255
166 202 255
166 202 255
166 202 255
165 201 255
165 201 255
165 201 255
165 201 255
165 201 255
165 201 255
165 201 255
165 201 255
165 201 255
165 201 255
164 201 255
164 201 255
164 201 255
164 201 255
164 201 255
164 201 255
164 201 255
164 200 255
164 200 255
164 200 255
163 200 255
163 200 255
163 200 255
163 200 255
163 200 255
163 200 255
163 200 255
163 200 255
163 200 255
163 200 255
162 200 255
162 200 255
162 200 255
162 200 255
162 199 255
162 199 255
162 199 255
162 199 255
162 199 255
162 199 255
161 199 255
161 199 255
161 199 255
161 199 255
161 199 255
161 199 255
161 199 255
161 199 255
161 199 255
161 199 255
160 198 255
160 198 255
160 198 255
160 198 255
160 198 255
160 198 255
160 198 255
160 198 255
160 198 255
159 198 255
159 198 255
159 198 255
159 198 255
159 198 255
159 198 255
159 198 255
159 197 255
159 197 255
159 197 255
158 197 255
158 197 255
158 197 255
158 197 255
158 197 255
158 197 255
158 197 255
158 197 255
158 197 255
158 197 255
157 197 255
157 197 255
157 197 255
157 197 255
157 196 255
157 196 255
157 196 255
157 196 255
157 196 255
157 196 255
157 196 255
156 196 255
156 196 255
156 196 255
156 196 255
156 196 255
156 196 255
156 196 255
156 196 255
156 196 255
156 196 255
156 196 255
156 196 255
156 196 255
155 195 255
155 195 255
155 195 255
155 195 255
155 195 255
155 195 255
155 195 255
155 195 255
155 195 255
155 195 255
155 195 255
155 195 255
155 195 255
155 195 255
155 195 255
155 195 255
154 195 255
154 195 255
154 195 255
154 195 255
154 195 255
154 195 255
154 195 255
154 195 255
154 195 255
154 195 255
154 195 255
154 195 255
154 195 255
154 195 255
154 195 255
154 195 255
154 195 255
154 195 255
154 195 255
154 195 255
154 195 255
154 195 255
154 194 255
154 194 255
154 194 255
154 194 255
154 194 255
154 194 255
154 194 255
154 194 255
154 194 255
154 194 255
154 194 255
154 195 255
154 195 255
154 195 255
154 195 255
154 195 255
154 195 255
154 195 255
154 195 255
154 195 255
154 195 255
154 195 255
154 195 255
154 195 255
154 195 255
154 195 255
154 195 255
154 195 255
154 195 255
154 195 255
154 195 255
154 195 255
155 195 255
155 195 255
155 195 255
155 195 255
155 195 255
155 195 255
155 195 255
155 195 255
155 195 255
155 195 255
155 195 255
155 195 255
155 195 255
155 195 255
155 195 255
155 195 255
156 196 255
156 196 255
156 196 255
156 196 255
156 196 255
156 196 255
156 196 255
156 196 255
156 196 255
156 196 255
156 196 255
156 196 255
156 196 255
157 196 255
157 196 255
157 196 255
157 196 255
157 196 255
157 196 255
157 196 255
157 197 255
157 197 255
157 197 255
157 197 255
158 197 255
158 197 255
158 197 255
158 197 255
158 197 255
158 197 255
158 197 255
158 197 255
158 197 255
158 197 255
159 197 255
159 197 255
159 197 255
159 198 255
159 198 255
159 198 255
159 198 255
159 198 255
159 198 255
159 198 255
160 198 255
160 198 255
160 198 255
160 198 255
160 198 255
160 198 255
160 198 255
160 198 255
160 198 255
161 199 255
161 199 255
161 199 255
161 199 255
161 199 255
161 199 255
161 199 255
161 199 255
161 199 255
161 199 255
162 199 255
162 199 255
162 199 255
162 199 255
162 199 255
162 199 255
162 200 255
162 200 255
162 200 255
162 200 255
163 200 255
163 200 255
163 200 255
163 200 255
163 200 255
163 200 255
163 200 255
163 200 255
163 200 255
163 200 255
164 200 255
164 200 255
164 200 255
164 201 255
164 201 255
164 201 255
164 201 255
164 201 255
164 201 255
164 201 255
165 201 255
165 201 255
165 201 255
165 201 255
165 201 255
165 201 255
165 201 255
165 201 255
165 201 255
165 201 255
166 202 255
166 202 255
166 202 255
166 202 255
166 202 255
166 202 255
166 202 255
166 202 255
166 202 255
166 202 255
166 202 255
167 202 255
167 202 255
167 202 255
167 202 255
167 202 255
167 202 255
167 202 255
167 202 255
167 203 255
167 203 255
167 203 255
168 203 255
168 203 255
168 203 255
168 203 255
168 203 255
168 203 255
168 203 255
168 203 255
168 203 255
168 203 255
168 203 255
168 203 255
168 203 255
169 203 255
169 203 255
169 203 255
169 203 255
169 204 255
169 204 255
169 204 255
169 204 255
169 204 255
169 204 255
169 204 255
169 204 255
169 204 255
170 204 255
170 204 255
170 204 255
170 204 255
170 204 255
170 204 255
170 204 255
170 204 255
170 204 255
170 204 255
170 204 255
170 204 255
170 204 255
170 204 255
170 204 255
169 204 255
169 204 255
169 204 255
169 204 255
169 204 255
169 204 255
169 204 255
169 204 255
169 204 255
169 203 255
169 203 255
169 203 255
169 203 255
168 203 255
168 203 255
168 203 255
168 203 255
168 203 255
168 203 255
168 203 255
168 203 255
168 203 255
168 203 255
168 203 255
168 203 255
167 203 255
167 203 255
167 203 255
167 203 255
167 202 255
167 202 255
167 202 255
167 202 255
167 202 255
167 202 255
167 202 255
167 202 255
166 202 255
166 202 255
166 202 255
166 202 255
166 202 255
166 202 255
166 202 255
166 202 255
166 202 255
166 202 255
166 202 255
165 201 255
165 201 255
165 201 255
165 201 255
165 201 255
165 201 255
165 201 255
165 201 255
165 201 255
165 201 255
164 201 255
164 201 255
164 201 255
164 201 255
164 201 255
164 201 255
164 201 255
164 200 255
164 200 255
164 200 255
163 200 255
163 200 255
163 200 255
163 200 255
163 200 255
163 200 255
163 200 255
163 200 255
163 200 255
163 200 255
162 200 255
162 200 255
162 200 255
162 199 255
162 199 255
162 199 255
162 199 255
162 199 255
162 199 255
162 199 255
161 199 255
161 199 255
161 199 255
161 199 255
161 199 255
161 199 255
161 199 255
161 199 255
161 199 255
161 199 255
160 198 255
160 198 255
160 198 255
160 198 255
160 198 255
160 198 255
160 198 255
160 198 255
160 198 255
159 198 255
159 198 255
159 198 255
159 198 255
159 198 255
159 198 255
159 198 255
159 197 255
159 197 255
159 197 255
158 197 255
158 197 255
158 197 255
158 197 255
158 197 255
158 197 255
158 197 255
158 197 255
158 197 255
158 197 255
157 197 255
157 197 255
157 197 255
157 197 255
157 196 255
157 196 255
157 196 255
157 196 255
157 196 255
157 196 255
157 196 255
157 196 255
156 196 255
156 196 255
156 196 255
156 196 255
156 196 255
156 196 255
156 196 255
156 196 255
156 196 255
156 196 255
156 196 255
156 196 255
156 196 255
155 195 255
155 195 255
155 195 255
155 195 255
155 195 255
155 195 255
155 195 255
155 195 255
155 195 255
155 195 255
155 195 255
155 195 255
155 195 255
155 195 255
155 195 255
155 195 255
155 195 255
155 195 255
155 195 255
154 195 255
154 195 255
154 195 255
154 195 255
154 195 255
154 195 255
154 195 255
154 195 255
154 195 255
154 195 255
154 195 255
154 195 255
154 195 255
154 195 255
154 195 255
154 195 255
154 195 255
154 195 255
154 195 255
154 195 255
154 195 255
154 195 255
154 195 255
154 195 255
154 195 255
154 195 255
154 195 255
154 195 255
154 195 255
154 195 255
154 195 255
154 195 255
154 195 255
154 195 255
154 195 255
154 195 255
154 195 255
154 195 255
154 195 255
154 195 255
155 195 255
155 195 255
155 195 255
155 195 255
155 195 255
155 195 255
155 195 255
155 195 255
155 195 255
155 195 255
155 195 255
155 195 255
155 195 255
155 195 255
155 195 255
155 195 255
155 195 255
155 195 255
155 195 255
156 196 255
156 196 255
156 196 255
156 196 255
156 196 255
156 196 255
156 196 255
156 196 255
156 196 255
156 196 255
156 196 255
156 196 255
156 196 255
157 196 255
157 196 255
157 196 255
157 196 255
157 196 255
157 196 255
157 196 255
157 196 255
157 197 255
157 197 255
157 197 255
157 197 255
158 197 255
158 197 255
158 197 255
158 197 255
158 197 255
158 197 255
158 197 255
158 197 255
158 197 255
158 197 255
159 197 255
159 197 255
159 197 255
159 198 255
159 198 255
159 198 255
159 198 255
159 198 255
159 198 255
159 198 255
160 198 255
160 198 255
160 198 255
160 198 255
160 198 255
160 198 255
160 198 255
160 198 255
160 198 255
161 199 255
161 199 255
161 199 255
161 199 255
161 199 255
161 199 255
161 199 255
161 199 255
161 199 255
161 199 255
162 199 255
162 199 255
162 199 255
162 199 255
162 199 255
162 199 255
162 199 255
162 200 255
162 200 255
162 200 255
163 200 255
163 200 255
163 200 255
163 200 255
163 200 255
163 200 255
163 200 255
163 200 255
163 200 255
163 200 255
164 200 255
164 200 255
164 200 255
164 201 255
164 201 255
164 201 255
164 201 255
164 201 255
164 201 255
164 201 255
165 201 255
165 201 255
165 201 255
165 201 255
165 201 255
165 201 255
165 201 255
165 201 255
165 201 255
165 201 255
166 202 255
166 202 255
166 202 255
166 202 255
166 202 255
166 202 255
166 202 255
166 202 255
166 202 255
166 202 255
166 202 255
167 202 255
167 202 255
167 202 255
167 202 255
167 202 255
167 202 255
167 202 255
167 202 255
167 203 255
167 203 255
167 203 255
168 203 255
168 203 255
168 203 255
168 203 255
168 203 255
168 203 255
168 203 255
168 203 255
168 203 255
168 203 255
168 203 255
168 203 255
168 203 255
169 203 255
169 203 255
169 203 255
169 203 255
169 204 255
169 204 255
169 204 255
169 204 255
169 204 255
169 204 255
169 204 255
169 204 255
169 204 255
170 204 255
170 204 255
170 204 255
170 204 255
170 204 255
170 204 255
170 204 255
170 204 255
170 204 255
170 204 255
170 204 255
170 204 255
170 204 255
170 204 255
170 204 255
170 204 255
170 204 255
170 204 255
170 204 255
170 204 255
170 204 255
170 204 255
169 204 255
169 204 255
169 204 255
169 204 255
169 204 255
169 204 255
169 204 255
169 204 255
169 203 255
169 203 255
169 203 255
169 203 255
168 203 255
168 203 255
168 203 255
168 203 255
168 203 255
168 203 255
168 203 255
168 203 255
168 203 255
168 203 255
168 203 255
168 203 255
167 203 255
167 203 255
167 203 255
167 203 255
167 202 255
167 202 255
167 202 255
167 202 255
167 202 255
167 202 255
167 202 255
167 202 255
166 202 255
166 202 255
166 202 255
166 202 255
166 202 255
166 202 255
166 202 255
166 202 255
166 202 255
166 202 255
165 201 255
165 201 255
165 201 255
165 201 255
165 201 255
165 201 255
165 201 255
165 201 255
165 201 255
165 201 255
165 201 255
164 201 255
164 201 255
164 201 255
164 201 255
164 201 255
164 201 255
164 201 255
164 200 255
164 200 255
164 200 255
163 200 255
163 200 255
163 200 255
163 200 255
163 200 255
163 200 255
163 200 255
163 200 255
163 200 255
163 200 255
162 200 255
162 200 255
162 200 255
162 199 255
162 199 255
162 199 255
162 199 255
162 199 255
162 199 255
162 199 255
161 199 255
161 199 255
161 199 255
161 199 255
161 199 255
161 199 255
161 199 255
161 199 255
161 199 255
160 198 255
160 198 255
160 198 255
160 198 255
160 198 255
160 198 255
160 198 255
160 198 255
160 198 255
160 198 255
159 198 255
159 198 255
159 198 255
159 198 255
159 198 255
159 198 255
159 198 255
159 197 255
159 197 255
159 197 255
158 197 255
158 197 255
158 197 255
158 197 255
158 197 255
158 197 255
158 197 255
158 197 255
158 197 255
158 197 255
158 197 255
157 197 255
157 197 255
157 197 255
157 197 255
157 196 255
157 196 255
157 196 255
157 196 255
157 196 255
157 196 255
157 196 255
157 196 255
156 196 255
156 196 255
156 196 255
156 196 255
156 196 255
156 196 255
156 196 255
156 196 255
156 196 255
156 196 255
156 196 255
156 196 255
156 196 255
156 196 255
155 195 255
155 195 255
155 195 255
155 195 255
155 195 255
155 195 255
155 195 255
155 195 255
155 195 255
155 195 255
155 195 255
155 195 255
155 195 255
155 195 255
155 195 255
155 195 255
155 195 255
155 195 255
155 195 255
155 195 255
155 195 255
155 195 255
155 195 255
155 195 255
154 195 255
154 195 255
154 195 255
154 195 255
154 195 255
154 195 255
154 195 255
154 195 255
154 195 255
154 195 255
154 195 255
154 195 255
154 195 255
154 195 255
154 195 255
154 195 255
154 195 255
154 195 255
154 195 255
155 195 255
155 195 255
155 195 255
155 195 255
155 195 255
155 195 255
155 195 255
155 195 255
155 195 255
155 195 255
155 195 255
155 195 255
155 195 255
155 195 255
155 195 255
155 195 255
155 195 255
155 195 255
155 195 255
155 195 255
155 195 255
155 195 255
155 195 255
155 195 255
155 195 255
156 196 255
156 196 255
156 196 255
156 196 255
156 196 255
156 196 255
156 196 255
156 196 255
156 196 255
156 196 255
156 196 255
156 196 255
156 196 255
156 196 255
156 196 255
157 196 255
157 196 255
157 196 255
157 196 255
157 196 255
157 196 255
157 196 255
157 196 255
157 197 255
157 197 255
157 197 255
158 197 255
158 197 255
158 197 255
158 197 255
158 197 255
158 197 255
158 197 255
158 197 255
158 197 255
158 197 255
158 197 255
159 197 255
159 197 255
159 197 255
159 198 255
159 198 255
159 198 255
159 198 255
159 198 255
159 198 255
159 198 255
160 198 255
160 198 255
160 198 255
160 198 255
160 198 255
160 198 255
160 198 255
160 198 255
160 198 255
160 198 255
161 199 255
161 199 255
161 199 255
161 199 255
161 199 255
161 199 255
161 199 255
161 199 255
161 199 255
162 199 255
162 199 255
162 199 255
162 199 255
162 199 255
162 199 255
162 199 255
162 200 255
162 200 255
162 200 255
163 200 255
163 200 255
163 200 255
163 200 255
163 200 255
163 200 255
163 200 255
163 200 255
163 200 255
163 200 255
164 200 255
164 200 255
164 200 255
164 201 255
164 201 255
164 201 255
164 201 255
164 201 255
164 201 255
164 201 255
165 201 255
165 201 255
165 201 255
165 201 255
165 201 255
165 201 255
165 201 255
165 201 255
165 201 255
165 201 255
165 201 255
166 202 255
166 202 255
166 202 255
166 202 255
166 202 255
166 202 255
166 202 255
166 202 255
166 202 255
166 202 255
167 202 255
167 202 255
167 202 255
167 202 255
167 202 255
167 202 255
167 202 255
167 202 255
167 203 255
167 203 255
167 203 255
167 203 255
168 203 255
168 203 255
168 203 255
168 203 255
168 203 255
168 203 255
168 203 255
168 203 255
168 203 255
168 203 255
168 203 255
168 203 255
169 203 255
169 203 255
169 203 255
169 203 255
169 204 255
169 204 255
169 204 255
169 204 255
169 204 255
169 204 255
169 204 255
169 204 255
170 204 255
170 204 255
170 204 255
170 204 255
170 204 255
170 204 255
170 204 255
170 204 255
170 204 255
170 204 255
170 204 255
170 204 255
170 204 255
171 205 255
171 205 255
170 204 255
170 204 255
170 204 255
170 204 255
170 204 255
170 204 255
170 204 255
170 204 255
170 204 255
170 204 255
170 204 255
170 204 255
170 204 255
170 204 255
169 204 255
169 204 255
169 204 255
169 204 255
169 204 255
169 204 255
169 204 255
169 204 255
169 203 255
169 203 255
169 203 255
169 203 255
169 203 255
168 203 255
168 203 255
168 203 255
168 203 255
168 203 255
168 203 255
168 203 255
168 203 255
168 203 255
168 203 255
168 203 255
167 203 255
167 203 255
167 203 255
167 203 255
167 202 255
167 202 255
167 202 255
167 202 255
167 202 255
167 202 255
167 202 255
167 202 255
166 202 255
166 202 255
166 202 255
166 202 255
166 202 255
166 202 255
166 202 255
166 202 255
166 202 255
166 202 255
165 201 255
165 201 255
165 201 255
165 201 255
165 201 255
165 201 255
165 201 255
165 201 255
165 201 255
165 201 255
165 201 255
164 201 255
164 201 255
164 201 255
164 201 255
164 201 255
164 201 255
164 200 255
164 200 255
164 200 255
164 200 255
163 200 255
163 200 255
163 200 255
163 200 255
163 200 255
163 200 255
163 200 255
163 200 255
163 200 255
163 200 255
162 200 255
162 200 255
162 200 255
162 199 255
162 199 255
162 199 255
162 199 255
162 199 255
162 199 255
162 199 255
161 199 255
161 199 255
161 199 255
161 199 255
161 199 255
161 199 255
161 199 255
161 199 255
161 199 255
160 198 255
160 198 255
160 198 255
160 198 255
160 198 255
160 198 255
160 198 255
160 198 255
160 198 255
160 198 255
159 198 255
159 198 255
159 198 255
159 198 255
159 198 255
159 198 255
159 198 255
159 197 255
159 197 255
159 197 255
158 197 255
158 197 255
158 197 255
158 197 255
158 197 255
158 197 255
158 197 255
158 197 255
158 197 255
158 197 255
158 197 255
157 197 255
157 197 255
157 197 255
157 197 255
157 196 255
157 196 255
157 196 255
157 196 255
157 196 255
157 196 255
157 196 255
157 196 255
157 196 255
156 196 255
156 196 255
156 196 255
156 196 255
156 196 255
156 196 255
156 196 255
156 196 255
156 196 255
156 196 255
156 196 255
156 196 255
156 196 255
156 196 255
156 196 255
155 195 255
155 195 255
155 195 255
155 195 255
155 195 255
155 195 255
155 195 255
155 195 255
155 195 255
155 195 255
155 195 255
155 195 255
155 195 255
155 195 255
155 195 255
155 195 255
155 195 255
155 195 255
155 195 255
155 195 255
155 195 255
155 195 255
155 195 255
155 195 255
155 195 255
155 195 255
155 195 255
155 195 255
155 195 255
155 195 255
155 195 255
155 195 255
155 195 255
155 195 255
155 195 255
155 195 255
155 195 255
155 195 255
155 195 255
155 195 255
155 195 255
155 195 255
155 195 255
155 195 255
155 195 255
155 195 255
155 195 255
155 195 255
155 195 255
155 195 255
155 195 255
155 195 255
155 195 255
155 195 255
155 195 255
155 195 255
155 195 255
155 195 255
156 196 255
156 196 255
156 196 255
156 196 255
156 196 255
156 196 255
156 196 255
156 196 255
156 196 255
156 196 255
156 196 255
156 196 255
156 196 255
156 196 255
156 196 255
157 196 255
157 196 255
157 196 255
157 196 255
157 196 255
157 196 255
157 196 255
157 196 255
157 196 255
157 197 255
157 197 255
157 197 255
157 197 255
158 197 255
158 197 255
158 197 255
158 197 255
158 197 255
158 197 255
158 197 255
158 197 255
158 197 255
158 197 255
158 197 255
159 197 255
159 197 255
159 197 255
159 198 255
159 198 255
159 198 255
159 198 255
159 198 255
159 198 255
159 198 255
160 198 255
160 198 255
160 198 255
160 198 255
160 198 255
160 198 255
160 198 255
160 198 255
160 198 255
160 198 255
161 199 255
161 199 255
161 199 255
161 199 255
161 199 255
161 199 255
161 199 255
161 199 255
161 199 255
162 199 255
162 199 255
162 199 255
162 199 255
162 199 255
162 199 255
162 199 255
162 200 255
162 200 255
162 200 255
163 200 255
163 200 255
163 200 255
163 200 255
163 200 255
163 200 255
163 200 255
163 200 255
163 200 255
163 200 255
164 200 255
164 200 255
164 200 255
164 200 255
164 201 255
164 201 255
164 201 255
164 201 255
164 201 255
164 201 255
165 201 255
165 201 255
165 201 255
165 201 255
165 201 255
165 201 255
165 201 255
165 201 255
165 201 255
165 201 255
166 202 255
166 202 255
166 202 255
166 202 255
166 202 255
166 202 255
166 202 255
166 202 255
166 202 255
166 202 255
166 202 255
167 202 255
167 202 255
167 202 255
167 202 255
167 202 255
167 202 255
167 202 255
167 202 255
167 203 255
167 203 255
167 203 255
167 203 255
168 203 255
168 203 255
168 203 255
168 203 255
168 203 255
168 203 255
168 203 255
168 203 255
168 203 255
168 203 255
168 203 255
168 203 255
169 203 255
169 203 255
169 203 255
169 203 255
169 204 255
169 204 255
169 204 255
169 204 255
169 204 255
169 204 255
169 204 255
169 204 255
170 204 255
170 204 255
170 204 255
170 204 255
170 204 255
170 204 255
170 204 255
170 204 255
170 204 255
170 204 255
170 204 255
170 204 255
170 204 255
170 204 255
171 205 255
171 205 255
171 205 255
171 205 255
171 205 255
171 205 255
171 205 255
171 205 255
170 204 255
170 204 255
170 204 255
170 204 255
170 204 255
170 204 255
170 204 255
170 204 255
170 204 255
170 204 255
170 204 255
170 204 255
170 204 255
169 204 255
169 204 255
169 204 255
169 204 255
169 204 255
169 204 255
169 204 255
169 204 255
169 204 255
169 203 255
169 203 255
169 203 255
169 203 255
168 203 255
168 203 255
168 203 255
168 203 255
168 203 255
168 203 255
168 203 255
168 203 255
168 203 255
168 203 255
168 203 255
167 203 255
167 203 255
167 203 255
167 203 255
167 202 255
167 202 255
167 202 255
167 202 255
167 202 255
167 202 255
167 202 255
167 202 255
166 202 255
166 202 255
166 202 255
166 202 255
166 202 255
166 202 255
166 202 255
166 202 255
166 202 255
166 202 255
165 201 255
165 201 255
165 201 255
165 201 255
165 201 255
165 201 255
165 201 255
165 201 255
165 201 255
165 201 255
165 201 255
164 201 255
164 201 255
164 201 255
164 201 255
164 201 255
164 201 255
164 201 255
164 200 255
164 200 255
164 200 255
163 200 255
163 200 255
163 200 255
163 200 255
163 200 255
163 200 255
163 200 255
163 200 255
163 200 255
163 200 255
162 200 255
162 200 255
162 200 255
162 199 255
162 199 255
162 199 255
162 199 255
162 199 255
162 199 255
161 199 255
161 199 255
161 199 255
161 199 255
161 199 255
161 199 255
161 199 255
161 199 255
161 199 255
161 199 255
160 198 255
160 198 255
160 198 255
160 198 255
160 198 255
160 198 255
160 198 255
160 198 255
160 198 255
160 198 255
159 198 255
159 198 255
159 198 255
159 198 255
159 198 255
159 198 255
159 198 255
159 197 255
159 197 255
159 197 255
159 197 255
158 197 255
158 197 255
158 197 255
158 197 255
158 197 255
158 197 255
158 197 255
158 197 255
158 197 255
158 197 255
158 197 255
157 197 255
157 197 255
157 197 255
157 197 255
157 196 255
157 196 255
157 196 255
157 196 255
157 196 255
157 196 255
157 196 255
157 196 255
157 196 255
156 196 255
156 196 255
156 196 255
156 196 255
156 196 255
156 196 255
156 196 255
156 196 255
156 196 255
156 196 255
156 196 255
156 196 255
156 196 255
156 196 255
156 196 255
156 196 255
156 196 255
156 196 255
155 195 255
155 195 255
155 195 255
155 195 255
155 195 255
155 195 255
155 195 255
155 195 255
155 195 255
155 195 255
155 195 255
155 195 255
155 195 255
155 195 255
155 195 255
155 195 255
155 195 255
155 195 255
155 195 255
155 195 255
155 195 255
155 195 255
155 195 255
155 195 255
155 195 255
155 195 255
155 195 255
155 195 255
155 195 255
155 195 255
155 195 255
155 195 255
155 195 255
155 195 255
155 195 255
155 195 255
155 195 255
155 195 255
155 195 255
155 195 255
155 195 255
155 195 255
155 195 255
155 195 255
156 196 255
156 196 255
156 196 255
156 196 255
156 196 255
156 196 255
156 196 255
156 196 255
156 196 255
156 196 255
156 196 255
156 196 255
156 196 255
156 196 255
156 196 255
156 196 255
156 196 255
156 196 255
157 196 255
157 196 255
157 196 255
157 196 255
157 196 255
157 196 255
157 196 255
157 196 255
157 196 255
157 197 255
157 197 255
157 197 255
157 197 255
158 197 255
158 197 255
158 197 255
158 197 255
158 197 255
158 197 255
158 197 255
158 197 255
158 197 255
158 197 255
158 197 255
159 197 255
159 197 255
159 197 255
159 197 255
159 198 255
159 198 255
159 198 255
159 198 255
159 198 255
159 198 255
159 198 255
160 198 255
160 198 255
160 198 255
160 198 255
160 198 255
160 198 255
160 198 255
160 198 255
160 198 255
160 198 255
161 199 255
161 199 255
161 199 255
161 199 255
161 199 255
161 199 255
161 199 255
161 199 255
161 199 255
161 199 255
162 199 255
162 199 255
162 199 255
162 199 255
162 199 255
162 199 255
162 200 255
162 200 255
162 200 255
163 200 255
163 200 255
163 200 255
163 200 255
163 200 255
163 200 255
163 200 255
163 200 255
163 200 255
163 200 255
164 200 255
164 200 255
164 200 255
164 200 255
164 201 255
164 201 255
164 201 255
164 201 255
164 201 255
164 201 255
165 201 255
165 201 255
165 201 255
165 201 255
165 201 255
165 201 255
165 201 255
165 201 255
165 201 255
165 201 255
165 201 255
166 202 255
166 202 255
166 202 255
166 202 255
166 202 255
166 202 255
166 202 255
166 202 255
166 202 255
166 202 255
167 202 255
167 202 255
167 202 255
167 202 255
167 202 255
167 202 255
167 202 255
167 202 255
167 203 255
167 203 255
167 203 255
167 203 255
168 203 255
168 203 255
168 203 255
168 203 255
168 203 255
168 203 255
168 203 255
168 203 255
168 203 255
168 203 255
168 203 255
169 203 255
169 203 255
169 203 255
169 203 255
169 203 255
169 204 255
169 204 255
169 204 255
169 204 255
169 204 255
169 204 255
169 204 255
169 204 255
170 204 255
170 204 255
170 204 255
170 204 255
170 204 255
170 204 255
170 204 255
170 204 255
170 204 255
170 204 255
170 204 255
170 204 255
170 204 255
171 205 255
171 205 255
171 205 255
171 205 255
171 205 255
171 205 255
171 205 255
171 205 255
171 205 255
171 205 255
171 205 255
171 205 255
171 205 255
171 205 255
171 205 255
170 204 255
170 204 255
170 204 255
170 204 255
170 204 255
170 204 255
170 204 255
170 204 255
170 204 255
170 204 255
170 204 255
170 204 255
170 204 255
169 204 255
169 204 255
169 204 255
169 204 255
169 204 255
169 204 255
169 204 255
169 204 255
169 204 255
169 203 255
169 203 255
169 203 255
169 203 255
168 203 255
168 203 255
168 203 255
168 203 255
168 203 255
168 203 255
168 203 255
168 203 255
168 203 255
168 203 255
168 203 255
167 203 255
167 203 255
167 203 255
167 203 255
167 202 255
167 202 255
167 202 255
167 202 255
167 202 255
167 202 255
167 202 255
167 202 255
166 202 255
166 202 255
166 202 255
166 202 255
166 202 255
166 202 255
166 202 255
166 202 255
166 202 255
166 202 255
165 201 255
165 201 255
165 201 255
165 201 255
165 201 255
165 201 255
165 201 255
165 201 255
165 201 255
165 201 255
165 201 255
164 201 255
164 201 255
164 201 255
164 201 255
164 201 255
164 201 255
164 200 255
164 200 255
164 200 255
164 200 255
163 200 255
163 200 255
163 200 255
163 200 255
163 200 255
163 200 255
163 200 255
163 200 255
163 200 255
163 200 255
162 200 255
162 200 255
162 200 255
162 199 255
162 199 255
162 199 255
162 199 255
162 199 255
162 199 255
161 199 255
161 199 255
161 199 255
161 199 255
161 199 255
161 199 255
161 199 255
161 199 255
161 199 255
161 199 255
160 198 255
160 198 255
160 198 255
160 198 255
160 198 255
160 198 255
160 198 255
160 198 255
160 198 255
160 198 255
159 198 255
159 198 255
159 198 255
159 198 255
159 198 255
159 198 255
159 198 255
159 197 255
159 197 255
159 197 255
159 197 255
158 197 255
158 197 255
158 197 255
158 197 255
158 197 255
158 197 255
158 197 255
158 197 255
158 197 255
158 197 255
158 197 255
158 197 255
157 197 255
157 197 255
157 197 255
157 197 255
157 196 255
157 196 255
157 196 255
157 196 255
157 196 255
157 196 255
157 196 255
157 196 255
157 196 255
157 196 255
156 196 255
156 196 255
156 196 255
156 196 255
156 196 255
156 196 255
156 196 255
156 196 255
156 196 255
156 196 255
156 196 255
156 196 255
156 196 255
156 196 255
156 196 255
156 196 255
156 196 255
156 196 255
156 196 255
156 196 255
156 196 255
156 196 255
155 195 255
155 195 255
155 195 255
155 195 255
155 195 255
155 195 255
155 195 255
155 195 255
155 195 255
155 195 255
155 195 255
155 195 255
155 195 255
155 195 255
155 195 255
155 195 255
155 195 255
155 195 255
155 195 255
155 195 255
155 195 255
155 195 255
155 195 255
155 195 255
155 195 255
155 195 255
156 196 255
156 196 255
156 196 255
156 196 255
156 196 255
156 196 255
156 196 255
156 196 255
156 196 255
156 196 255
156 196 255
156 196 255
156 196 255
156 196 255
156 196 255
156 196 255
156 196 255
156 196 255
156 196 255
156 196 255
156 196 255
156 196 255
157 196 255
157 196 255
157 196 255
157 196 255
157 196 255
157 196 255
157 196 255
157 196 255
157 196 255
157 196 255
157 197 255
157 197 255
157 197 255
157 197 255
158 197 255
158 197 255
158 197 255
158 197 255
158 197 255
158 197 255
158 197 255
158 197 255
158 197 255
158 197 255
158 197 255
158 197 255
159 197 255
159 197 255
159 197 255
159 197 255
159 198 255
159 198 255
159 198 255
159 198 255
159 198 255
159 198 255
159 198 255
160 198 255
160 198 255
160 198 255
160 198 255
160 198 255
160 198 255
160 198 255
160 198 255
160 198 255
160 198 255
161 199 255
161 199 255
161 199 255
161 199 255
161 199 255
161 199 255
161 199 255
161 199 255
161 199 255
161 199 255
162 199 255
162 199 255
162 199 255
162 199 255
162 199 255
162 199 255
162 200 255
162 200 255
162 200 255
162 200 255
163 200 255
163 200 255
163 200 255
163 200 255
163 200 255
163 200 255
163 200 255
163 200 255
163 200 255
164 200 255
164 200 255
164 200 255
164 200 255
164 201 255
164 201 255
164 201 255
164 201 255
164 201 255
164 201 255
165 201 255
165 201 255
165 201 255
165 201 255
165 201 255
165 201 255
165 201 255
165 201 255
165 201 255
165 201 255
165 201 255
166 202 255
166 202 255
166 202 255
166 202 255
166 202 255
166 202 255
166 202 255
166 202 255
166 202 255
166 202 255
167 202 255
167 202 255
167 202 255
167 202 255
167 202 255
167 202 255
167 202 255
167 202 255
167 203 255
167 203 255
167 203 255
167 203 255
168 203 255
168 203 255
168 203 255
168 203 255
168 203 255
168 203 255
168 203 255
168 203 255
168 203 255
168 203 255
168 203 255
169 203 255
169 203 255
169 203 255
169 203 255
169 204 255
169 204 255
169 204 255
169 204 255
169 204 255
169 204 255
169 204 255
169 204 255
169 204 255
170 204 255
170 204 255
170 204 255
170 204 255
170 204 255
170 204 255
170 204 255
170 204 255
170 204 255
170 204 255
170 204 255
170 204 255
170 204 255
171 205 255
171 205 255
171 205 255
171 205 255
171 205 255
171 205 255
171 205 255
171 205 255
171 205 255
171 205 255
171 205 255
171 205 255
171 205 255
171 205 255
171 205 255
171 205 255
171 205 255
171 205 255
171 205 255
171 205 255
171 205 255
170 204 255
170 204 255
170 204 255
170 204 255
170 204 255
170 204 255
170 204 255
170 204 255
170 204 255
170 204 255
170 204 255
170 204 255
170 204 255
169 204 255
169 204 255
169 204 255
169 204 255
169 204 255
169 204 255
169 204 255
169 204 255
169 204 255
169 203 255
169 203 255
169 203 255
169 203 255
168 203 255
168 203 255
168 203 255
168 203 255
168 203 255
168 203 255
168 203 255
168 203 255
168 203 255
168 203 255
168 203 255
168 203 255
167 203 255
167 203 255
167 203 255
167 202 255
167 202 255
167 202 255
167 202 255
167 202 255
167 202 255
167 202 255
167 202 255
166 202 255
166 202 255
166 202 255
166 202 255
166 202 255
166 202 255
166 202 255
166 202 255
166 202 255
166 202 255
166 202 255
165 201 255
165 201 255
165 201 255
165 201 255
165 201 255
165 201 255
165 201 255
165 201 255
165 201 255
165 201 255
164 201 255
164 201 255
164 201 255
164 201 255
164 201 255
164 201 255
164 200 255
164 200 255
164 200 255
164 200 255
163 200 255
163 200 255
163 200 255
163 200 255
163 200 255
163 200 255
163 200 255
163 200 255
163 200 255
162 200 255
162 200 255
162 200 255
162 200 255
162 199 255
162 199 255
162 199 255
162 199 255
162 199 255
162 199 255
161 199 255
161 199 255
161 199 255
161 199 255
161 199 255
161 199 255
161 199 255
161 199 255
161 199 255
161 199 255
160 198 255
160 198 255
160 198 255
160 198 255
160 198 255
160 198 255
160 198 255
160 198 255
160 198 255
160 198 255
160 198 255
159 198 255
159 198 255
159 198 255
159 198 255
159 198 255
159 198 255
159 198 255
159 197 255
159 197 255
159 197 255
159 197 255
158 197 255
158 197 255
158 197 255
158 197 255
158 197 255
158 197 255
158 197 255
158 197 255
158 197 255
158 197 255
158 197 255
158 197 255
157 197 255
157 197 255
157 197 255
157 197 255
157 196 255
157 196 255
157 196 255
157 196 255
157 196 255
157 196 255
157 196 255
157 196 255
157 196 255
157 196 255
157 196 255
156 196 255
156 196 255
156 196 255
156 196 255
156 196 255
156 196 255
156 196 255
156 196 255
156 196 255
156 196 255
156 196 255
156 196 255
156 196 255
156 196 255
156 196 255
156 196 255
156 196 255
156 196 255
156 196 255
156 196 255
156 196 255
156 196 255
156 196 255
156 196 255
156 196 255
156 196 255
156 196 255
156 196 255
156 196 255
156 196 255
156 196 255
156 196 255
156 196 255
156 196 255
156 196 255
156 196 255
156 196 255
156 196 255
156 196 255
156 196 255
156 196 255
156 196 255
156 196 255
156 196 255
156 196 255
156 196 255
156 196 255
156 196 255
156 196 255
156 196 255
156 196 255
156 196 255
156 196 255
156 196 255
156 196 255
156 196 255
156 196 255
156 196 255
156 196 255
156 196 255
157 196 255
157 196 255
157 196 255
157 196 255
157 196 255
157 196 255
157 196 255
157 196 255
157 196 255
157 196 255
157 196 255
157 197 255
157 197 255
157 197 255
157 197 255
158 197 255
158 197 255
158 197 255
158 197 255
158 197 255
158 197 255
158 197 255
158 197 255
158 197 255
158 197 255
158 197 255
158 197 255
159 197 255
159 197 255
159 197 255
159 197 255
159 198 255
159 198 255
159 198 255
159 198 255
159 198 255
159 198 255
159 198 255
160 198 255
160 198 255
160 198 255
160 198 255
160 198 255
160 198 255
160 198 255
160 198 255
160 198 255
160 198 255
160 198 255
161 199 255
161 199 255
161 199 255
161 199 255
161 199 255
161 199 255
161 199 255
161 199 255
161 199 255
161 199 255
162 199 255
162 199 255
162 199 255
162 199 255
162 199 255
162 199 255
162 200 255
162 200 255
162 200 255
163 200 255
163 200 255
163 200 255
163 200 255
163 200 255
163 200 255
163 200 255
163 200 255
163 200 255
163 200 255
163 200 255
164 200 255
164 200 255
164 200 255
164 201 255
164 201 255
164 201 255
164 201 255
164 201 255
164 201 255
165 201 255
165 201 255
165 201 255
165 201 255
165 201 255
165 201 255
165 201 255
165 201 255
165 201 255
165 201 255
165 201 255
166 202 255
166 202 255
166 202 255
166 202 255
166 202 255
166 202 255
166 202 255
166 202 255
166 202 255
166 202 255
167 202 255
167 202 255
167 202 255
167 202 255
167 202 255
167 202 255
167 202 255
167 202 255
167 203 255
167 203 255
167 203 255
167 203 255
168 203 255
168 203 255
168 203 255
168 203 255
168 203 255
168 203 255
168 203 255
168 203 255
168 203 255
168 203 255
168 203 255
169 203 255
169 203 255
169 203 255
169 203 255
169 204 255
169 204 255
169 204 255
169 204 255
169 204 255
169 204 255
169 204 255
169 204 255
169 204 255
170 204 255
170 204 255
170 204 255
170 204 255
170 204 255
170 204 255
170 204 255
170 204 255
170 204 255
170 204 255
170 204 255
170 204 255
170 204 255
171 205 255
171 205 255
171 205 255
171 205 255
171 205 255
171 205 255
171 205 255
171 205 255
171 205 255
171 205 255
171 205 255
171 205 255
172 205 255
172 205 255
171 205 255
171 205 255
171 205 255
171 205 255
171 205 255
171 205 255
171 205 255
171 205 255
171 205 255
171 205 255
171 205 255
171 205 255
171 205 255
171 205 255
170 204 255
170 204 255
170 204 255
170 204 255
170 204 255
170 204 255
170 204 255
170 204 255
170 204 255
170 204 255
170 204 255
170 204 255
170 204 255
169 204 255
169 204 255
169 204 255
169 204 255
169 204 255
169 204 255
169 204 255
169 204 255
169 203 255
169 203 255
169 203 255
169 203 255
168 203 255
168 203 255
168 203 255
168 203 255
168 203 255
168 203 255
168 203 255
168 203 255
168 203 255
168 203 255
168 203 255
167 203 255
167 203 255
167 203 255
167 203 255
167 202 255
167 202 255
167 202 255
167 202 255
167 202 255
167 202 255
167 202 255
167 202 255
166 202 255
166 202 255
166 202 255
166 202 255
166 202 255
166 202 255
166 202 255
166 202 255
166 202 255
166 202 255
165 201 255
165 201 255
165 201 255
165 201 255
165 201 255
165 201 255
165 201 255
165 201 255
165 201 255
165 201 255
165 201 255
164 201 255
164 201 255
164 201 255
164 201 255
164 201 255
164 201 255
164 200 255
164 200 255
164 200 255
164 200 255
163 200 255
163 200 255
163 200 255
163 200 255
163 200 255
163 200 255
163 200 255
163 200 255
163 200 255
163 200 255
162 200 255
162 200 255
162 200 255
162 199 255
162 199 255
162 199 255
162 199 255
162 199 255
162 199 255
162 199 255
161 199 255
161 199 255
161 199 255
161 199 255
161 199 255
161 199 255
161 199 255
161 199 255
161 199 255
160 198 255
160 198 255
160 198 255
160 198 255
160 198 255
160 198 255
160 198 255
160 198 255
160 198 255
160 198 255
160 198 255
159 198 255
159 198 255
159 198 255
159 198 255
159 198 255
159 198 255
159 198 255
159 197 255
159 197 255
159 197 255
159 197 255
158 197 255
158 197 255
158 197 255
158 197 255
158 197 255
158 197 255
158 197 255
158 197 255
158 197 255
158 197 255
158 197 255
158 197 255
158 197 255
157 197 255
157 197 255
157 197 255
157 197 255
157 197 255
157 196 255
157 196 255
157 196 255
157 196 255
157 196 255
157 196 255
157 196 255
157 196 255
157 196 255
157 196 255
157 196 255
157 196 255
157 196 255
156 196 255
156 196 255
156 196 255
156 196 255
156 196 255
156 196 255
156 196 255
156 196 255
156 196 255
156 196 255
156 196 255
156 196 255
156 196 255
156 196 255
156 196 255
156 196 255
156 196 255
156 196 255
156 196 255
156 196 255
156 196 255
156 196 255
156 196 255
156 196 255
156 196 255
156 196 255
156 196 255
156 196 255
156 196 255
156 196 255
156 196 255
156 196 255
156 196 255
156 196 255
156 196 255
156 196 255
156 196 255
156 196 255
156 196 255
156 196 255
156 196 255
156 196 255
156 196 255
156 196 255
156 196 255
156 196 255
157 196 255
157 196 255
157 196 255
157 196 255
157 196 255
157 196 255
157 196 255
157 196 255
157 196 255
157 196 255
157 196 255
157 196 255
157 197 255
157 197 255
157 197 255
157 197 255
157 197 255
158 197 255
158 197 255
158 197 255
158 197 255
158 197 255
158 197 255
158 197 255
158 197 255
158 197 255
158 197 255
158 197 255
158 197 255
158 197 255
158 197 255
159 197 255
159 197 255
159 197 255
159 197 255
159 198 255
159 198 255
159 198 255
159 198 255
159 198 255
159 198 255
159 198 255
160 198 255
160 198 255
160 198 255
160 198 255
160 198 255
160 198 255
160 198 255
160 198 255
160 198 255
160 198 255
161 199 255
161 199 255
161 199 255
161 199 255
161 199 255
161 199 255
161 199 255
161 199 255
161 199 255
161 199 255
162 199 255
162 199 255
162 199 255
162 199 255
162 199 255
162 199 255
162 199 255
162 200 255
162 200 255
162 200 255
163 200 255
163 200 255
163 200 255
163 200 255
163 200 255
163 200 255
163 200 255
163 200 255
163 200 255
163 200 255
164 200 255
164 200 255
164 200 255
164 200 255
164 201 255
164 201 255
164 201 255
164 201 255
164 201 255
164 201 255
165 201 255
165 201 255
165 201 255
165 201 255
165 201 255
165 201 255
165 201 255
165 201 255
165 201 255
165 201 255
165 201 255
166 202 255
166 202 255
166 202 255
166 202 255
166 202 255
166 202 255
166 202 255
166 202 255
166 202 255
166 202 255
167 202 255
167 202 255
167 202 255
167 202 255
167 202 255
167 202 255
167 202 255
167 202 255
167 203 255
167 203 255
167 203 255
168 203 255
168 203 255
168 203 255
168 203 255
168 203 255
168 203 255
168 203 255
168 203 255
168 203 255
168 203 255
168 203 255
168 203 255
169 203 255
169 203 255
169 203 255
169 203 255
169 204 255
169 204 255
169 204 255
169 204 255
169 204 255
169 204 255
169 204 255
169 204 255
170 204 255
170 204 255
170 204 255
170 204 255
170 204 255
170 204 255
170 204 255
170 204 255
170 204 255
170 204 255
170 204 255
170 204 255
170 204 255
171 205 255
171 205 255
171 205 255
171 205 255
171 205 255
171 205 255
171 205 255
171 205 255
171 205 255
171 205 255
171 205 255
171 205 255
171 205 255
171 205 255
172 205 255
172 205 255
172 205 255
172 205 255
172 205 255
172 205 255
172 205 255
171 205 255
171 205 255
171 205 255
171 205 255
171 205 255
171 205 255
171 205 255
171 205 255
171 205 255
171 205 255
171 205 255
171 205 255
171 205 255
171 205 255
170 204 255
170 204 255
170 204 255
170 204 255
170 204 255
170 204 255
170 204 255
170 204 255
170 204 255
170 204 255
170 204 255
170 204 255
170 204 255
169 204 255
169 204 255
169 204 255
169 204 255
169 204 255
169 204 255
169 204 255
169 204 255
169 203 255
169 203 255
169 203 255
169 203 255
168 203 255
168 203 255
168 203 255
168 203 255
168 203 255
168 203 255
168 203 255
168 203 255
168 203 255
168 203 255
168 203 255
168 203 255
167 203 255
167 203 255
167 203 255
167 203 255
167 202 255
167 202 255
167 202 255
167 202 255
167 202 255
167 202 255
167 202 255
166 202 255
166 202 255
166 202 255
166 202 255
166 202 255
166 202 255
166 202 255
166 202 255
166 202 255
166 202 255
165 201 255
165 201 255
165 201 255
165 201 255
165 201 255
165 201 255
165 201 255
165 201 255
165 201 255
165 201 255
165 201 255
164 201 255
164 201 255
164 201 255
164 201 255
164 201 255
164 201 255
164 200 255
164 200 255
164 200 255
164 200 255
163 200 255
163 200 255
163 200 255
163 200 255
163 200 255
163 200 255
163 200 255
163 200 255
163 200 255
162 200 255
162 200 255
162 200 255
162 200 255
162 199 255
162 199 255
162 199 255
162 199 255
162 199 255
162 199 255
162 199 255
161 199 255
161 199 255
161 199 255
161 199 255
161 199 255
161 199 255
161 199 255
161 199 255
161 199 255
161 199 255
160 198 255
160 198 255
160 198 255
160 198 255
160 198 255
160 198 255
160 198 255
160 198 255
160 198 255
160 198 255
160 198 255
159 198 255
159 198 255
159 198 255
159 198 255
159 198 255
159 198 255
159 198 255
159 197 255
159 197 255
159 197 255
159 197 255
158 197 255
158 197 255
158 197 255
158 197 255
158 197 255
158 197 255
158 197 255
158 197 255
158 197 255
158 197 255
158 197 255
158 197 255
158 197 255
158 197 255
157 197 255
157 197 255
157 197 255
157 197 255
157 197 255
157 197 255
157 196 255
157 196 255
157 196 255
157 196 255
157 196 255
157 196 255
157 196 255
157 196 255
157 196 255
157 196 255
157 196 255
157 196 255
157 196 255
157 196 255
157 196 255
157 196 255
157 196 255
156 196 255
156 196 255
156 196 255
156 196 255
156 196 255
156 196 255
156 196 255
156 196 255
156 196 255
156 196 255
156 196 255
156 196 255
156 196 255
156 196 255
156 196 255
156 196 255
156 196 255
156 196 255
156 196 255
156 196 255
156 196 255
156 196 255
156 196 255
156 196 255
156 196 255
156 196 255
156 196 255
157 196 255
157 196 255
157 196 255
157 196 255
157 196 255
157 196 255
157 196 255
157 196 255
157 196 255
157 196 255
157 196 255
157 196 255
157 196 255
157 196 255
157 196 255
157 196 255
157 197 255
157 197 255
157 197 255
157 197 255
157 197 255
157 197 255
158 197 255
158 197 255
158 197 255
158 197 255
158 197 255
158 197 255
158 197 255
158 197 255
158 197 255
158 197 255
158 197 255
158 197 255
158 197 255
158 197 255
159 197 255
159 197 255
159 197 255
159 198 255
159 198 255
159 198 255
159 198 255
159 198 255
159 198 255
159 198 255
159 198 255
160 198 255
160 198 255
160 198 255
160 198 255
160 198 255
160 198 255
160 198 255
160 198 255
160 198 255
160 198 255
160 198 255
161 199 255
161 199 255
161 199 255
161 199 255
161 199 255
161 199 255
161 199 255
161 199 255
161 199 255
161 199 255
162 199 255
162 199 255
162 199 255
162 199 255
162 199 255
162 199 255
162 199 255
162 200 255
162 200 255
162 200 255
163 200 255
163 200 255
163 200 255
163 200 255
163 200 255
163 200 255
163 200 255
163 200 255
163 200 255
163 200 255
164 200 255
164 200 255
164 200 255
164 200 255
164 201 255
164 201 255
164 201 255
164 201 255
164 201 255
164 201 255
165 201 255
165 201 255
165 201 255
165 201 255
165 201 255
165 201 255
165 201 255
165 201 255
165 201 255
165 201 255
165 201 255
166 202 255
166 202 255
166 202 255
166 202 255
166 202 255
166 202 255
166 202 255
166 202 255
166 202 255
166 202 255
167 202 255
167 202 255
167 202 255
167 202 255
167 202 255
167 202 255
167 202 255
167 202 255
167 203 255
167 203 255
167 203 255
168 203 255
168 203 255
168 203 255
168 203 255
168 203 255
168 203 255
168 203 255
168 203 255
168 203 255
168 203 255
168 203 255
168 203 255
169 203 255
169 203 255
169 203 255
169 203 255
169 204 255
169 204 255
169 204 255
169 204 255
169 204 255
169 204 255
169 204 255
169 204 255
170 204 255
170 204 255
170 204 255
170 204 255
170 204 255
170 204 255
170 204 255
170 204 255
170 204 255
170 204 255
170 204 255
170 204 255
170 204 255
171 205 255
171 205 255
171 205 255
171 205 255
171 205 255
171 205 255
171 205 255
171 205 255
171 205 255
171 205 255
171 205 255
171 205 255
171 205 255
171 205 255
172 205 255
172 205 255
172 205 255
172 205 255
172 205 255
172 205 255
172 205 255
172 205 255
172 205 255
172 205 255
172 205 255
172 205 255
172 205 255
172 205 255
171 205 255
171 205 255
171 205 255
171 205 255
171 205 255
171 205 255
171 205 255
171 205 255
171 205 255
171 205 255
171 205 255
171 205 255
171 205 255
171 205 255
170 204 255
170 204 255
170 204 255
170 204 255
170 204 255
170 204 255
170 204 255
170 204 255
170 204 255
170 204 255
170 204 255
170 204 255
169 204 255
169 204 255
169 204 255
169 204 255
169 204 255
169 204 255
169 204 255
169 204 255
169 203 255
169 203 255
169 203 255
169 203 255
168 203 255
168 203 255
168 203 255
168 203 255
168 203 255
168 203 255
168 203 255
168 203 255
168 203 255
168 203 255
168 203 255
168 203 255
167 203 255
167 203 255
167 203 255
167 203 255
167 202 255
167 202 255
167 202 255
167 202 255
167 202 255
167 202 255
167 202 255
166 202 255
166 202 255
166 202 255
166 202 255
166 202 255
166 202 255
166 202 255
166 202 255
166 202 255
166 202 255
165 201 255
165 201 255
165 201 255
165 201 255
165 201 255
165 201 255
165 201 255
165 201 255
165 201 255
165 201 255
165 201 255
164 201 255
164 201 255
164 201 255
164 201 255
164 201 255
164 201 255
164 200 255
164 200 255
164 200 255
164 200 255
163 200 255
163 200 255
163 200 255
163 200 255
163 200 255
163 200 255
163 200 255
163 200 255
163 200 255
163 200 255
162 200 255
162 200 255
162 200 255
162 199 255
162 199 255
162 199 255
162 199 255
162 199 255
162 199 255
162 199 255
161 199 255
161 199 255
161 199 255
161 199 255
161 199 255
161 199 255
161 199 255
161 199 255
161 199 255
161 199 255
160 198 255
160 198 255
160 198 255
160 198 255
160 198 255
160 198 255
160 198 255
160 198 255
160 198 255
160 198 255
160 198 255
159 198 255
159 198 255
159 198 255
159 198 255
159 198 255
159 198 255
159 198 255
159 198 255
159 197 255
159 197 255
159 197 255
159 197 255
159 197 255
158 197 255
158 197 255
158 197 255
158 197 255
158 197 255
158 197 255
158 197 255
158 197 255
158 197 255
158 197 255
158 197 255
158 197 255
158 197 255
158 197 255
158 197 255
157 197 255
157 197 255
157 197 255
157 197 255
157 197 255
157 197 255
157 197 255
157 196 255
157 196 255
157 196 255
157 196 255
157 196 255
157 196 255
157 196 255
157 196 255
157 196 255
157 196 255
157 196 255
157 196 255
157 196 255
157 196 255
157 196 255
157 196 255
157 196 255
157 196 255
157 196 255
157 196 255
157 196 255
157 196 255
157 196 255
157 196 255
157 196 255
157 196 255
157 196 255
157 196 255
157 196 255
157 196 255
157 196 255
157 196 255
157 196 255
157 196 255
157 196 255
157 196 255
157 196 255
157 196 255
157 196 255
157 196 255
157 196 255
157 196 255
157 196 255
157 196 255
157 196 255
157 196 255
157 197 255
157 197 255
157 197 255
157 197 255
157 197 255
157 197 255
157 197 255
158 197 255
158 197 255
158 197 255
158 197 255
158 197 255
158 197 255
158 197 255
158 197 255
158 197 255
158 197 255
158 197 255
158 197 255
158 197 255
158 197 255
158 197 255
159 197 255
159 197 255
159 197 255
159 197 255
159 197 255
159 198 255
159 198 255
159 198 255
159 198 255
159 198 255
159 198 255
159 198 255
159 198 255
160 198 255
160 198 255
160 198 255
160 198 255
160 198 255
160 198 255
160 198 255
160 198 255
160 198 255
160 198 255
160 198 255
161 199 255
161 199 255
161 199 255
161 199 255
161 199 255
161 199 255
161 199 255
161 199 255
161 199 255
161 199 255
162 199 255
162 199 255
162 199 255
162 199 255
162 199 255
162 199 255
162 199 255
162 200 255
162 200 255
162 200 255
163 200 255
163 200 255
163 200 255
163 200 255
163 200 255
163 200 255
163 200 255
163 200 255
163 200 255
163 200 255
164 200 255
164 200 255
164 200 255
164 200 255
164 201 255
164 201 255
164 201 255
164 201 255
164 201 255
164 201 255
165 201 255
165 201 255
165 201 255
165 201 255
165 201 255
165 201 255
165 201 255
165 201 255
165 201 255
165 201 255
165 201 255
166 202 255
166 202 255
166 202 255
166 202 255
166 202 255
166 202 255
166 202 255
166 202 255
166 202 255
166 202 255
167 202 255
167 202 255
167 202 255
167 202 255
167 202 255
167 202 255
167 202 255
167 203 255
167 203 255
167 203 255
167 203 255
168 203 255
168 203 255
168 203 255
168 203 255
168 203 255
168 203 255
168 203 255
168 203 255
168 203 255
168 203 255
168 203 255
168 203 255
169 203 255
169 203 255
169 203 255
169 204 255
169 204 255
169 204 255
169 204 255
169 204 255
169 204 255
169 204 255
169 204 255
169 204 255
170 204 255
170 204 255
170 204 255
170 204 255
170 204 255
170 204 255
170 204 255
170 204 255
170 204 255
170 204 255
170 204 255
170 204 255
170 204 255
171 205 255
171 205 255
171 205 255
171 205 255
171 205 255
171 205 255
171 205 255
171 205 255
171 205 255
171 205 255
171 205 255
171 205 255
171 205 255
172 205 255
172 205 255
172 205 255
172 205 255
172 205 255
172 205 255
172 205 255
172 205 255
172 205 255
172 206 255
172 206 255
172 206 255
172 205 255
172 205 255
172 205 255
172 205 255
172 205 255
172 205 255
172 205 255
172 205 255
172 205 255
171 205 255
171 205 255
171 205 255
171 205 255
171 205 255
171 205 255
171 205 255
171 205 255
171 205 255
171 205 255
171 205 255
171 205 255
171 205 255
171 205 255
170 204 255
170 204 255
170 204 255
170 204 255
170 204 255
170 204 255
170 204 255
170 204 255
170 204 255
170 204 255
170 204 255
170 204 255
170 204 255
169 204 255
169 204 255
169 204 255
169 204 255
169 204 255
169 204 255
169 204 255
169 204 255
169 203 255
169 203 255
169 203 255
169 203 255
168 203 255
168 203 255
168 203 255
168 203 255
168 203 255
168 203 255
168 203 255
168 203 255
168 203 255
168 203 255
168 203 255
167 203 255
167 203 255
167 203 255
167 203 255
167 202 255
167 202 255
167 202 255
167 202 255
167 202 255
167 202 255
167 202 255
166 202 255
166 202 255
166 202 255
166 202 255
166 202 255
166 202 255
166 202 255
166 202 255
166 202 255
166 202 255
166 202 255
165 201 255
165 201 255
165 201 255
165 201 255
165 201 255
165 201 255
165 201 255
165 201 255
165 201 255
165 201 255
164 201 255
164 201 255
164 201 255
164 201 255
164 201 255
164 201 255
164 200 255
164 200 255
164 200 255
164 200 255
163 200 255
163 200 255
163 200 255
163 200 255
163 200 255
163 200 255
163 200 255
163 200 255
163 200 255
163 200 255
162 200 255
162 200 255
162 200 255
162 199 255
162 199 255
162 199 255
162 199 255
162 199 255
162 199 255
162 199 255
161 199 255
161 199 255
161 199 255
161 199 255
161 199 255
161 199 255
161 199 255
161 199 255
161 199 255
161 199 255
161 199 255
160 198 255
160 198 255
160 198 255
160 198 255
160 198 255
160 198 255
160 198 255
160 198 255
160 198 255
160 198 255
160 198 255
159 198 255
159 198 255
159 198 255
159 198 255
159 198 255
159 198 255
159 198 255
159 198 255
159 198 255
159 197 255
159 197 255
159 197 255
159 197 255
158 197 255
158 197 255
158 197 255
158 197 255
158 197 255
158 197 255
158 197 255
158 197 255
158 197 255
158 197 255
158 197 255
158 197 255
158 197 255
158 197 255
158 197 255
158 197 255
158 197 255
158 197 255
158 197 255
157 197 255
157 197 255
157 197 255
157 197 255
157 197 255
157 197 255
157 197 255
157 197 255
157 196 255
157 196 255
157 196 255
157 196 255
157 196 255
157 196 255
157 196 255
157 196 255
157 196 255
157 196 255
157 196 255
157 196 255
157 196 255
157 196 255
157 196 255
157 196 255
157 196 255
157 196 255
157 196 255
157 196 255
157 196 255
157 196 255
157 196 255
157 196 255
157 196 255
157 196 255
157 196 255
157 196 255
157 197 255
157 197 255
157 197 255
157 197 255
157 197 255
157 197 255
157 197 255
157 197 255
157 197 255
158 197 255
158 197 255
158 197 255
158 197 255
158 197 255
158 197 255
158 197 255
158 197 255
158 197 255
158 197 255
158 197 255
158 197 255
158 197 255
158 197 255
158 197 255
158 197 255
158 197 255
158 197 255
159 197 255
159 197 255
159 197 255
159 197 255
159 198 255
159 198 255
159 198 255
159 198 255
159 198 255
159 198 255
159 198 255
159 198 255
159 198 255
160 198 255
160 198 255
160 198 255
160 198 255
160 198 255
160 198 255
160 198 255
160 198 255
160 198 255
160 198 255
160 198 255
161 199 255
161 199 255
161 199 255
161 199 255
161 199 255
161 199 255
161 199 255
161 199 255
161 199 255
161 199 255
161 199 255
162 199 255
162 199 255
162 199 255
162 199 255
162 199 255
162 199 255
162 199 255
162 200 255
162 200 255
162 200 255
163 200 255
163 200 255
163 200 255
163 200 255
163 200 255
163 200 255
163 200 255
163 200 255
163 200 255
163 200 255
164 200 255
164 200 255
164 200 255
164 200 255
164 201 255
164 201 255
164 201 255
164 201 255
164 201 255
164 201 255
165 201 255
165 201 255
165 201 255
165 201 255
165 201 255
165 201 255
165 201 255
165 201 255
165 201 255
165 201 255
165 201 255
166 202 255
166 202 255
166 202 255
166 202 255
166 202 255
166 202 255
166 202 255
166 202 255
166 202 255
166 202 255
167 202 255
167 202 255
167 202 255
167 202 255
167 202 255
167 202 255
167 202 255
167 203 255
167 203 255
167 203 255
167 203 255
168 203 255
168 203 255
168 203 255
168 203 255
168 203 255
168 203 255
168 203 255
168 203 255
168 203 255
168 203 255
168 203 255
169 203 255
169 203 255
169 203 255
169 203 255
169 204 255
169 204 255
169 204 255
169 204 255
169 204 255
169 204 255
169 204 255
169 204 255
170 204 255
170 204 255
170 204 255
170 204 255
170 204 255
170 204 255
170 204 255
170 204 255
170 204 255
170 204 255
170 204 255
170 204 255
170 204 255
171 205 255
171 205 255
171 205 255
171 205 255
171 205 255
171 205 255
171 205 255
171 205 255
171 205 255
171 205 255
171 205 255
171 205 255
171 205 255
171 205 255
172 205 255
172 205 255
172 205 255
172 205 255
172 205 255
172 205 255
172 205 255
172 205 255
172 205 255
172 206 255
172 206 255
172 206 255
173 206 255
172 206 255
172 206 255
172 206 255
172 206 255
172 206 255
172 205 255
172 205 255
172 205 255
172 205 255
172 205 255
172 205 255
172 205 255
172 205 255
172 205 255
172 205 255
171 205 255
171 205 255
171 205 255
171 205 255
171 205 255
171 205 255
171 205 255
171 205 255
171 205 255
171 205 255
171 205 255
171 205 255
171 205 255
170 204 255
170 204 255
170 204 255
170 204 255
170 204 255
170 204 255
170 204 255
170 204 255
170 204 255
170 204 255
170 204 255
170 204 255
170 204 255
169 204 255
169 204 255
169 204 255
169 204 255
169 204 255
169 204 255
169 204 255
169 204 255
169 203 255
169 203 255
169 203 255
169 203 255
168 203 255
168 203 255
168 203 255
168 203 255
168 203 255
168 203 255
168 203 255
168 203 255
168 203 255
168 203 255
168 203 255
167 203 255
167 203 255
167 203 255
167 203 255
167 202 255
167 202 255
167 202 255
167 202 255
167 202 255
167 202 255
167 202 255
166 202 255
166 202 255
166 202 255
166 202 255
166 202 255
166 202 255
166 202 255
166 202 255
166 202 255
166 202 255
166 202 255
165 201 255
165 201 255
165 201 255
165 201 255
165 201 255
165 201 255
165 201 255
165 201 255
165 201 255
165 201 255
164 201 255
164 201 255
164 201 255
164 201 255
164 201 255
164 201 255
164 201 255
164 200 255
164 200 255
164 200 255
163 200 255
163 200 255
163 200 255
163 200 255
163 200 255
163 200 255
163 200 255
163 200 255
163 200 255
163 200 255
162 200 255
162 200 255
162 200 255
162 199 255
162 199 255
162 199 255
162 199 255
162 199 255
162 199 255
162 199 255
162 199 255
161 199 255
161 199 255
161 199 255
161 199 255
161 199 255
161 199 255
161 199 255
161 199 255
161 199 255
161 199 255
161 199 255
160 198 255
160 198 255
160 198 255
160 198 255
160 198 255
160 198 255
160 198 255
160 198 255
160 198 255
160 198 255
160 198 255
159 198 255
159 198 255
159 198 255
159 198 255
159 198 255
159 198 255
159 198 255
159 198 255
159 198 255
159 197 255
159 197 255
159 197 255
159 197 255
159 197 255
159 197 255
158 197 255
158 197 255
158 197 255
158 197 255
158 197 255
158 197 255
158 197 255
158 197 255
158 197 255
158 197 255
158 197 255
158 197 255
158 197 255
158 197 255
158 197 255
158 197 255
158 197 255
158 197 255
158 197 255
158 197 255
158 197 255
158 197 255
157 197 255
157 197 255
157 197 255
157 197 255
157 197 255
157 197 255
157 197 255
157 197 255
157 197 255
157 197 255
157 197 255
157 197 255
157 197 255
157 197 255
157 197 255
157 197 255
157 197 255
157 197 255
157 197 255
157 197 255
157 197 255
157 197 255
157 197 255
157 197 255
157 197 255
157 197 255
158 197 255
158 197 255
158 197 255
158 197 255
158 197 255
158 197 255
158 197 255
158 197 255
158 197 255
158 197 255
158 197 255
158 197 255
158 197 255
158 197 255
158 197 255
158 197 255
158 197 255
158 197 255
158 197 255
158 197 255
158 197 255
158 197 255
158 197 255
159 197 255
159 197 255
159 197 255
159 197 255
159 197 255
159 198 255
159 198 255
159 198 255
159 198 255
159 198 255
159 198 255
159 198 255
159 198 255
159 198 255
160 198 255
160 198 255
160 198 255
160 198 255
160 198 255
160 198 255
160 198 255
160 198 255
160 198 255
160 198 255
160 198 255
161 199 255
161 199 255
161 199 255
161 199 255
161 199 255
161 199 255
161 199 255
161 199 255
161 199 255
161 199 255
161 199 255
162 199 255
162 199 255
162 199 255
162 199 255
162 199 255
162 199 255
162 199 255
162 200 255
162 200 255
162 200 255
162 200 255
163 200 255
163 200 255
163 200 255
163 200 255
163 200 255
163 200 255
163 200 255
163 200 255
163 200 255
163 200 255
164 200 255
164 200 255
164 200 255
164 201 255
164 201 255
164 201 255
164 201 255
164 201 255
164 201 255
164 201 255
165 201 255
165 201 255
165 201 255
165 201 255
165 201 255
165 201 255
165 201 255
165 201 255
165 201 255
165 201 255
166 202 255
166 202 255
166 202 255
166 202 255
166 202 255
166 202 255
166 202 255
166 202 255
166 202 255
166 202 255
166 202 255
167 202 255
167 202 255
167 202 255
167 202 255
167 202 255
167 202 255
167 202 255
167 203 255
167 203 255
167 203 255
167 203 255
168 203 255
168 203 255
168 203 255
168 203 255
168 203 255
168 203 255
168 203 255
168 203 255
168 203 255
168 203 255
168 203 255
169 203 255
169 203 255
169 203 255
169 203 255
169 204 255
169 204 255
169 204 255
169 204 255
169 204 255
169 204 255
169 204 255
169 204 255
170 204 255
170 204 255
170 204 255
170 204 255
170 204 255
170 204 255
170 204 255
170 204 255
170 204 255
170 204 255
170 204 255
170 204 255
170 204 255
171 205 255
171 205 255
171 205 255
171 205 255
171 205 255
171 205 255
171 205 255
171 205 255
171 205 255
171 205 255
171 205 255
171 205 255
171 205 255
172 205 255
172 205 255
172 205 255
172 205 255
172 205 255
172 205 255
172 205 255
172 205 255
172 205 255
172 205 255
172 206 255
172 206 255
172 206 255
172 206 255
172 206 255
173 206 255
173 206 255
173 206 255
173 206 255
173 206 255
173 206 255
172 206 255
172 206 255
172 206 255
172 206 255
172 206 255
172 205 255
172 205 255
172 205 255
172 205 255
172 205 255
172 205 255
172 205 255
172 205 255
172 205 255
171 205 255
171 205 255
171 205 255
171 205 255
171 205 255
171 205 255
171 205 255
171 205 255
171 205 255
171 205 255
171 205 255
171 205 255
171 205 255
171 205 255
170 204 255
170 204 255
170 204 255
170 204 255
170 204 255
170 204 255
170 204 255
170 204 255
170 204 255
170 204 255
170 204 255
170 204 255
169 204 255
169 204 255
169 204 255
169 204 255
169 204 255
169 204 255
169 204 255
169 204 255
169 203 255
169 203 255
169 203 255
169 203 255
168 203 255
168 203 255
168 203 255
168 203 255
168 203 255
168 203 255
168 203 255
168 203 255
168 203 255
168 203 255
168 203 255
167 203 255
167 203 255
167 203 255
167 203 255
167 202 255
167 202 255
167 202 255
167 202 255
167 202 255
167 202 255
167 202 255
166 202 255
166 202 255
166 202 255
166 202 255
166 202 255
166 202 255
166 202 255
166 202 255
166 202 255
166 202 255
166 202 255
165 201 255
165 201 255
165 201 255
165 201 255
165 201 255
165 201 255
165 201 255
165 201 255
165 201 255
165 201 255
164 201 255
164 201 255
164 201 255
164 201 255
164 201 255
164 201 255
164 201 255
164 200 255
164 200 255
164 200 255
163 200 255
163 200 255
163 200 255
163 200 255
163 200 255
163 200 255
163 200 255
163 200 255
163 200 255
163 200 255
162 200 255
162 200 255
162 200 255
162 200 255
162 199 255
162 199 255
162 199 255
162 199 255
162 199 255
162 199 255
162 199 255
161 199 255
161 199 255
161 199 255
161 199 255
161 199 255
161 199 255
161 199 255
161 199 255
161 199 255
161 199 255
161 199 255
160 198 255
160 198 255
160 198 255
160 198 255
160 198 255
160 198 255
160 198 255
160 198 255
160 198 255
160 198 255
160 198 255
160 198 255
160 198 255
159 198 255
159 198 255
159 198 255
159 198 255
159 198 255
159 198 255
159 198 255
159 198 255
159 198 255
159 197 255
159 197 255
159 197 255
159 197 255
159 197 255
159 197 255
159 197 255
158 197 255
158 197 255
158 197 255
158 197 255
158 197 255
158 197 255
158 197 255
158 197 255
158 197 255
158 197 255
158 197 255
158 197 255
158 197 255
158 197 255
158 197 255
158 197 255
158 197 255
158 197 255
158 197 255
158 197 255
158 197 255
158 197 255
158 197 255
158 197 255
158 197 255
158 197 255
158 197 255
158 197 255
158 197 255
158 197 255
158 197 255
158 197 255
158 197 255
158 197 255
158 197 255
158 197 255
158 197 255
158 197 255
158 197 255
158 197 255
158 197 255
158 197 255
158 197 255
158 197 255
158 197 255
158 197 255
158 197 255
158 197 255
158 197 255
158 197 255
158 197 255
158 197 255
158 197 255
158 197 255
158 197 255
158 197 255
158 197 255
158 197 255
158 197 255
159 197 255
159 197 255
159 197 255
159 197 255
159 197 255
159 198 255
159 198 255
159 198 255
159 198 255
159 198 255
159 198 255
159 198 255
159 198 255
159 198 255
159 198 255
160 198 255
160 198 255
160 198 255
160 198 255
160 198 255
160 198 255
160 198 255
160 198 255
160 198 255
160 198 255
160 198 255
160 198 255
161 199 255
161 199 255
161 199 255
161 199 255
161 199 255
161 199 255
161 199 255
161 199 255
161 199 255
161 199 255
161 199 255
161 199 255
162 199 255
162 199 255
162 199 255
162 199 255
162 199 255
162 199 255
162 199 255
162 200 255
162 200 255
162 200 255
162 200 255
163 200 255
163 200 255
163 200 255
163 200 255
163 200 255
163 200 255
163 200 255
163 200 255
163 200 255
163 200 255
164 200 255
164 200 255
164 200 255
164 201 255
164 201 255
164 201 255
164 201 255
164 201 255
164 201 255
164 201 255
165 201 255
165 201 255
165 201 255
165 201 255
165 201 255
165 201 255
165 201 255
165 201 255
165 201 255
165 201 255
166 202 255
166 202 255
166 202 255
166 202 255
166 202 255
166 202 255
166 202 255
166 202 255
166 202 255
166 202 255
166 202 255
167 202 255
167 202 255
167 202 255
167 202 255
167 202 255
167 202 255
167 202 255
167 203 255
167 203 255
167 203 255
168 203 255
168 203 255
168 203 255
168 203 255
168 203 255
168 203 255
168 203 255
168 203 255
168 203 255
168 203 255
168 203 255
168 203 255
169 203 255
169 203 255
169 203 255
169 204 255
169 204 255
169 204 255
169 204 255
169 204 255
169 204 255
169 204 255
169 204 255
169 204 255
170 204 255
170 204 255
170 204 255
170 204 255
170 204 255
170 204 255
170 204 255
170 204 255
170 204 255
170 204 255
170 204 255
170 204 255
171 205 255
171 205 255
171 205 255
171 205 255
171 205 255
171 205 255
171 205 255
171 205 255
171 205 255
171 205 255
171 205 255
171 205 255
171 205 255
171 205 255
172 205 255
172 205 255
172 205 255
172 205 255
172 205 255
172 205 255
172 205 255
172 205 255
172 205 255
172 206 255
172 206 255
172 206 255
172 206 255
172 206 255
173 206 255
173 206 255
173 206 255
173 206 255
173 206 255
173 206 255
173 206 255
173 206 255
173 206 255
173 206 255
173 206 255
173 206 255
173 206 255
173 206 255
172 206 255
172 206 255
172 206 255
172 206 255
172 206 255
172 205 255
172 205 255
172 205 255
172 205 255
172 205 255
172 205 255
172 205 255
172 205 255
172 205 255
171 205 255
171 205 255
171 205 255
171 205 255
171 205 255
171 205 255
171 205 255
171 205 255
171 205 255
171 205 255
171 205 255
171 205 255
171 205 255
170 204 255
170 204 255
170 204 255
170 204 255
170 204 255
170 204 255
170 204 255
170 204 255
170 204 255
170 204 255
170 204 255
170 204 255
170 204 255
169 204 255
169 204 255
169 204 255
169 204 255
169 204 255
169 204 255
169 204 255
169 204 255
169 203 255
169 203 255
169 203 255
169 203 255
168 203 255
168 203 255
168 203 255
168 203 255
168 203 255
168 203 255
168 203 255
168 203 255
168 203 255
168 203 255
168 203 255
167 203 255
167 203 255
167 203 255
167 202 255
167 202 255
167 202 255
167 202 255
167 202 255
167 202 255
167 202 255
167 202 255
166 202 255
166 202 255
166 202 255
166 202 255
166 202 255
166 202 255
166 202 255
166 202 255
166 202 255
166 202 255
165 201 255
165 201 255
165 201 255
165 201 255
165 201 255
165 201 255
165 201 255
165 201 255
165 201 255
165 201 255
164 201 255
164 201 255
164 201 255
164 201 255
164 201 255
164 201 255
164 201 255
164 200 255
164 200 255
164 200 255
164 200 255
163 200 255
163 200 255
163 200 255
163 200 255
163 200 255
163 200 255
163 200 255
163 200 255
163 200 255
163 200 255
162 200 255
162 200 255
162 200 255
162 199 255
162 199 255
162 199 255
162 199 255
162 199 255
162 199 255
162 199 255
162 199 255
161 199 255
161 199 255
161 199 255
161 199 255
161 199 255
161 199 255
161 199 255
161 199 255
161 199 255
161 199 255
161 199 255
160 198 255
160 198 255
160 198 255
160 198 255
160 198 255
160 198 255
160 198 255
160 198 255
160 198 255
160 198 255
160 198 255
160 198 255
160 198 255
160 198 255
159 198 255
159 198 255
159 198 255
159 198 255
159 198 255
159 198 255
159 198 255
159 198 255
159 198 255
159 198 255
159 198 255
159 197 255
159 197 255
159 197 255
159 197 255
159 197 255
159 197 255
159 197 255
158 197 255
158 197 255
158 197 255
158 197 255
158 197 255
158 197 255
158 197 255
158 197 255
158 197 255
158 197 255
158 197 255
158 197 255
158 197 255
158 197 255
158 197 255
158 197 255
158 197 255
158 197 255
158 197 255
158 197 255
158 197 255
158 197 255
158 197 255
158 197 255
158 197 255
158 197 255
158 197 255
158 197 255
158 197 255
158 197 255
158 197 255
158 197 255
158 197 255
158 197 255
158 197 255
158 197 255
158 197 255
158 197 255
158 197 255
158 197 255
158 197 255
158 197 255
158 197 255
158 197 255
159 197 255
159 197 255
159 197 255
159 197 255
159 197 255
159 197 255
159 197 255
159 198 255
159 198 255
159 198 255
159 198 255
159 198 255
159 198 255
159 198 255
159 198 255
159 198 255
159 198 255
159 198 255
160 198 255
160 198 255
160 198 255
160 198 255
160 198 255
160 198 255
160 198 255
160 198 255
160 198 255
160 198 255
160 198 255
160 198 255
160 198 255
160 198 255
161 199 255
161 199 255
161 199 255
161 199 255
161 199 255
161 199 255
161 199 255
161 199 255
161 199 255
161 199 255
161 199 255
162 199 255
162 199 255
162 199 255
162 199 255
162 199 255
162 199 255
162 199 255
162 200 255
162 200 255
162 200 255
162 200 255
163 200 255
163 200 255
163 200 255
163 200 255
163 200 255
163 200 255
163 200 255
163 200 255
163 200 255
163 200 255
164 200 255
164 200 255
164 200 255
164 200 255
164 201 255
164 201 255
164 201 255
164 201 255
164 201 255
164 201 255
164 201 255
165 201 255
165 201 255
165 201 255
165 201 255
165 201 255
165 201 255
165 201 255
165 201 255
165 201 255
165 201 255
166 202 255
166 202 255
166 202 255
166 202 255
166 202 255
166 202 255
166 202 255
166 202 255
166 202 255
166 202 255
167 202 255
167 202 255
167 202 255
167 202 255
167 202 255
167 202 255
167 202 255
167 202 255
167 203 255
167 203 255
167 203 255
168 203 255
168 203 255
168 203 255
168 203 255
168 203 255
168 203 255
168 203 255
168 203 255
168 203 255
168 203 255
168 203 255
168 203 255
169 203 255
169 203 255
169 203 255
169 204 255
169 204 255
169 204 255
169 204 255
169 204 255
169 204 255
169 204 255
169 204 255
170 204 255
170 204 255
170 204 255
170 204 255
170 204 255
170 204 255
170 204 255
170 204 255
170 204 255
170 204 255
170 204 255
170 204 255
170 204 255
171 205 255
171 205 255
171 205 255
171 205 255
171 205 255
171 205 255
171 205 255
171 205 255
171 205 255
171 205 255
171 205 255
171 205 255
171 205 255
172 205 255
172 205 255
172 205 255
172 205 255
172 205 255
172 205 255
172 205 255
172 205 255
172 205 255
172 205 255
172 206 255
172 206 255
172 206 255
172 206 255
173 206 255
173 206 255
173 206 255
173 206 255
173 206 255
173 206 255
173 206 255
173 206 255
173 206 255
173 206 255
173 206 255
173 206 255
173 206 255
173 206 255
173 206 255
173 206 255
173 206 255
173 206 255
173 206 255
173 206 255
173 206 255
172 206 255
172 206 255
172 206 255
172 206 255
172 206 255
172 205 255
172 205 255
172 205 255
172 205 255
172 205 255
172 205 255
172 205 255
172 205 255
172 205 255
172 205 255
171 205 255
171 205 255
171 205 255
171 205 255
171 205 255
171 205 255
171 205 255
171 205 255
171 205 255
171 205 255
171 205 255
171 205 255
171 205 255
170 204 255
170 204 255
170 204 255
170 204 255
170 204 255
170 204 255
170 204 255
170 204 255
170 204 255
170 204 255
170 204 255
170 204 255
169 204 255
169 204 255
169 204 255
169 204 255
169 204 255
169 204 255
169 204 255
169 204 255
169 203 255
169 203 255
169 203 255
169 203 255
168 203 255
168 203 255
168 203 255
168 203 255
168 203 255
168 203 255
168 203 255
168 203 255
168 203 255
168 203 255
168 203 255
167 203 255
167 203 255
167 203 255
167 203 255
167 202 255
167 202 255
167 202 255
167 202 255
167 202 255
167 202 255
167 202 255
166 202 255
166 202 255
166 202 255
166 202 255
166 202 255
166 202 255
166 202 255
166 202 255
166 202 255
166 202 255
165 201 255
165 201 255
165 201 255
165 201 255
165 201 255
165 201 255
165 201 255
165 201 255
165 201 255
165 201 255
165 201 255
164 201 255
164 201 255
164 201 255
164 201 255
164 201 255
164 201 255
164 201 255
164 200 255
164 200 255
164 200 255
163 200 255
163 200 255
163 200 255
163 200 255
163 200 255
163 200 255
163 200 255
163 200 255
163 200 255
163 200 255
163 200 255
162 200 255
162 200 255
162 200 255
162 199 255
162 199 255
162 199 255
162 199 255
162 199 255
162 199 255
162 199 255
162 199 255
161 199 255
161 199 255
161 199 255
161 199 255
161 199 255
161 199 255
161 199 255
161 199 255
161 199 255
161 199 255
161 199 255
161 199 255
160 198 255
160 198 255
160 198 255
160 198 255
160 198 255
160 198 255
160 198 255
160 198 255
160 198 255
160 198 255
160 198 255
160 198 255
160 198 255
160 198 255
159 198 255
159 198 255
159 198 255
159 198 255
159 198 255
159 198 255
159 198 255
159 198 255
159 198 255
159 198 255
159 198 255
159 198 255
159 198 255
159 197 255
159 197 255
159 197 255
159 197 255
159 197 255
159 197 255
159 197 255
159 197 255
159 197 255
159 197 255
159 197 255
159 197 255
158 197 255
158 197 255
158 197 255
158 197 255
158 197 255
158 197 255
158 197 255
158 197 255
158 197 255
158 197 255
158 197 255
158 197 255
158 197 255
158 197 255
158 197 255
158 197 255
158 197 255
158 197 255
158 197 255
158 197 255
158 197 255
159 197 255
159 197 255
159 197 255
159 197 255
159 197 255
159 197 255
159 197 255
159 197 255
159 197 255
159 197 255
159 197 255
159 198 255
159 198 255
159 198 255
159 198 255
159 198 255
159 198 255
159 198 255
159 198 255
159 198 255
159 198 255
159 198 255
159 198 255
159 198 255
160 198 255
160 198 255
160 198 255
160 198 255
160 198 255
160 198 255
160 198 255
160 198 255
160 198 255
160 198 255
160 198 255
160 198 255
160 198 255
160 198 255
161 199 255
161 199 255
161 199 255
161 199 255
161 199 255
161 199 255
161 199 255
161 199 255
161 199 255
161 199 255
161 199 255
161 199 255
162 199 255
162 199 255
162 199 255
162 199 255
162 199 255
162 199 255
162 199 255
162 199 255
162 200 255
162 200 255
162 200 255
163 200 255
163 200 255
163 200 255
163 200 255
163 200 255
163 200 255
163 200 255
163 200 255
163 200 255
163 200 255
163 200 255
164 200 255
164 200 255
164 200 255
164 201 255
164 201 255
164 201 255
164 201 255
164 201 255
164 201 255
164 201 255
165 201 255
165 201 255
165 201 255
165 201 255
165 201 255
165 201 255
165 201 255
165 201 255
165 201 255
165 201 255
165 201 255
166 202 255
166 202 255
166 202 255
166 202 255
166 202 255
166 202 255
166 202 255
166 202 255
166 202 255
166 202 255
167 202 255
167 202 255
167 202 255
167 202 255
167 202 255
167 202 255
167 202 255
167 203 255
167 203 255
167 203 255
167 203 255
168 203 255
168 203 255
168 203 255
168 203 255
168 203 255
168 203 255
168 203 255
168 203 255
168 203 255
168 203 255
168 203 255
169 203 255
169 203 255
169 203 255
169 203 255
169 204 255
169 204 255
169 204 255
169 204 255
169 204 255
169 204 255
169 204 255
169 204 255
170 204 255
170 204 255
170 204 255
170 204 255
170 204 255
170 204 255
170 204 255
170 204 255
170 204 255
170 204 255
170 204 255
170 204 255
171 205 255
171 205 255
171 205 255
171 205 255
171 205 255
171 205 255
171 205 255
171 205 255
171 205 255
171 205 255
171 205 255
171 205 255
171 205 255
172 205 255
172 205 255
172 205 255
172 205 255
172 205 255
172 205 255
172 205 255
172 205 255
172 205 255
172 205 255
172 206 255
172 206 255
172 206 255
172 206 255
172 206 255
173 206 255
173 206 255
173 206 255
173 206 255
173 206 255
173 206 255
173 206 255
173 206 255
173 206 255
173 206 255
173 206 255
173 206 255
174 206 255
173 206 255
173 206 255
173 206 255
173 206 255
173 206 255
173 206 255
173 206 255
173 206 255
173 206 255
173 206 255
173 206 255
173 206 255
173 206 255
173 206 255
173 206 255
172 206 255
172 206 255
172 206 255
172 206 255
172 206 255
172 205 255
172 205 255
172 205 255
172 205 255
172 205 255
172 205 255
172 205 255
172 205 255
172 205 255
171 205 255
171 205 255
171 205 255
171 205 255
171 205 255
171 205 255
171 205 255
171 205 255
171 205 255
171 205 255
171 205 255
171 205 255
171 205 255
170 204 255
170 204 255
170 204 255
170 204 255
170 204 255
170 204 255
170 204 255
170 204 255
170 204 255
170 204 255
170 204 255
170 204 255
169 204 255
169 204 255
169 204 255
169 204 255
169 204 255
169 204 255
169 204 255
169 204 255
169 203 255
169 203 255
169 203 255
169 203 255
168 203 255
168 203 255
168 203 255
168 203 255
168 203 255
168 203 255
168 203 255
168 203 255
168 203 255
168 203 255
168 203 255
167 203 255
167 203 255
167 203 255
167 203 255
167 202 255
167 202 255
167 202 255
167 202 255
167 202 255
167 202 255
167 202 255
166 202 255
166 202 255
166 202 255
166 202 255
166 202 255
166 202 255
166 202 255
166 202 255
166 202 255
166 202 255
166 202 255
165 201 255
165 201 255
165 201 255
165 201 255
165 201 255
165 201 255
165 201 255
165 201 255
165 201 255
165 201 255
164 201 255
164 201 255
164 201 255
164 201 255
164 201 255
164 201 255
164 201 255
164 200 255
164 200 255
164 200 255
164 200 255
163 200 255
163 200 255
163 200 255
163 200 255
163 200 255
163 200 255
163 200 255
163 200 255
163 200 255
163 200 255
162 200 255
162 200 255
162 200 255
162 200 255
162 199 255
162 199 255
162 199 255
162 199 255
162 199 255
162 199 255
162 199 255
162 199 255
161 199 255
161 199 255
161 199 255
161 199 255
161 199 255
161 199 255
161 199 255
161 199 255
161 199 255
161 199 255
161 199 255
161 199 255
161 199 255
160 198 255
160 198 255
160 198 255
160 198 255
160 198 255
160 198 255
160 198 255
160 198 255
160 198 255
160 198 255
160 198 255
160 198 255
160 198 255
160 198 255
160 198 255
160 198 255
159 198 255
159 198 255
159 198 255
159 198 255
159 198 255
159 198 255
159 198 255
159 198 255
159 198 255
159 198 255
159 198 255
159 198 255
159 198 255
159 198 255
159 198 255
159 198 255
159 198 255
159 198 255
159 198 255
159 197 255
159 197 255
159 197 255
159 197 255
159 197 255
159 197 255
159 197 255
159 197 255
159 197 255
159 197 255
159 197 255
159 197 255
159 197 255
159 197 255
159 197 255
159 197 255
159 197 255
159 197 255
159 198 255
159 198 255
159 198 255
159 198 255
159 198 255
159 198 255
159 198 255
159 198 255
159 198 255
159 198 255
159 198 255
159 198 255
159 198 255
159 198 255
159 198 255
159 198 255
159 198 255
159 198 255
159 198 255
160 198 255
160 198 255
160 198 255
160 198 255
160 198 255
160 198 255
160 198 255
160 198 255
160 198 255
160 198 255
160 198 255
160 198 255
160 198 255
160 198 255
160 198 255
160 198 255
160 198 255
161 199 255
161 199 255
161 199 255
161 199 255
161 199 255
161 199 255
161 199 255
161 199 255
161 199 255
161 199 255
161 199 255
161 199 255
162 199 255
162 199 255
162 199 255
162 199 255
162 199 255
162 199 255
162 199 255
162 199 255
162 200 255
162 200 255
162 200 255
162 200 255
163 200 255
163 200 255
163 200 255
163 200 255
163 200 255
163 200 255
163 200 255
163 200 255
163 200 255
163 200 255
164 200 255
164 200 255
164 200 255
164 200 255
164 201 255
164 201 255
164 201 255
164 201 255
164 201 255
164 201 255
164 201 255
165 201 255
165 201 255
165 201 255
165 201 255
165 201 255
165 201 255
165 201 255
165 201 255
165 201 255
165 201 255
166 202 255
166 202 255
166 202 255
166 202 255
166 202 255
166 202 255
166 202 255
166 202 255
166 202 255
166 202 255
166 202 255
167 202 255
167 202 255
167 202 255
167 202 255
167 202 255
167 202 255
167 202 255
167 203 255
167 203 255
167 203 255
167 203 255
168 203 255
168 203 255
168 203 255
168 203 255
168 203 255
168 203 255
168 203 255
168 203 255
168 203 255
168 203 255
168 203 255
169 203 255
169 203 255
169 203 255
169 203 255
169 204 255
169 204 255
169 204 255
169 204 255
169 204 255
169 204 255
169 204 255
170 204 255
170 204 255
170 204 255
170 204 255
170 204 255
170 204 255
170 204 255
170 204 255
170 204 255
170 204 255
170 204 255
170 204 255
170 204 255
171 205 255
171 205 255
171 205 255
171 205 255
171 205 255
171 205 255
171 205 255
171 205 255
171 205 255
171 205 255
171 205 255
171 205 255
171 205 255
172 205 255
172 205 255
172 205 255
172 205 255
172 205 255
172 205 255
172 205 255
172 205 255
172 205 255
172 206 255
172 206 255
172 206 255
172 206 255
172 206 255
173 206 255
173 206 255
173 206 255
173 206 255
173 206 255
173 206 255
173 206 255
173 206 255
173 206 255
173 206 255
173 206 255
173 206 255
173 206 255
173 206 255
173 206 255
174 206 255
174 206 255
174 206 255
174 206 255
174 206 255
174 206 255
173 206 255
173 206 255
173 206 255
173 206 255
173 206 255
173 206 255
173 206 255
173 206 255
173 206 255
173 206 255
173 206 255
173 206 255
173 206 255
173 206 255
173 206 255
172 206 255
172 206 255
172 206 255
172 206 255
172 205 255
172 205 255
172 205 255
172 205 255
172 205 255
172 205 255
172 205 255
172 205 255
172 205 255
172 205 255
171 205 255
171 205 255
171 205 255
171 205 255
171 205 255
171 205 255
171 205 255
171 205 255
171 205 255
171 205 255
171 205 255
171 205 255
171 205 255
170 204 255
170 204 255
170 204 255
170 204 255
170 204 255
170 204 255
170 204 255
170 204 255
170 204 255
170 204 255
170 204 255
170 204 255
169 204 255
169 204 255
169 204 255
169 204 255
169 204 255
169 204 255
169 204 255
169 204 255
169 203 255
169 203 255
169 203 255
169 203 255
168 203 255
168 203 255
168 203 255
168 203 255
168 203 255
168 203 255
168 203 255
168 203 255
168 203 255
168 203 255
168 203 255
167 203 255
167 203 255
167 203 255
167 202 255
167 202 255
167 202 255
167 202 255
167 202 255
167 202 255
167 202 255
167 202 255
166 202 255
166 202 255
166 202 255
166 202 255
166 202 255
166 202 255
166 202 255
166 202 255
166 202 255
166 202 255
165 201 255
165 201 255
165 201 255
165 201 255
165 201 255
165 201 255
165 201 255
165 201 255
165 201 255
165 201 255
165 201 255
164 201 255
164 201 255
164 201 255
164 201 255
164 201 255
164 201 255
164 201 255
164 200 255
164 200 255
164 200 255
163 200 255
163 200 255
163 200 255
163 200 255
163 200 255
163 200 255
163 200 255
163 200 255
163 200 255
163 200 255
163 200 255
162 200 255
162 200 255
162 200 255
162 200 255
162 199 255
162 199 255
162 199 255
162 199 255
162 199 255
162 199 255
162 199 255
162 199 255
161 199 255
161 199 255
161 199 255
161 199 255
161 199 255
161 199 255
161 199 255
161 199 255
161 199 255
161 199 255
161 199 255
161 199 255
161 199 255
160 198 255
160 198 255
160 198 255
160 198 255
160 198 255
160 198 255
160 198 255
160 198 255
160 198 255
160 198 255
160 198 255
160 198 255
160 198 255
160 198 255
160 198 255
160 198 255
160 198 255
160 198 255
160 198 255
159 198 255
159 198 255
159 198 255
159 198 255
159 198 255
159 198 255
159 198 255
159 198 255
159 198 255
159 198 255
159 198 255
159 198 255
159 198 255
159 198 255
159 198 255
159 198 255
159 198 255
159 198 255
159 198 255
159 198 255
159 198 255
159 198 255
159 198 255
159 198 255
159 198 255
159 198 255
159 198 255
159 198 255
159 198 255
159 198 255
159 198 255
159 198 255
159 198 255
159 198 255
159 198 255
159 198 255
159 198 255
159 198 255
159 198 255
159 198 255
159 198 255
160 198 255
160 198 255
160 198 255
160 198 255
160 198 255
160 198 255
160 198 255
160 198 255
160 198 255
160 198 255
160 198 255
160 198 255
160 198 255
160 198 255
160 198 255
160 198 255
160 198 255
160 198 255
160 198 255
161 199 255
161 199 255
161 199 255
161 199 255
161 199 255
161 199 255
161 199 255
161 199 255
161 199 255
161 199 255
161 199 255
161 199 255
161 199 255
161 199 255
162 199 255
162 199 255
162 199 255
162 199 255
162 199 255
162 199 255
162 199 255
162 199 255
162 200 255
162 200 255
162 200 255
162 200 255
163 200 255
163 200 255
163 200 255
163 200 255
163 200 255
163 200 255
163 200 255
163 200 255
163 200 255
163 200 255
163 200 255
164 200 255
164 200 255
164 200 255
164 201 255
164 201 255
164 201 255
164 201 255
164 201 255
164 201 255
164 201 255
165 201 255
165 201 255
165 201 255
165 201 255
165 201 255
165 201 255
165 201 255
165 201 255
165 201 255
165 201 255
165 201 255
166 202 255
166 202 255
166 202 255
166 202 255
166 202 255
166 202 255
166 202 255
166 202 255
166 202 255
166 202 255
167 202 255
167 202 255
167 202 255
167 202 255
167 202 255
167 202 255
167 202 255
167 203 255
167 203 255
167 203 255
167 203 255
168 203 255
168 203 255
168 203 255
168 203 255
168 203 255
168 203 255
168 203 255
168 203 255
168 203 255
168 203 255
168 203 255
169 203 255
169 203 255
169 203 255
169 203 255
169 204 255
169 204 255
169 204 255
169 204 255
169 204 255
169 204 255
169 204 255
169 204 255
170 204 255
170 204 255
170 204 255
170 204 255
170 204 255
170 204 255
170 204 255
170 204 255
170 204 255
170 204 255
170 204 255
170 204 255
171 205 255
171 205 255
171 205 255
171 205 255
171 205 255
171 205 255
171 205 255
171 205 255
171 205 255
171 205 255
171 205 255
171 205 255
171 205 255
172 205 255
172 205 255
172 205 255
172 205 255
172 205 255
172 205 255
172 205 255
172 205 255
172 205 255
172 206 255
172 206 255
172 206 255
172 206 255
172 206 255
173 206 255
173 206 255
173 206 255
173 206 255
173 206 255
173 206 255
173 206 255
173 206 255
173 206 255
173 206 255
173 206 255
173 206 255
173 206 255
173 206 255
173 206 255
174 206 255
174 206 255
174 206 255
174 206 255
174 206 255
174 207 255
174 207 255
174 207 255
174 207 255
174 206 255
174 206 255
174 206 255
174 206 255
174 206 255
173 206 255
173 206 255
173 206 255
173 206 255
173 206 255
173 206 255
173 206 255
173 206 255
173 206 255
173 206 255
173 206 255
173 206 255
173 206 255
173 206 255
173 206 255
172 206 255
172 206 255
172 206 255
172 206 255
172 205 255
172 205 255
172 205 255
172 205 255
172 205 255
172 205 255
172 205 255
172 205 255
172 205 255
172 205 255
171 205 255
171 205 255
171 205 255
171 205 255
171 205 255
171 205 255
171 205 255
171 205 255
171 205 255
171 205 255
171 205 255
171 205 255
171 205 255
170 204 255
170 204 255
170 204 255
170 204 255
170 204 255
170 204 255
170 204 255
170 204 255
170 204 255
170 204 255
170 204 255
170 204 255
169 204 255
169 204 255
169 204 255
169 204 255
169 204 255
169 204 255
169 204 255
169 203 255
169 203 255
169 203 255
169 203 255
168 203 255
168 203 255
168 203 255
168 203 255
168 203 255
168 203 255
168 203 255
168 203 255
168 203 255
168 203 255
168 203 255
167 203 255
167 203 255
167 203 255
167 203 255
167 202 255
167 202 255
167 202 255
167 202 255
167 202 255
167 202 255
167 202 255
166 202 255
166 202 255
166 202 255
166 202 255
166 202 255
166 202 255
166 202 255
166 202 255
166 202 255
166 202 255
166 202 255
165 201 255
165 201 255
165 201 255
165 201 255
165 201 255
165 201 255
165 201 255
165 201 255
165 201 255
165 201 255
164 201 255
164 201 255
164 201 255
164 201 255
164 201 255
164 201 255
164 201 255
164 200 255
164 200 255
164 200 255
164 200 255
163 200 255
163 200 255
163 200 255
163 200 255
163 200 255
163 200 255
163 200 255
163 200 255
163 200 255
163 200 255
163 200 255
162 200 255
162 200 255
162 200 255
162 200 255
162 199 255
162 199 255
162 199 255
162 199 255
162 199 255
162 199 255
162 199 255
162 199 255
162 199 255
161 199 255
161 199 255
161 199 255
161 199 255
161 199 255
161 199 255
161 199 255
161 199 255
161 199 255
161 199 255
161 199 255
161 199 255
161 199 255
161 199 255
160 198 255
160 198 255
160 198 255
160 198 255
160 198 255
160 198 255
160 198 255
160 198 255
160 198 255
160 198 255
160 198 255
160 198 255
160 198 255
160 198 255
160 198 255
160 198 255
160 198 255
160 198 255
160 198 255
160 198 255
160 198 255
160 198 255
160 198 255
160 198 255
160 198 255
160 198 255
158 195 252
150 187 241
146 180 232
134 167 216
143 178 229
129 160 207
130 162 209
119 148 192
112 139 179
116 143 184
127 158 204
133 165 213
132 164 212
138 171 220
143 177 229
158 196 253
160 198 255
160 198 255
160 198 255
160 198 255
160 198 255
160 198 255
160 198 255
160 198 255
160 198 255
160 198 255
160 198 255
160 198 255
160 198 255
160 198 255
160 198 255
160 198 255
160 198 255
160 198 255
160 198 255
160 198 255
160 198 255
160 198 255
160 198 255
160 198 255
160 198 255
160 198 255
161 199 255
161 199 255
161 199 255
161 199 255
161 199 255
161 199 255
161 199 255
161 199 255
161 199 255
161 199 255
161 199 255
161 199 255
161 199 255
161 199 255
162 199 255
162 199 255
162 199 255
162 199 255
162 199 255
162 199 255
162 199 255
162 199 255
162 199 255
162 200 255
162 200 255
162 200 255
162 200 255
163 200 255
163 200 255
163 200 255
163 200 255
163 200 255
163 200 255
163 200 255
163 200 255
163 200 255
163 200 255
163 200 255
164 200 255
164 200 255
164 200 255
164 201 255
164 201 255
164 201 255
164 201 255
164 201 255
164 201 255
164 201 255
164 201 255
165 201 255
165 201 255
165 201 255
165 201 255
165 201 255
165 201 255
165 201 255
165 201 255
165 201 255
165 201 255
166 202 255
166 202 255
166 202 255
166 202 255
166 202 255
166 202 255
166 202 255
166 202 255
166 202 255
166 202 255
166 202 255
167 202 255
167 202 255
167 202 255
167 202 255
167 202 255
167 202 255
167 202 255
167 203 255
167 203 255
167 203 255
167 203 255
168 203 255
168 203 255
168 203 255
168 203 255
168 203 255
168 203 255
168 203 255
168 203 255
168 203 255
168 203 255
168 203 255
169 203 255
169 203 255
169 203 255
169 203 255
169 204 255
169 204 255
169 204 255
169 204 255
169 204 255
169 204 255
169 204 255
169 204 255
170 204 255
170 204 255
170 204 255
170 204 255
170 204 255
170 204 255
170 204 255
170 204 255
170 204 255
170 204 255
170 204 255
171 205 255
171 205 255
171 205 255
171 205 255
171 205 255
171 205 255
171 205 255
171 205 255
171 205 255
171 205 255
171 205 255
171 205 255
171 205 255
172 205 255
172 205 255
172 205 255
172 205 255
172 205 255
172 205 255
172 205 255
172 205 255
172 205 255
172 205 255
172 206 255
172 206 255
172 206 255
172 206 255
173 206 255
173 206 255
173 206 255
173 206 255
173 206 255
173 206 255
173 206 255
173 206 255
173 206 255
173 206 255
173 206 255
173 206 255
173 206 255
173 206 255
173 206 255
174 206 255
174 206 255
174 206 255
174 206 255
174 206 255
174 207 255
174 207 255
174 207 255
174 207 255
174 207 255
174 207 255
174 207 255
174 207 255
174 207 255
174 207 255
174 207 255
174 207 255
174 206 255
174 206 255
174 206 255
174 206 255
174 206 255
173 206 255
173 206 255
173 206 255
173 206 255
173 206 255
173 206 255
173 206 255
173 206 255
173 206 255
173 206 255
173 206 255
173 206 255
173 206 255
173 206 255
173 206 255
172 206 255
172 206 255
172 206 255
172 206 255
172 205 255
172 205 255
172 205 255
172 205 255
172 205 255
172 205 255
172 205 255
172 205 255
172 205 255
171 205 255
171 205 255
171 205 255
171 205 255
171 205 255
171 205 255
171 205 255
171 205 255
171 205 255
171 205 255
171 205 255
171 205 255
171 205 255
170 204 255
170 204 255
170 204 255
170 204 255
170 204 255
170 204 255
170 204 255
170 204 255
170 204 255
170 204 255
170 204 255
170 204 255
169 204 255
169 204 255
169 204 255
169 204 255
169 204 255
169 204 255
169 204 255
169 204 255
169 203 255
169 203 255
169 203 255
168 203 255
168 203 255
168 203 255
168 203 255
168 203 255
168 203 255
168 203 255
168 203 255
168 203 255
168 203 255
168 203 255
168 203 255
167 203 255
167 203 255
167 203 255
167 202 255
167 202 255
167 202 255
167 202 255
167 202 255
167 202 255
167 202 255
166 202 255
166 202 255
166 202 255
166 202 255
166 202 255
166 202 255
166 202 255
166 202 255
166 202 255
166 202 255
166 202 255
165 201 255
165 201 255
165 201 255
165 201 255
165 201 255
165 201 255
165 201 255
165 201 255
165 201 255
165 201 255
165 201 255
164 201 255
164 201 255
164 201 255
164 201 255
164 201 255
164 201 255
164 201 255
164 200 255
164 200 255
164 200 255
164 200 255
163 200 255
163 200 255
163 200 255
163 200 255
163 200 255
163 200 255
163 200 255
163 200 255
163 200 255
163 200 255
163 200 255
162 200 255
162 200 255
162 200 255
162 200 255
162 200 255
162 199 255
162 199 255
162 199 255
162 199 255
162 199 255
162 199 255
162 199 255
162 199 255
161 199 255
161 199 255
161 199 255
161 199 255
161 199 255
161 199 255
161 199 255
161 199 255
161 199 255
161 199 255
161 199 255
161 199 255
161 199 255
161 199 255
161 199 255
161 199 255
161 199 255
160 198 255
160 198 255
160 198 255
160 198 255
160 198 255
160 198 255
160 198 255
160 198 255
160 198 255
160 198 255
160 198 255
160 198 255
160 198 255
156 193 248
137 170 218
119 147 190
111 137 176
87 109 142
85 105 136
75 93 121
73 91 119
75 92 119
75 93 120
68 85 112
71 89 115
72 91 119
74 92 120
72 90 117
73 91 118
73 91 118
73 90 116
73 91 118
76 94 121
73 92 120
76 94 121
85 106 136
96 120 156
107 132 170
117 145 188
140 173 224
156 193 249
160 198 255
160 198 255
160 198 255
160 198 255
160 198 255
160 198 255
160 198 255
160 198 255
160 198 255
160 198 255
160 198 255
160 198 255
160 198 255
161 199 255
161 199 255
161 199 255
161 199 255
161 199 255
161 199 255
161 199 255
161 199 255
161 199 255
161 199 255
161 199 255
161 199 255
161 199 255
161 199 255
161 199 255
161 199 255
162 199 255
162 199 255
162 199 255
162 199 255
162 199 255
162 199 255
162 199 255
162 199 255
162 199 255
162 199 255
162 200 255
162 200 255
162 200 255
162 200 255
163 200 255
163 200 255
163 200 255
163 200 255
163 200 255
163 200 255
163 200 255
163 200 255
163 200 255
163 200 255
163 200 255
164 200 255
164 200 255
164 200 255
164 200 255
164 201 255
164 201 255
164 201 255
164 201 255
164 201 255
164 201 255
164 201 255
165 201 255
165 201 255
165 201 255
165 201 255
165 201 255
165 201 255
165 201 255
165 201 255
165 201 255
165 201 255
165 201 255
166 202 255
166 202 255
166 202 255
166 202 255
166 202 255
166 202 255
166 202 255
166 202 255
166 202 255
166 202 255
167 202 255
167 202 255
167 202 255
167 202 255
167 202 255
167 202 255
167 202 255
167 202 255
167 203 255
167 203 255
167 203 255
168 203 255
168 203 255
168 203 255
168 203 255
168 203 255
168 203 255
168 203 255
168 203 255
168 203 255
168 203 255
168 203 255
168 203 255
169 203 255
169 203 255
169 203 255
169 204 255
169 204 255
169 204 255
169 204 255
169 204 255
169 204 255
169 204 255
169 204 255
170 204 255
170 204 255
170 204 255
170 204 255
170 204 255
170 204 255
170 204 255
170 204 255
170 204 255
170 204 255
170 204 255
170 204 255
171 205 255
171 205 255
171 205 255
171 205 255
171 205 255
171 205 255
171 205 255
171 205 255
171 205 255
171 205 255
171 205 255
171 205 255
171 205 255
172 205 255
172 205 255
172 205 255
172 205 255
172 205 255
172 205 255
172 205 255
172 205 255
172 205 255
172 206 255
172 206 255
172 206 255
172 206 255
173 206 255
173 206 255
173 206 255
173 206 255
173 206 255
173 206 255
173 206 255
173 206 255
173 206 255
173 206 255
173 206 255
173 206 255
173 206 255
173 206 255
173 206 255
174 206 255
174 206 255
174 206 255
174 206 255
174 206 255
174 207 255
174 207 255
174 207 255
174 207 255
174 207 255
174 207 255
174 207 255
174 207 255
175 207 255
174 207 255
174 207 255
174 207 255
174 207 255
174 207 255
174 207 255
174 207 255
174 207 255
174 207 255
174 207 255
174 207 255
174 206 255
174 206 255
174 206 255
174 206 255
174 206 255
173 206 255
173 206 255
173 206 255
173 206 255
173 206 255
173 206 255
173 206 255
173 206 255
173 206 255
173 206 255
173 206 255
173 206 255
173 206 255
173 206 255
172 206 255
172 206 255
172 206 255
172 206 255
172 206 255
172 205 255
172 205 255
172 205 255
172 205 255
172 205 255
172 205 255
172 205 255
172 205 255
172 205 255
171 205 255
171 205 255
171 205 255
171 205 255
171 205 255
171 205 255
171 205 255
171 205 255
171 205 255
171 205 255
171 205 255
171 205 255
171 205 255
170 204 255
170 204 255
170 204 255
170 204 255
170 204 255
170 204 255
170 204 255
170 204 255
170 204 255
170 204 255
170 204 255
170 204 255
169 204 255
169 204 255
169 204 255
169 204 255
169 204 255
169 204 255
169 204 255
169 203 255
169 203 255
169 203 255
169 203 255
168 203 255
168 203 255
168 203 255
168 203 255
168 203 255
168 203 255
168 203 255
168 203 255
168 203 255
168 203 255
168 203 255
167 203 255
167 203 255
167 203 255
167 203 255
167 202 255
167 202 255
167 202 255
167 202 255
167 202 255
167 202 255
167 202 255
166 202 255
166 202 255
166 202 255
166 202 255
166 202 255
166 202 255
166 202 255
166 202 255
166 202 255
166 202 255
166 202 255
165 201 255
165 201 255
165 201 255
165 201 255
165 201 255
165 201 255
165 201 255
165 201 255
165 201 255
165 201 255
165 201 255
164 201 255
164 201 255
164 201 255
164 201 255
164 201 255
164 201 255
164 201 255
164 200 255
164 200 255
164 200 255
164 200 255
163 200 255
163 200 255
163 200 255
163 200 255
163 200 255
163 200 255
163 200 255
163 200 255
163 200 255
163 200 255
163 200 255
163 200 255
162 200 255
162 200 255
162 200 255
162 200 255
162 200 255
162 199 255
162 199 255
162 199 255
162 199 255
162 199 255
162 199 255
162 199 255
162 199 255
162 199 255
161 199 255
161 199 255
161 199 255
161 199 255
161 199 255
161 199 255
161 199 255
161 199 255
161 199 255
161 199 255
161 199 255
161 199 255
161 199 255
161 199 255
161 199 255
161 199 255
161 199 255
161 199 255
161 199 255
161 199 255
157 195 250
128 159 206
114 142 183
90 113 147
72 90 117
72 90 117
72 91 119
72 90 118
72 91 119
70 87 114
74 92 119
72 90 117
73 91 118
72 89 115
72 89 115
70 87 112
72 90 117
71 89 116
71 89 115
72 90 116
71 89 115
74 92 120
72 90 117
70 88 115
73 90 117
72 90 116
73 91 117
75 93 120
72 90 117
74 92 120
73 89 115
75 93 119
86 107 139
110 137 177
132 163 209
157 195 250
161 199 255
161 199 255
161 199 255
161 199 255
161 199 255
161 199 255
161 199 255
161 199 255
161 199 255
161 199 255
161 199 255
161 199 255
161 199 255
161 199 255
161 199 255
161 199 255
161 199 255
161 199 255
161 199 255
161 199 255
162 199 255
162 199 255
162 199 255
162 199 255
162 199 255
162 199 255
162 199 255
162 199 255
162 199 255
162 199 255
162 200 255
162 200 255
162 200 255
162 200 255
163 200 255
163 200 255
163 200 255
163 200 255
163 200 255
163 200 255
163 200 255
163 200 255
163 200 255
163 200 255
163 200 255
163 200 255
164 200 255
164 200 255
164 200 255
164 200 255
164 201 255
164 201 255
164 201 255
164 201 255
164 201 255
164 201 255
164 201 255
165 201 255
165 201 255
165 201 255
165 201 255
165 201 255
165 201 255
165 201 255
165 201 255
165 201 255
165 201 255
165 201 255
166 202 255
166 202 255
166 202 255
166 202 255
166 202 255
166 202 255
166 202 255
166 202 255
166 202 255
166 202 255
166 202 255
167 202 255
167 202 255
167 202 255
167 202 255
167 202 255
167 202 255
167 202 255
167 203 255
167 203 255
167 203 255
167 203 255
168 203 255
168 203 255
168 203 255
168 203 255
168 203 255
168 203 255
168 203 255
168 203 255
168 203 255
168 203 255
168 203 255
169 203 255
169 203 255
169 203 255
169 203 255
169 204 255
169 204 255
169 204 255
169 204 255
169 204 255
169 204 255
169 204 255
170 204 255
170 204 255
170 204 255
170 204 255
170 204 255
170 204 255
170 204 255
170 204 255
170 204 255
170 204 255
170 204 255
170 204 255
171 205 255
171 205 255
171 205 255
171 205 255
171 205 255
171 205 255
171 205 255
171 205 255
171 205 255
171 205 255
171 205 255
171 205 255
171 205 255
172 205 255
172 205 255
172 205 255
172 205 255
172 205 255
172 205 255
172 205 255
172 205 255
172 205 255
172 206 255
172 206 255
172 206 255
172 206 255
172 206 255
173 206 255
173 206 255
173 206 255
173 206 255
173 206 255
173 206 255
173 206 255
173 206 255
173 206 255
173 206 255
173 206 255
173 206 255
173 206 255
173 206 255
174 206 255
174 206 255
174 206 255
174 206 255
174 206 255
174 207 255
174 207 255
174 207 255
174 207 255
174 207 255
174 207 255
174 207 255
174 207 255
174 207 255
174 207 255
174 207 255
175 207 255
175 207 255
175 207 255
175 207 255
175 207 255
175 207 255
174 207 255
174 207 255
174 207 255
174 207 255
174 207 255
174 207 255
174 207 255
174 207 255
174 207 255
174 207 255
174 207 255
174 206 255
174 206 255
174 206 255
174 206 255
174 206 255
173 206 255
173 206 255
173 206 255
173 206 255
173 206 255
173 206 255
173 206 255
173 206 255
173 206 255
173 206 255
173 206 255
173 206 255
173 206 255
173 206 255
172 206 255
172 206 255
172 206 255
172 206 255
172 206 255
172 205 255
172 205 255
172 205 255
172 205 255
172 205 255
172 205 255
172 205 255
172 205 255
172 205 255
171 205 255
171 205 255
171 205 255
171 205 255
171 205 255
171 205 255
171 205 255
171 205 255
171 205 255
171 205 255
171 205 255
171 205 255
171 205 255
170 204 255
170 204 255
170 204 255
170 204 255
170 204 255
170 204 255
170 204 255
170 204 255
170 204 255
170 204 255
170 204 255
169 204 255
169 204 255
169 204 255
169 204 255
169 204 255
169 204 255
169 204 255
169 204 255
169 203 255
169 203 255
169 203 255
169 203 255
168 203 255
168 203 255
168 203 255
168 203 255
168 203 255
168 203 255
168 203 255
168 203 255
168 203 255
168 203 255
168 203 255
167 203 255
167 203 255
167 203 255
167 202 255
167 202 255
167 202 255
167 202 255
167 202 255
167 202 255
167 202 255
167 202 255
166 202 255
166 202 255
166 202 255
166 202 255
166 202 255
166 202 255
166 202 255
166 202 255
166 202 255
166 202 255
166 202 255
165 201 255
165 201 255
165 201 255
165 201 255
165 201 255
165 201 255
165 201 255
165 201 255
165 201 255
165 201 255
165 201 255
164 201 255
164 201 255
164 201 255
164 201 255
164 201 255
164 201 255
164 201 255
164 200 255
164 200 255
164 200 255
164 200 255
163 200 255
163 200 255
163 200 255
163 200 255
163 200 255
163 200 255
163 200 255
163 200 255
163 200 255
163 200 255
163 200 255
163 200 255
163 200 255
162 200 255
162 200 255
162 200 255
162 200 255
162 200 255
162 199 255
162 199 255
162 199 255
162 199 255
162 199 255
162 199 255
162 199 255
162 199 255
162 199 255
162 199 255
162 199 255
161 199 255
161 199 255
161 199 255
161 199 255
161 199 255
161 199 255
161 199 255
161 199 255
161 199 255
161 199 255
155 191 245
128 159 206
93 115 147
73 93 122
76 94 121
72 90 117
71 88 115
71 89 115
69 87 114
71 88 115
72 90 115
73 90 116
69 87 114
74 92 120
71 88 114
75 93 120
70 87 114
72 90 117
75 92 117
70 88 115
70 88 114
69 86 112
72 88 114
71 87 113
71 89 115
68 87 116
75 93 120
74 90 115
73 91 117
70 88 115
74 93 120
71 88 115
70 88 113
72 90 118
70 88 115
70 88 114
73 91 118
72 90 116
75 93 119
93 115 149
118 146 189
149 185 238
161 199 255
161 199 255
161 199 255
161 199 255
161 199 255
161 199 255
161 199 255
161 199 255
161 199 255
161 199 255
161 199 255
162 199 255
162 199 255
162 199 255
162 199 255
162 199 255
162 199 255
162 199 255
162 199 255
162 199 255
162 199 255
162 199 255
162 200 255
162 200 255
162 200 255
162 200 255
163 200 255
163 200 255
163 200 255
163 200 255
163 200 255
163 200 255
163 200 255
163 200 255
163 200 255
163 200 255
163 200 255
163 200 255
163 200 255
164 200 255
164 200 255
164 200 255
164 200 255
164 201 255
164 201 255
164 201 255
164 201 255
164 201 255
164 201 255
164 201 255
165 201 255
165 201 255
165 201 255
165 201 255
165 201 255
165 201 255
165 201 255
165 201 255
165 201 255
165 201 255
165 201 255
166 202 255
166 202 255
166 202 255
166 202 255
166 202 255
166 202 255
166 202 255
166 202 255
166 202 255
166 202 255
166 202 255
167 202 255
167 202 255
167 202 255
167 202 255
167 202 255
167 202 255
167 202 255
167 202 255
167 203 255
167 203 255
167 203 255
168 203 255
168 203 255
168 203 255
168 203 255
168 203 255
168 203 255
168 203 255
168 203 255
168 203 255
168 203 255
168 203 255
169 203 255
169 203 255
169 203 255
169 203 255
169 204 255
169 204 255
169 204 255
169 204 255
169 204 255
169 204 255
169 204 255
169 204 255
170 204 255
170 204 255
170 204 255
170 204 255
170 204 255
170 204 255
170 204 255
170 204 255
170 204 255
170 204 255
170 204 255
171 205 255
171 205 255
171 205 255
171 205 255
171 205 255
171 205 255
171 205 255
171 205 255
171 205 255
171 205 255
171 205 255
171 205 255
171 205 255
172 205 255
172 205 255
172 205 255
172 205 255
172 205 255
172 205 255
172 205 255
172 205 255
172 205 255
172 206 255
172 206 255
172 206 255
172 206 255
172 206 255
173 206 255
173 206 255
173 206 255
173 206 255
173 206 255
173 206 255
173 206 255
173 206 255
173 206 255
173 206 255
173 206 255
173 206 255
173 206 255
173 206 255
174 206 255
174 206 255
174 206 255
174 206 255
174 206 255
174 207 255
174 207 255
174 207 255
174 207 255
174 207 255
174 207 255
174 207 255
174 207 255
174 207 255
174 207 255
174 207 255
175 207 255
175 207 255
175 207 255
175 207 255
175 207 255
175 207 255
175 207 255
175 207 255
175 207 255
175 207 255
175 207 255
175 207 255
175 207 255
175 207 255
174 207 255
174 207 255
174 207 255
174 207 255
174 207 255
174 207 255
174 207 255
174 207 255
174 207 255
174 207 255
174 207 255
174 206 255
174 206 255
174 206 255
174 206 255
174 206 255
173 206 255
173 206 255
173 206 255
173 206 255
173 206 255
173 206 255
173 206 255
173 206 255
173 206 255
173 206 255
173 206 255
173 206 255
173 206 255
173 206 255
172 206 255
172 206 255
172 206 255
172 206 255
172 206 255
172 205 255
172 205 255
172 205 255
172 205 255
172 205 255
172 205 255
172 205 255
172 205 255
172 205 255
171 205 255
171 205 255
171 205 255
171 205 255
171 205 255
171 205 255
171 205 255
171 205 255
171 205 255
171 205 255
171 205 255
171 205 255
170 204 255
170 204 255
170 204 255
170 204 255
170 204 255
170 204 255
170 204 255
170 204 255
170 204 255
170 204 255
170 204 255
170 204 255
169 204 255
169 204 255
169 204 255
169 204 255
169 204 255
169 204 255
169 204 255
169 204 255
169 203 255
169 203 255
169 203 255
169 203 255
168 203 255
168 203 255
168 203 255
168 203 255
168 203 255
168 203 255
168 203 255
168 203 255
168 203 255
168 203 255
168 203 255
167 203 255
167 203 255
167 203 255
167 202 255
167 202 255
167 202 255
167 202 255
167 202 255
167 202 255
167 202 255
167 202 255
166 202 255
166 202 255
166 202 255
166 202 255
166 202 255
166 202 255
166 202 255
166 202 255
166 202 255
166 202 255
165 201 255
165 201 255
165 201 255
165 201 255
165 201 255
165 201 255
165 201 255
165 201 255
165 201 255
165 201 255
165 201 255
165 201 255
164 201 255
164 201 255
164 201 255
164 201 255
164 201 255
164 201 255
164 201 255
164 201 255
164 200 255
164 200 255
164 200 255
164 200 255
163 200 255
163 200 255
163 200 255
163 200 255
163 200 255
163 200 255
163 200 255
163 200 255
163 200 255
163 200 255
163 200 255
163 200 255
163 200 255
162 200 255
162 200 255
162 200 255
162 200 255
162 200 255
162 200 255
162 199 255
162 199 255
162 199 255
162 199 255
162 199 255
162 199 255
162 199 255
162 199 255
162 199 255
162 199 255
162 199 255
162 199 255
154 190 243
127 158 203
90 112 144
74 92 119
74 92 119
70 87 113
74 91 117
71 89 116
72 90 117
72 89 115
72 91 119
70 87 112
70 87 113
71 88 114
71 89 116
71 89 115
70 87 112
73 91 118
72 90 117
74 91 117
73 91 117
69 87 113
74 91 117
71 88 113
66 84 110
70 87 113
72 89 115
71 88 113
71 89 117
69 87 114
71 89 117
73 91 119
69 86 112
70 87 114
72 90 117
71 88 113
72 90 117
70 87 112
71 90 117
73 90 116
72 89 116
74 91 118
73 91 117
73 91 117
71 87 112
92 115 149
124 153 197
154 190 244
162 199 255
162 199 255
162 199 255
162 199 255
162 199 255
162 199 255
162 199 255
162 199 255
162 199 255
162 199 255
162 199 255
162 199 255
162 199 255
162 200 255
162 200 255
162 200 255
162 200 255
162 200 255
163 200 255
163 200 255
163 200 255
163 200 255
163 200 255
163 200 255
163 200 255
163 200 255
163 200 255
163 200 255
163 200 255
163 200 255
163 200 255
164 200 255
164 200 255
164 200 255
164 200 255
164 201 255
164 201 255
164 201 255
164 201 255
164 201 255
164 201 255
164 201 255
164 201 255
165 201 255
165 201 255
165 201 255
165 201 255
165 201 255
165 201 255
165 201 255
165 201 255
165 201 255
165 201 255
165 201 255
165 201 255
166 202 255
166 202 255
166 202 255
166 202 255
166 202 255
166 202 255
166 202 255
166 202 255
166 202 255
166 202 255
166 202 255
167 202 255
167 202 255
167 202 255
167 202 255
167 202 255
167 202 255
167 202 255
167 203 255
167 203 255
167 203 255
168 203 255
168 203 255
168 203 255
168 203 255
168 203 255
168 203 255
168 203 255
168 203 255
168 203 255
168 203 255
168 203 255
169 203 255
169 203 255
169 203 255
169 203 255
169 204 255
169 204 255
169 204 255
169 204 255
169 204 255
169 204 255
169 204 255
169 204 255
170 204 255
170 204 255
170 204 255
170 204 255
170 204 255
170 204 255
170 204 255
170 204 255
170 204 255
170 204 255
170 204 255
170 204 255
171 205 255
171 205 255
171 205 255
171 205 255
171 205 255
171 205 255
171 205 255
171 205 255
171 205 255
171 205 255
171 205 255
171 205 255
172 205 255
172 205 255
172 205 255
172 205 255
172 205 255
172 205 255
172 205 255
172 205 255
172 205 255
172 206 255
172 206 255
172 206 255
172 206 255
172 206 255
173 206 255
173 206 255
173 206 255
173 206 255
173 206 255
173 206 255
173 206 255
173 206 255
173 206 255
173 206 255
173 206 255
173 206 255
173 206 255
173 206 255
174 206 255
174 206 255
174 206 255
174 206 255
174 206 255
174 207 255
174 207 255
174 207 255
174 207 255
174 207 255
174 207 255
174 207 255
174 207 255
174 207 255
174 207 255
174 207 255
175 207 255
175 207 255
175 207 255
175 207 255
175 207 255
175 207 255
175 207 255
175 207 255
175 207 255
175 207 255
175 207 255
175 207 255
175 207 255
175 207 255
175 207 255
175 207 255
175 207 255
175 207 255
175 207 255
175 207 255
175 207 255
175 207 255
174 207 255
174 207 255
174 207 255
174 207 255
174 207 255
174 207 255
174 207 255
174 207 255
174 207 255
174 207 255
174 207 255
174 206 255
174 206 255
174 206 255
174 206 255
174 206 255
173 206 255
173 206 255
173 206 255
173 206 255
173 206 255
173 206 255
173 206 255
173 206 255
173 206 255
173 206 255
173 206 255
173 206 255
173 206 255
173 206 255
172 206 255
172 206 255
172 206 255
172 206 255
172 206 255
172 205 255
172 205 255
172 205 255
172 205 255
172 205 255
172 205 255
172 205 255
172 205 255
172 205 255
171 205 255
171 205 255
171 205 255
171 205 255
171 205 255
171 205 255
171 205 255
171 205 255
171 205 255
171 205 255
171 205 255
171 205 255
170 204 255
170 204 255
170 204 255
170 204 255
170 204 255
170 204 255
170 204 255
170 204 255
170 204 255
170 204 255
170 204 255
170 204 255
169 204 255
169 204 255
169 204 255
169 204 255
169 204 255
169 204 255
169 204 255
169 203 255
169 203 255
169 203 255
169 203 255
168 203 255
168 203 255
168 203 255
168 203 255
168 203 255
168 203 255
168 203 255
168 203 255
168 203 255
168 203 255
168 203 255
167 203 255
167 203 255
167 203 255
167 203 255
167 202 255
167 202 255
167 202 255
167 202 255
167 202 255
167 202 255
167 202 255
166 202 255
166 202 255
166 202 255
166 202 255
166 202 255
166 202 255
166 202 255
166 202 255
166 202 255
166 202 255
166 202 255
165 201 255
165 201 255
165 201 255
165 201 255
165 201 255
165 201 255
165 201 255
165 201 255
165 201 255
165 201 255
165 201 255
165 201 255
164 201 255
164 201 255
164 201 255
164 201 255
164 201 255
164 201 255
164 201 255
164 201 255
164 200 255
164 200 255
164 200 255
164 200 255
164 200 255
163 200 255
163 200 255
163 200 255
163 200 255
163 200 255
163 200 255
163 200 255
163 200 255
163 200 255
163 200 255
163 200 255
163 200 255
163 200 255
163 200 255
162 200 255
162 200 255
162 200 255
162 200 255
162 200 255
162 200 255
162 200 255
162 199 255
162 199 255
162 199 255
138 170 218
100 124 160
73 90 116
72 91 119
72 90 118
74 92 120
74 92 119
73 90 117
70 88 113
72 89 114
72 90 117
70 88 114
72 89 115
74 92 118
73 90 116
66 84 110
74 91 117
70 87 114
69 85 110
69 86 112
70 87 113
74 93 120
72 90 116
70 88 114
70 88 115
69 87 113
69 86 113
68 84 110
74 92 119
70 87 113
70 87 113
72 89 114
71 88 114
72 90 117
71 88 114
72 90 117
70 87 112
71 89 115
66 84 111
72 89 115
71 88 115
71 89 116
72 90 117
71 88 113
71 90 117
71 88 115
73 90 116
72 90 117
72 90 117
78 97 126
102 126 161
145 179 229
162 199 255
162 199 255
162 199 255
162 199 255
162 200 255
162 200 255
162 200 255
162 200 255
162 200 255
163 200 255
163 200 255
163 200 255
163 200 255
163 200 255
163 200 255
163 200 255
163 200 255
163 200 255
163 200 255
163 200 255
163 200 255
163 200 255
163 200 255
163 200 255
163 200 255
164 200 255
164 200 255
164 200 255
164 200 255
164 201 255
164 201 255
164 201 255
164 201 255
164 201 255
164 201 255
164 201 255
164 201 255
165 201 255
165 201 255
165 201 255
165 201 255
165 201 255
165 201 255
165 201 255
165 201 255
165 201 255
165 201 255
165 201 255
165 201 255
166 202 255
166 202 255
166 202 255
166 202 255
166 202 255
166 202 255
166 202 255
166 202 255
166 202 255
166 202 255
166 202 255
167 202 255
167 202 255
167 202 255
167 202 255
167 202 255
167 202 255
167 202 255
167 203 255
167 203 255
167 203 255
167 203 255
168 203 255
168 203 255
168 203 255
168 203 255
168 203 255
168 203 255
168 203 255
168 203 255
168 203 255
168 203 255
168 203 255
169 203 255
169 203 255
169 203 255
169 203 255
169 204 255
169 204 255
169 204 255
169 204 255
169 204 255
169 204 255
169 204 255
170 204 255
170 204 255
170 204 255
170 204 255
170 204 255
170 204 255
170 204 255
170 204 255
170 204 255
170 204 255
170 204 255
170 204 255
171 205 255
171 205 255
171 205 255
171 205 255
171 205 255
171 205 255
171 205 255
171 205 255
171 205 255
171 205 255
171 205 255
171 205 255
171 205 255
172 205 255
172 205 255
172 205 255
172 205 255
172 205 255
172 205 255
172 205 255
172 205 255
172 206 255
172 206 255
172 206 255
172 206 255
172 206 255
173 206 255
173 206 255
173 206 255
173 206 255
173 206 255
173 206 255
173 206 255
173 206 255
173 206 255
173 206 255
173 206 255
173 206 255
173 206 255
173 206 255
174 206 255
174 206 255
174 206 255
174 206 255
174 206 255
174 207 255
174 207 255
174 207 255
174 207 255
174 207 255
174 207 255
174 207 255
174 207 255
174 207 255
174 207 255
175 207 255
175 207 255
175 207 255
175 207 255
175 207 255
175 207 255
175 207 255
175 207 255
175 207 255
175 207 255
175 207 255
175 207 255
175 207 255
175 207 255
176 208 255
175 207 255
175 207 255
175 207 255
175 207 255
175 207 255
175 207 255
175 207 255
175 207 255
175 207 255
175 207 255
175 207 255
175 207 255
175 207 255
175 207 255
175 207 255
175 207 255
175 207 255
174 207 255
174 207 255
174 207 255
174 207 255
174 207 255
174 207 255
174 207 255
174 207 255
174 207 255
174 207 255
174 206 255
174 206 255
174 206 255
174 206 255
174 206 255
173 206 255
173 206 255
173 206 255
173 206 255
173 206 255
173 206 255
173 206 255
173 206 255
173 206 255
173 206 255
173 206 255
173 206 255
173 206 255
173 206 255
172 206 255
172 206 255
172 206 255
172 206 255
172 205 255
172 205 255
172 205 255
172 205 255
172 205 255
172 205 255
172 205 255
172 205 255
172 205 255
171 205 255
171 205 255
171 205 255
171 205 255
171 205 255
171 205 255
171 205 255
171 205 255
171 205 255
171 205 255
171 205 255
171 205 255
171 205 255
170 204 255
170 204 255
170 204 255
170 204 255
170 204 255
170 204 255
170 204 255
170 204 255
170 204 255
170 204 255
170 204 255
169 204 255
169 204 255
169 204 255
169 204 255
169 204 255
169 204 255
169 204 255
169 204 255
169 203 255
169 203 255
169 203 255
169 203 255
168 203 255
168 203 255
168 203 255
168 203 255
168 203 255
168 203 255
168 203 255
168 203 255
168 203 255
168 203 255
168 203 255
167 203 255
167 203 255
167 203 255
167 203 255
167 202 255
167 202 255
167 202 255
167 202 255
167 202 255
167 202 255
167 202 255
166 202 255
166 202 255
166 202 255
166 202 255
166 202 255
166 202 255
166 202 255
166 202 255
166 202 255
166 202 255
166 202 255
165 201 255
165 201 255
165 201 255
165 201 255
165 201 255
165 201 255
165 201 255
165 201 255
165 201 255
165 201 255
165 201 255
165 201 255
165 201 255
164 201 255
164 201 255
164 201 255
164 201 255
164 201 255
164 201 255
164 201 255
164 201 255
164 200 255
164 200 255
164 200 255
164 200 255
164 200 255
163 200 255
163 200 255
163 200 255
163 200 255
163 200 255
163 200 255
163 200 255
163 200 255
163 200 255
163 200 255
163 200 255
163 200 255
163 200 255
163 200 255
163 200 255
163 200 255
160 197 252
134 165 211
88 109 141
70 88 115
72 89 115
71 89 115
66 83 108
71 89 115
72 89 114
71 90 118
73 91 117
72 91 119
69 86 111
70 88 116
72 90 116
70 87 112
70 87 113
73 91 117
69 85 109
70 88 114
69 86 112
70 87 113
74 92 117
74 91 118
71 89 117
72 90 118
69 87 114
71 88 114
73 90 116
69 86 113
71 89 115
70 87 113
69 86 112
71 88 113
69 86 111
72 89 116
71 89 115
72 89 115
74 91 117
72 90 116
69 86 112
70 89 117
73 90 117
70 88 114
72 89 115
72 89 115
69 86 112
68 85 110
71 88 114
73 90 115
69 86 112
70 87 113
72 90 117
69 86 112
69 86 113
92 114 149
135 167 214
162 199 254
163 200 255
163 200 255
163 200 255
163 200 255
163 200 255
163 200 255
163 200 255
163 200 255
163 200 255
163 200 255
163 200 255
163 200 255
163 200 255
163 200 255
163 200 255
163 200 255
164 200 255
164 200 255
164 200 255
164 200 255
164 200 255
164 201 255
164 201 255
164 201 255
164 201 255
164 201 255
164 201 255
164 201 255
164 201 255
165 201 255
165 201 255
165 201 255
165 201 255
165 201 255
165 201 255
165 201 255
165 201 255
165 201 255
165 201 255
165 201 255
165 201 255
166 202 255
166 202 255
166 202 255
166 202 255
166 202 255
166 202 255
166 202 255
166 202 255
166 202 255
166 202 255
166 202 255
166 202 255
167 202 255
167 202 255
167 202 255
167 202 255
167 202 255
167 202 255
167 202 255
167 203 255
167 203 255
167 203 255
167 203 255
168 203 255
168 203 255
168 203 255
168 203 255
168 203 255
168 203 255
168 203 255
168 203 255
168 203 255
168 203 255
168 203 255
169 203 255
169 203 255
169 203 255
169 203 255
169 204 255
169 204 255
169 204 255
169 204 255
169 204 255
169 204 255
169 204 255
170 204 255
170 204 255
170 204 255
170 204 255
170 204 255
170 204 255
170 204 255
170 204 255
170 204 255
170 204 255
170 204 255
170 204 255
171 205 255
171 205 255
171 205 255
171 205 255
171 205 255
171 205 255
171 205 255
171 205 255
171 205 255
171 205 255
171 205 255
171 205 255
172 205 255
172 205 255
172 205 255
172 205 255
172 205 255
172 205 255
172 205 255
172 205 255
172 205 255
172 206 255
172 206 255
172 206 255
172 206 255
172 206 255
173 206 255
173 206 255
173 206 255
173 206 255
173 206 255
173 206 255
173 206 255
173 206 255
173 206 255
173 206 255
173 206 255
173 206 255
173 206 255
173 206 255
174 206 255
174 206 255
174 206 255
174 206 255
174 206 255
174 207 255
174 207 255
174 207 255
174 207 255
174 207 255
174 207 255
174 207 255
174 207 255
174 207 255
174 207 255
175 207 255
175 207 255
175 207 255
175 207 255
175 207 255
175 207 255
175 207 255
175 207 255
175 207 255
175 207 255
175 207 255
175 207 255
175 207 255
175 207 255
175 207 255
175 207 255
175 207 255
176 208 255
176 208 255
176 208 255
176 208 255
176 208 255
176 208 255
176 208 255
175 207 255
175 207 255
175 207 255
175 207 255
175 207 255
175 207 255
175 207 255
175 207 255
175 207 255
175 207 255
175 207 255
175 207 255
175 207 255
175 207 255
175 207 255
175 207 255
174 207 255
174 207 255
174 207 255
174 207 255
174 207 255
174 207 255
174 207 255
174 207 255
174 207 255
174 207 255
174 206 255
174 206 255
174 206 255
174 206 255
174 206 255
173 206 255
173 206 255
173 206 255
173 206 255
173 206 255
173 206 255
173 206 255
173 206 255
173 206 255
173 206 255
173 206 255
173 206 255
173 206 255
173 206 255
172 206 255
172 206 255
172 206 255
172 206 255
172 206 255
172 205 255
172 205 255
172 205 255
172 205 255
172 205 255
172 205 255
172 205 255
172 205 255
171 205 255
171 205 255
171 205 255
171 205 255
171 205 255
171 205 255
171 205 255
171 205 255
171 205 255
171 205 255
171 205 255
171 205 255
171 205 255
170 204 255
170 204 255
170 204 255
170 204 255
170 204 255
170 204 255
170 204 255
170 204 255
170 204 255
170 204 255
170 204 255
169 204 255
169 204 255
169 204 255
169 204 255
169 204 255
169 204 255
169 204 255
169 204 255
169 203 255
169 203 255
169 203 255
169 203 255
168 203 255
168 203 255
168 203 255
168 203 255
168 203 255
168 203 255
168 203 255
168 203 255
168 203 255
168 203 255
168 203 255
167 203 255
167 203 255
167 203 255
167 203 255
167 202 255
167 202 255
167 202 255
167 202 255
167 202 255
167 202 255
167 202 255
166 202 255
166 202 255
166 202 255
166 202 255
166 202 255
166 202 255
166 202 255
166 202 255
166 202 255
166 202 255
166 202 255
166 202 255
165 201 255
165 201 255
165 201 255
165 201 255
165 201 255
165 201 255
165 201 255
165 201 255
165 201 255
165 201 255
165 201 255
165 201 255
164 201 255
164 201 255
164 201 255
164 201 255
164 201 255
164 201 255
164 201 255
164 201 255
164 201 255
164 200 255
164 200 255
164 200 255
164 200 255
164 200 255
163 200 255
163 200 255
163 200 255
163 200 255
163 200 255
163 200 255
163 200 255
163 200 255
163 200 255
161 198 252
137 169 217
83 103 133
69 87 114
71 88 113
70 88 115
72 89 115
71 89 116
70 88 115
71 88 112
71 89 115
68 85 111
71 88 113
70 86 112
69 85 109
73 92 119
68 85 112
69 86 111
71 88 114
73 90 116
70 87 113
71 89 117
71 88 113
74 90 115
72 89 115
71 88 115
69 85 110
70 87 112
69 86 112
72 88 113
70 87 112
68 85 110
69 87 113
70 87 112
69 87 112
73 91 117
71 88 113
67 83 107
69 86 113
70 87 112
71 89 115
70 87 112
68 84 109
70 88 113
70 89 117
71 89 115
72 89 115
68 85 111
73 92 119
71 88 113
74 93 120
72 90 116
72 89 116
72 89 115
69 86 112
73 92 120
70 88 115
71 89 116
72 89 115
82 102 133
126 155 199
162 199 254
163 200 255
163 200 255
163 200 255
163 200 255
163 200 255
163 200 255
163 200 255
163 200 255
164 200 255
164 200 255
164 200 255
164 200 255
164 200 255
164 201 255
164 201 255
164 201 255
164 201 255
164 201 255
164 201 255
164 201 255
164 201 255
164 201 255
164 201 255
165 201 255
165 201 255
165 201 255
165 201 255
165 201 255
165 201 255
165 201 255
165 201 255
165 201 255
165 201 255
165 201 255
165 201 255
166 202 255
166 202 255
166 202 255
166 202 255
166 202 255
166 202 255
166 202 255
166 202 255
166 202 255
166 202 255
166 202 255
166 202 255
167 202 255
167 202 255
167 202 255
167 202 255
167 202 255
167 202 255
167 202 255
167 203 255
167 203 255
167 203 255
167 203 255
168 203 255
168 203 255
168 203 255
168 203 255
168 203 255
168 203 255
168 203 255
168 203 255
168 203 255
168 203 255
168 203 255
169 203 255
169 203 255
169 203 255
169 203 255
169 204 255
169 204 255
169 204 255
169 204 255
169 204 255
169 204 255
169 204 255
169 204 255
170 204 255
170 204 255
170 204 255
170 204 255
170 204 255
170 204 255
170 204 255
170 204 255
170 204 255
170 204 255
170 204 255
171 205 255
171 205 255
171 205 255
171 205 255
171 205 255
171 205 255
171 205 255
171 205 255
171 205 255
171 205 255
171 205 255
171 205 255
171 205 255
172 205 255
172 205 255
172 205 255
172 205 255
172 205 255
172 205 255
172 205 255
172 205 255
172 206 255
172 206 255
172 206 255
172 206 255
172 206 255
173 206 255
173 206 255
173 206 255
173 206 255
173 206 255
173 206 255
173 206 255
173 206 255
173 206 255
173 206 255
173 206 255
173 206 255
173 206 255
173 206 255
174 206 255
174 206 255
174 206 255
174 206 255
174 206 255
174 207 255
174 207 255
174 207 255
174 207 255
174 207 255
174 207 255
174 207 255
174 207 255
174 207 255
174 207 255
175 207 255
175 207 255
175 207 255
175 207 255
175 207 255
175 207 255
175 207 255
175 207 255
175 207 255
175 207 255
175 207 255
175 207 255
175 207 255
175 207 255
175 207 255
175 207 255
175 207 255
176 208 255
176 208 255
176 208 255
176 208 255
176 208 255
176 208 255
176 208 255
176 208 255
176 208 255
176 208 255
176 208 255
176 208 255
176 208 255
176 208 255
176 208 255
175 207 255
175 207 255
175 207 255
175 207 255
175 207 255
175 207 255
175 207 255
175 207 255
175 207 255
175 207 255
175 207 255
175 207 255
175 207 255
175 207 255
175 207 255
175 207 255
174 207 255
174 207 255
174 207 255
174 207 255
174 207 255
174 207 255
174 207 255
174 207 255
174 207 255
174 207 255
174 206 255
174 206 255
174 206 255
174 206 255
174 206 255
173 206 255
173 206 255
173 206 255
173 206 255
173 206 255
173 206 255
173 206 255
173 206 255
173 206 255
173 206 255
173 206 255
173 206 255
173 206 255
173 206 255
172 206 255
172 206 255
172 206 255
172 206 255
172 206 255
172 205 255
172 205 255
172 205 255
172 205 255
172 205 255
172 205 255
172 205 255
172 205 255
172 205 255
171 205 255
171 205 255
171 205 255
171 205 255
171 205 255
171 205 255
171 205 255
171 205 255
171 205 255
171 205 255
171 205 255
170 204 255
170 204 255
170 204 255
170 204 255
170 204 255
170 204 255
170 204 255
170 204 255
170 204 255
170 204 255
170 204 255
170 204 255
169 204 255
169 204 255
169 204 255
169 204 255
169 204 255
169 204 255
169 204 255
169 204 255
169 203 255
169 203 255
169 203 255
169 203 255
168 203 255
168 203 255
168 203 255
168 203 255
168 203 255
168 203 255
168 203 255
168 203 255
168 203 255
168 203 255
168 203 255
167 203 255
167 203 255
167 203 255
167 203 255
167 202 255
167 202 255
167 202 255
167 202 255
167 202 255
167 202 255
167 202 255
167 202 255
166 202 255
166 202 255
166 202 255
166 202 255
166 202 255
166 202 255
166 202 255
166 202 255
166 202 255
166 202 255
166 202 255
166 202 255
165 201 255
165 201 255
165 201 255
165 201 255
165 201 255
165 201 255
165 201 255
165 201 255
165 201 255
165 201 255
165 201 255
165 201 255
164 201 255
164 201 255
164 201 255
164 201 255
164 201 255
164 201 255
164 201 255
164 201 255
164 201 255
164 201 255
164 200 255
164 200 255
164 200 255
164 200 255
164 200 255
164 200 255
163 200 255
134 164 209
96 119 154
72 90 117
74 92 119
72 89 114
71 88 113
73 90 117
70 87 112
71 88 113
68 86 112
68 85 110
73 90 116
73 91 119
70 88 114
72 90 117
70 86 112
72 90 117
69 86 112
73 91 117
67 84 108
71 88 115
69 85 110
68 85 112
70 87 113
73 90 116
70 88 115
66 84 110
70 86 111
68 86 112
69 86 112
71 89 117
70 87 112
72 90 116
71 89 117
71 89 116
70 86 112
69 85 110
70 87 113
71 89 115
72 89 115
71 88 115
66 83 109
68 85 110
70 87 113
68 86 114
70 88 115
72 90 117
70 86 112
67 84 110
71 89 115
72 89 113
68 85 110
68 86 113
71 88 114
72 90 115
74 91 117
69 86 113
73 92 119
73 91 117
68 84 109
69 87 113
70 87 113
88 110 143
134 165 211
163 199 254
164 200 255
164 200 255
164 200 255
164 200 255
164 200 255
164 200 255
164 201 255
164 201 255
164 201 255
164 201 255
164 201 255
164 201 255
164 201 255
164 201 255
164 201 255
164 201 255
165 201 255
165 201 255
165 201 255
165 201 255
165 201 255
165 201 255
165 201 255
165 201 255
165 201 255
165 201 255
165 201 255
165 201 255
166 202 255
166 202 255
166 202 255
166 202 255
166 202 255
166 202 255
166 202 255
166 202 255
166 202 255
166 202 255
166 202 255
166 202 255
167 202 255
167 202 255
167 202 255
167 202 255
167 202 255
167 202 255
167 202 255
167 202 255
167 203 255
167 203 255
167 203 255
167 203 255
168 203 255
168 203 255
168 203 255
168 203 255
168 203 255
168 203 255
168 203 255
168 203 255
168 203 255
168 203 255
168 203 255
169 203 255
169 203 255
169 203 255
169 203 255
169 204 255
169 204 255
169 204 255
169 204 255
169 204 255
169 204 255
169 204 255
169 204 255
170 204 255
170 204 255
170 204 255
170 204 255
170 204 255
170 204 255
170 204 255
170 204 255
170 204 255
170 204 255
170 204 255
171 205 255
171 205 255
171 205 255
171 205 255
171 205 255
171 205 255
171 205 255
171 205 255
171 205 255
171 205 255
171 205 255
171 205 255
171 205 255
172 205 255
172 205 255
172 205 255
172 205 255
172 205 255
172 205 255
172 205 255
172 205 255
172 206 255
172 206 255
172 206 255
172 206 255
172 206 255
173 206 255
173 206 255
173 206 255
173 206 255
173 206 255
173 206 255
173 206 255
173 206 255
173 206 255
173 206 255
173 206 255
173 206 255
173 206 255
173 206 255
174 206 255
174 206 255
174 206 255
174 206 255
174 206 255
174 207 255
174 207 255
174 207 255
174 207 255
174 207 255
174 207 255
174 207 255
174 207 255
174 207 255
174 207 255
175 207 255
175 207 255
175 207 255
175 207 255
175 207 255
175 207 255
175 207 255
175 207 255
175 207 255
175 207 255
175 207 255
175 207 255
175 207 255
175 207 255
175 207 255
175 207 255
176 208 255
176 208 255
176 208 255
176 208 255
176 208 255
176 208 255
176 208 255
176 208 255
176 208 255
176 208 255
176 208 255
176 208 255
176 208 255
176 208 255
176 208 255
176 208 255
176 208 255
176 208 255
176 208 255
176 208 255
176 208 255
176 208 255
176 208 255
176 208 255
175 207 255
175 207 255
175 207 255
175 207 255
175 207 255
175 207 255
175 207 255
175 207 255
175 207 255
175 207 255
175 207 255
175 207 255
175 207 255
175 207 255
175 207 255
175 207 255
175 207 255
174 207 255
174 207 255
174 207 255
174 207 255
174 207 255
174 207 255
174 207 255
174 207 255
174 207 255
174 207 255
174 206 255
174 206 255
174 206 255
174 206 255
174 206 255
173 206 255
173 206 255
173 206 255
173 206 255
173 206 255
173 206 255
173 206 255
173 206 255
173 206 255
173 206 255
173 206 255
173 206 255
173 206 255
172 206 255
172 206 255
172 206 255
172 206 255
172 206 255
172 205 255
172 205 255
172 205 255
172 205 255
172 205 255
172 205 255
172 205 255
172 205 255
171 205 255
171 205 255
171 205 255
171 205 255
171 205 255
171 205 255
171 205 255
171 205 255
171 205 255
171 205 255
171 205 255
171 205 255
171 205 255
170 204 255
170 204 255
170 204 255
170 204 255
170 204 255
170 204 255
170 204 255
170 204 255
170 204 255
170 204 255
170 204 255
169 204 255
169 204 255
169 204 255
169 204 255
169 204 255
169 204 255
169 204 255
169 204 255
169 203 255
169 203 255
169 203 255
169 203 255
168 203 255
168 203 255
168 203 255
168 203 255
168 203 255
168 203 255
168 203 255
168 203 255
168 203 255
168 203 255
168 203 255
167 203 255
167 203 255
167 203 255
167 203 255
167 202 255
167 202 255
167 202 255
167 202 255
167 202 255
167 202 255
167 202 255
167 202 255
166 202 255
166 202 255
166 202 255
166 202 255
166 202 255
166 202 255
166 202 255
166 202 255
166 202 255
166 202 255
166 202 255
166 202 255
165 201 255
165 201 255
165 201 255
165 201 255
165 201 255
165 201 255
165 201 255
165 201 255
165 201 255
165 201 255
165 201 255
165 201 255
165 201 255
165 201 255
164 201 255
164 201 255
164 201 255
164 201 255
164 201 255
164 201 255
164 201 255
164 201 255
164 201 255
145 177 226
97 119 154
67 84 109
71 88 114
72 89 115
72 89 116
71 88 114
74 91 117
70 87 112
71 88 115
70 87 114
70 88 114
73 90 116
70 87 112
70 87 113
69 86 111
68 86 113
70 87 112
71 88 112
71 88 113
69 87 113
69 86 112
68 85 110
67 84 109
74 91 117
67 83 107
71 89 117
69 87 113
68 86 112
71 88 114
70 87 112
71 89 115
72 89 115
68 85 111
66 83 108
71 88 114
68 85 112
68 84 108
71 89 117
72 89 116
69 86 112
70 87 113
70 87 112
73 91 117
72 88 112
71 88 113
70 87 112
65 82 107
70 87 113
66 84 110
70 86 111
66 83 108
70 87 113
68 85 111
70 86 111
71 89 115
70 87 113
70 87 111
71 89 116
75 93 120
71 89 115
68 84 109
68 85 111
71 88 113
66 84 109
68 83 107
97 119 151
150 184 235
164 201 255
164 201 255
164 201 255
164 201 255
164 201 255
164 201 255
164 201 255
164 201 255
164 201 255
165 201 255
165 201 255
165 201 255
165 201 255
165 201 255
165 201 255
165 201 255
165 201 255
165 201 255
165 201 255
165 201 255
165 201 255
165 201 255
166 202 255
166 202 255
166 202 255
166 202 255
166 202 255
166 202 255
166 202 255
166 202 255
166 202 255
166 202 255
166 202 255
166 202 255
166 202 255
167 202 255
167 202 255
167 202 255
167 202 255
167 202 255
167 202 255
167 202 255
167 202 255
167 203 255
167 203 255
167 203 255
168 203 255
168 203 255
168 203 255
168 203 255
168 203 255
168 203 255
168 203 255
168 203 255
168 203 255
168 203 255
168 203 255
168 203 255
169 203 255
169 203 255
169 203 255
169 203 255
169 204 255
169 204 255
169 204 255
169 204 255
169 204 255
169 204 255
169 204 255
169 204 255
170 204 255
170 204 255
170 204 255
170 204 255
170 204 255
170 204 255
170 204 255
170 204 255
170 204 255
170 204 255
170 204 255
170 204 255
171 205 255
171 205 255
171 205 255
171 205 255
171 205 255
171 205 255
171 205 255
171 205 255
171 205 255
171 205 255
171 205 255
171 205 255
172 205 255
172 205 255
172 205 255
172 205 255
172 205 255
172 205 255
172 205 255
172 205 255
172 206 255
172 206 255
172 206 255
172 206 255
172 206 255
173 206 255
173 206 255
173 206 255
173 206 255
173 206 255
173 206 255
173 206 255
173 206 255
173 206 255
173 206 255
173 206 255
173 206 255
173 206 255
174 206 255
174 206 255
174 206 255
174 206 255
174 206 255
174 207 255
174 207 255
174 207 255
174 207 255
174 207 255
174 207 255
174 207 255
174 207 255
174 207 255
174 207 255
175 207 255
175 207 255
175 207 255
175 207 255
175 207 255
175 207 255
175 207 255
175 207 255
175 207 255
175 207 255
175 207 255
175 207 255
175 207 255
175 207 255
175 207 255
175 207 255
175 207 255
176 208 255
176 208 255
176 208 255
176 208 255
176 208 255
176 208 255
176 208 255
176 208 255
176 208 255
176 208 255
176 208 255
176 208 255
176 208 255
176 208 255
177 208 255
177 208 255
176 208 255
176 208 255
176 208 255
176 208 255
176 208 255
176 208 255
176 208 255
176 208 255
176 208 255
176 208 255
176 208 255
176 208 255
176 208 255
176 208 255
176 208 255
176 208 255
176 208 255
175 207 255
175 207 255
175 207 255
175 207 255
175 207 255
175 207 255
175 207 255
175 207 255
175 207 255
175 207 255
175 207 255
175 207 255
175 207 255
175 207 255
175 207 255
175 207 255
174 207 255
174 207 255
174 207 255
174 207 255
174 207 255
174 207 255
174 207 255
174 207 255
174 207 255
174 207 255
174 206 255
174 206 255
174 206 255
174 206 255
174 206 255
173 206 255
173 206 255
173 206 255
173 206 255
173 206 255
173 206 255
173 206 255
173 206 255
173 206 255
173 206 255
173 206 255
173 206 255
173 206 255
172 206 255
172 206 255
172 206 255
172 206 255
172 206 255
172 205 255
172 205 255
172 205 255
172 205 255
172 205 255
172 205 255
172 205 255
172 205 255
171 205 255
171 205 255
171 205 255
171 205 255
171 205 255
171 205 255
171 205 255
171 205 255
171 205 255
171 205 255
171 205 255
171 205 255
171 205 255
170 204 255
170 204 255
170 204 255
170 204 255
170 204 255
170 204 255
170 204 255
170 204 255
170 204 255
170 204 255
170 204 255
169 204 255
169 204 255
169 204 255
169 204 255
169 204 255
169 204 255
169 204 255
169 204 255
169 203 255
169 203 255
169 203 255
169 203 255
168 203 255
168 203 255
168 203 255
168 203 255
168 203 255
168 203 255
168 203 255
168 203 255
168 203 255
168 203 255
168 203 255
168 203 255
167 203 255
167 203 255
167 203 255
167 203 255
167 202 255
167 202 255
167 202 255
167 202 255
167 202 255
167 202 255
167 202 255
167 202 255
166 202 255
166 202 255
166 202 255
166 202 255
166 202 255
166 202 255
166 202 255
166 202 255
166 202 255
166 202 255
166 202 255
166 202 255
166 202 255
165 201 255
165 201 255
165 201 255
165 201 255
165 201 255
165 201 255
165 201 255
165 201 255
165 201 255
165 201 255
165 201 255
165 201 255
165 201 255
165 201 255
165 201 255
160 195 248
117 145 186
71 88 115
75 92 118
66 82 107
71 88 113
69 86 111
71 89 116
72 89 115
69 86 112
67 84 109
70 87 113
70 88 116
69 86 112
70 88 114
68 85 109
73 90 116
69 87 114
68 85 110
70 85 109
69 85 110
71 88 114
67 84 108
65 82 107
68 85 111
66 82 106
67 84 109
67 84 110
70 87 112
69 85 111
68 84 109
69 86 111
70 86 111
70 86 111
71 88 114
71 88 114
70 86 111
67 85 111
68 85 111
70 87 113
66 83 108
67 83 109
70 86 110
70 87 112
70 86 112
71 88 113
69 86 112
70 87 114
69 87 113
69 86 112
69 85 110
69 85 110
69 85 108
67 83 108
69 85 109
70 86 111
68 84 109
68 85 111
68 85 111
71 88 115
70 88 114
72 89 113
71 88 114
72 89 115
69 86 112
71 88 114
69 86 112
72 90 118
73 91 117
72 90 118
112 138 177
163 199 253
165 201 255
165 201 255
165 201 255
165 201 255
165 201 255
165 201 255
165 201 255
165 201 255
165 201 255
165 201 255
165 201 255
165 201 255
165 201 255
165 201 255
165 201 255
166 202 255
166 202 255
166 202 255
166 202 255
166 202 255
166 202 255
166 202 255
166 202 255
166 202 255
166 202 255
166 202 255
166 202 255
166 202 255
167 202 255
167 202 255
167 202 255
167 202 255
167 202 255
167 202 255
167 202 255
167 202 255
167 203 255
167 203 255
167 203 255
167 203 255
168 203 255
168 203 255
168 203 255
168 203 255
168 203 255
168 203 255
168 203 255
168 203 255
168 203 255
168 203 255
168 203 255
168 203 255
169 203 255
169 203 255
169 203 255
169 203 255
169 204 255
169 204 255
169 204 255
169 204 255
169 204 255
169 204 255
169 204 255
169 204 255
170 204 255
170 204 255
170 204 255
170 204 255
170 204 255
170 204 255
170 204 255
170 204 255
170 204 255
170 204 255
170 204 255
171 205 255
171 205 255
171 205 255
171 205 255
171 205 255
171 205 255
171 205 255
171 205 255
171 205 255
171 205 255
171 205 255
171 205 255
171 205 255
172 205 255
172 205 255
172 205 255
172 205 255
172 205 255
172 205 255
172 205 255
172 205 255
172 206 255
172 206 255
172 206 255
172 206 255
173 206 255
173 206 255
173 206 255
173 206 255
173 206 255
173 206 255
173 206 255
173 206 255
173 206 255
173 206 255
173 206 255
173 206 255
173 206 255
173 206 255
174 206 255
174 206 255
174 206 255
174 206 255
174 206 255
174 207 255
174 207 255
174 207 255
174 207 255
174 207 255
174 207 255
174 207 255
174 207 255
174 207 255
174 207 255
175 207 255
175 207 255
175 207 255
175 207 255
175 207 255
175 207 255
175 207 255
175 207 255
175 207 255
175 207 255
175 207 255
175 207 255
175 207 255
175 207 255
175 207 255
175 207 255
176 208 255
176 208 255
176 208 255
176 208 255
176 208 255
176 208 255
176 208 255
176 208 255
176 208 255
176 208 255
176 208 255
176 208 255
176 208 255
176 208 255
176 208 255
176 208 255
176 208 255
177 208 255
177 208 255
177 208 255
177 208 255
177 208 255
177 208 255
177 208 255
177 208 255
176 208 255
176 208 255
176 208 255
176 208 255
176 208 255
176 208 255
176 208 255
176 208 255
176 208 255
176 208 255
176 208 255
176 208 255
176 208 255
176 208 255
176 208 255
176 208 255
176 208 255
176 208 255
175 207 255
175 207 255
175 207 255
175 207 255
175 207 255
175 207 255
175 207 255
175 207 255
175 207 255
175 207 255
175 207 255
175 207 255
175 207 255
175 207 255
175 207 255
174 207 255
174 207 255
174 207 255
174 207 255
174 207 255
174 207 255
174 207 255
174 207 255
174 207 255
174 207 255
174 206 255
174 206 255
174 206 255
174 206 255
174 206 255
173 206 255
173 206 255
173 206 255
173 206 255
173 206 255
173 206 255
173 206 255
173 206 255
173 206 255
173 206 255
173 206 255
173 206 255
173 206 255
173 206 255
172 206 255
172 206 255
172 206 255
172 206 255
172 205 255
172 205 255
172 205 255
172 205 255
172 205 255
172 205 255
172 205 255
172 205 255
171 205 255
171 205 255
171 205 255
171 205 255
171 205 255
171 205 255
171 205 255
171 205 255
171 205 255
171 205 255
171 205 255
171 205 255
171 205 255
170 204 255
170 204 255
170 204 255
170 204 255
170 204 255
170 204 255
170 204 255
170 204 255
170 204 255
170 204 255
170 204 255
170 204 255
169 204 255
169 204 255
169 204 255
169 204 255
169 204 255
169 204 255
169 204 255
169 203 255
169 203 255
169 203 255
169 203 255
169 203 255
168 203 255
168 203 255
168 203 255
168 203 255
168 203 255
168 203 255
168 203 255
168 203 255
168 203 255
168 203 255
168 203 255
167 203 255
167 203 255
167 203 255
167 203 255
167 202 255
167 202 255
167 202 255
167 202 255
167 202 255
167 202 255
167 202 255
167 202 255
166 202 255
166 202 255
166 202 255
166 202 255
166 202 255
166 202 255
166 202 255
166 202 255
166 202 255
166 202 255
166 202 255
166 202 255
166 202 255
166 202 255
165 201 255
165 201 255
165 201 255
165 201 255
165 201 255
165 201 255
165 201 255
165 201 255
165 201 255
146 178 227
79 98 126
69 86 111
68 85 110
68 85 110
70 87 112
69 86 112
68 85 111
70 87 112
69 86 111
67 83 108
67 84 110
66 82 107
67 84 110
68 85 112
68 85 110
68 85 112
68 85 110
70 87 114
70 87 112
73 90 117
75 93 120
69 86 111
67 85 112
70 88 115
68 84 108
69 86 112
70 86 111
71 89 116
69 86 110
70 88 114
69 86 112
70 86 110
66 83 108
67 84 109
66 82 107
70 88 114
71 88 113
70 87 112
68 84 108
68 84 108
70 87 112
66 83 108
70 88 114
70 85 109
68 85 109
66 82 107
65 81 104
72 89 116
71 89 115
73 90 116
70 87 113
69 86 112
66 83 109
67 84 110
71 88 113
70 87 113
72 90 117
69 86 112
72 90 115
70 87 112
72 90 117
69 86 112
67 84 110
75 92 117
69 87 114
71 88 114
67 84 110
70 87 113
74 91 117
71 88 115
70 88 115
80 100 129
137 168 214
165 201 255
165 201 255
165 201 255
165 201 255
165 201 255
165 201 255
165 201 255
165 201 255
165 201 255
166 202 255
166 202 255
166 202 255
166 202 255
166 202 255
166 202 255
166 202 255
166 202 255
166 202 255
166 202 255
166 202 255
166 202 255
166 202 255
167 202 255
167 202 255
167 202 255
167 202 255
167 202 255
167 202 255
167 202 255
167 202 255
167 202 255
167 203 255
167 203 255
167 203 255
167 203 255
168 203 255
168 203 255
168 203 255
168 203 255
168 203 255
168 203 255
168 203 255
168 203 255
168 203 255
168 203 255
168 203 255
168 203 255
169 203 255
169 203 255
169 203 255
169 203 255
169 204 255
169 204 255
169 204 255
169 204 255
169 204 255
169 204 255
169 204 255
170 204 255
170 204 255
170 204 255
170 204 255
170 204 255
170 204 255
170 204 255
170 204 255
170 204 255
170 204 255
170 204 255
170 204 255
171 205 255
171 205 255
171 205 255
171 205 255
171 205 255
171 205 255
171 205 255
171 205 255
171 205 255
171 205 255
171 205 255
171 205 255
171 205 255
172 205 255
172 205 255
172 205 255
172 205 255
172 205 255
172 205 255
172 205 255
172 205 255
172 206 255
172 206 255
172 206 255
172 206 255
172 206 255
173 206 255
173 206 255
173 206 255
173 206 255
173 206 255
173 206 255
173 206 255
173 206 255
173 206 255
173 206 255
173 206 255
173 206 255
173 206 255
174 206 255
174 206 255
174 206 255
174 206 255
174 206 255
174 207 255
174 207 255
174 207 255
174 207 255
174 207 255
174 207 255
174 207 255
174 207 255
174 207 255
175 207 255
175 207 255
175 207 255
175 207 255
175 207 255
175 207 255
175 207 255
175 207 255
175 207 255
175 207 255
175 207 255
175 207 255
175 207 255
175 207 255
175 207 255
175 207 255
176 208 255
176 208 255
176 208 255
176 208 255
176 208 255
176 208 255
176 208 255
176 208 255
176 208 255
176 208 255
176 208 255
176 208 255
176 208 255
176 208 255
176 208 255
176 208 255
176 208 255
177 208 255
177 208 255
177 208 255
177 208 255
177 208 255
177 208 255
177 208 255
177 208 255
177 208 255
177 208 255
177 208 255
177 208 255
177 208 255
177 208 255
177 208 255
177 208 255
177 208 255
177 208 255
176 208 255
176 208 255
176 208 255
176 208 255
176 208 255
176 208 255
176 208 255
176 208 255
176 208 255
176 208 255
176 208 255
176 208 255
176 208 255
176 208 255
176 208 255
176 208 255
176 208 255
175 207 255
175 207 255
175 207 255
175 207 255
175 207 255
175 207 255
175 207 255
175 207 255
175 207 255
175 207 255
175 207 255
175 207 255
175 207 255
175 207 255
175 207 255
175 207 255
174 207 255
174 207 255
174 207 255
174 207 255
174 207 255
174 207 255
174 207 255
174 207 255
174 207 255
174 207 255
174 206 255
174 206 255
174 206 255
174 206 255
173 206 255
173 206 255
173 206 255
173 206 255
173 206 255
173 206 255
173 206 255
173 206 255
173 206 255
173 206 255
173 206 255
173 206 255
173 206 255
173 206 255
172 206 255
172 206 255
172 206 255
172 206 255
172 205 255
172 205 255
172 205 255
172 205 255
172 205 255
172 205 255
172 205 255
172 205 255
171 205 255
171 205 255
171 205 255
171 205 255
171 205 255
171 205 255
171 205 255
171 205 255
171 205 255
171 205 255
171 205 255
171 205 255
171 205 255
170 204 255
170 204 255
170 204 255
170 204 255
170 204 255
170 204 255
170 204 255
170 204 255
170 204 255
170 204 255
170 204 255
170 204 255
169 204 255
169 204 255
169 204 255
169 204 255
169 204 255
169 204 255
169 204 255
169 204 255
169 203 255
169 203 255
169 203 255
169 203 255
168 203 255
168 203 255
168 203 255
168 203 255
168 203 255
168 203 255
168 203 255
168 203 255
168 203 255
168 203 255
168 203 255
168 203 255
167 203 255
167 203 255
167 203 255
167 203 255
167 202 255
167 202 255
167 202 255
167 202 255
167 202 255
167 202 255
167 202 255
167 202 255
167 202 255
166 202 255
166 202 255
166 202 255
166 202 255
166 202 255
166 202 255
166 202 255
166 202 255
166 202 255
166 202 255
166 202 255
166 202 255
166 202 255
166 202 255
165 201 255
164 199 253
116 142 182
72 90 117
73 92 119
71 88 113
70 88 114
72 89 114
66 82 107
70 87 112
71 87 112
68 85 109
72 90 116
69 86 111
71 88 114
71 88 114
69 86 111
69 86 112
67 85 112
72 89 116
69 86 112
72 90 116
69 87 113
67 83 108
70 87 112
68 86 113
69 86 110
68 84 109
65 82 107
67 83 106
67 84 110
68 86 112
71 88 114
65 82 106
70 87 113
66 82 106
68 84 109
67 85 110
68 84 109
70 86 112
67 84 109
71 88 113
68 86 112
69 85 108
67 84 109
70 87 112
68 86 111
67 83 107
68 85 111
68 86 112
66 83 109
71 89 115
68 84 108
69 87 114
68 85 110
69 87 113
69 85 111
68 84 110
70 88 116
70 88 114
71 88 113
71 88 113
68 85 110
65 83 108
69 86 111
70 86 110
71 89 116
70 88 115
68 85 110
74 91 116
71 90 117
67 84 109
71 88 114
68 84 109
70 88 115
71 89 115
72 90 117
108 133 171
165 201 255
166 202 255
166 202 255
166 202 255
166 202 255
166 202 255
166 202 255
166 202 255
166 202 255
166 202 255
166 202 255
166 202 255
166 202 255
166 202 255
166 202 255
166 202 255
167 202 255
167 202 255
167 202 255
167 202 255
167 202 255
167 202 255
167 202 255
167 202 255
167 202 255
167 203 255
167 203 255
167 203 255
167 203 255
168 203 255
168 203 255
168 203 255
168 203 255
168 203 255
168 203 255
168 203 255
168 203 255
168 203 255
168 203 255
168 203 255
168 203 255
169 203 255
169 203 255
169 203 255
169 203 255
169 204 255
169 204 255
169 204 255
169 204 255
169 204 255
169 204 255
169 204 255
169 204 255
170 204 255
170 204 255
170 204 255
170 204 255
170 204 255
170 204 255
170 204 255
170 204 255
170 204 255
170 204 255
170 204 255
170 204 255
171 205 255
171 205 255
171 205 255
171 205 255
171 205 255
171 205 255
171 205 255
171 205 255
171 205 255
171 205 255
171 205 255
171 205 255
172 205 255
172 205 255
172 205 255
172 205 255
172 205 255
172 205 255
172 205 255
172 205 255
172 205 255
172 206 255
172 206 255
172 206 255
172 206 255
173 206 255
173 206 255
173 206 255
173 206 255
173 206 255
173 206 255
173 206 255
173 206 255
173 206 255
173 206 255
173 206 255
173 206 255
173 206 255
174 206 255
174 206 255
174 206 255
174 206 255
174 206 255
174 207 255
174 207 255
174 207 255
174 207 255
174 207 255
174 207 255
174 207 255
174 207 255
174 207 255
174 207 255
175 207 255
175 207 255
175 207 255
175 207 255
175 207 255
175 207 255
175 207 255
175 207 255
175 207 255
175 207 255
175 207 255
175 207 255
175 207 255
175 207 255
175 207 255
175 207 255
176 208 255
176 208 255
176 208 255
176 208 255
176 208 255
176 208 255
176 208 255
176 208 255
176 208 255
176 208 255
176 208 255
176 208 255
176 208 255
176 208 255
176 208 255
176 208 255
176 208 255
177 208 255
177 208 255
177 208 255
177 208 255
177 208 255
177 208 255
177 208 255
177 208 255
177 208 255
177 208 255
177 208 255
177 209 255
177 209 255
177 209 255
177 209 255
177 208 255
177 208 255
177 208 255
177 208 255
177 208 255
177 208 255
177 208 255
177 208 255
177 208 255
177 208 255
177 208 255
177 208 255
176 208 255
176 208 255
176 208 255
176 208 255
176 208 255
176 208 255
176 208 255
176 208 255
176 208 255
176 208 255
176 208 255
176 208 255
176 208 255
176 208 255
176 208 255
176 208 255
176 208 255
175 207 255
175 207 255
175 207 255
175 207 255
175 207 255
175 207 255
175 207 255
175 207 255
175 207 255
175 207 255
175 207 255
175 207 255
175 207 255
175 207 255
175 207 255
175 207 255
174 207 255
174 207 255
174 207 255
174 207 255
174 207 255
174 207 255
174 207 255
174 207 255
174 207 255
174 206 255
174 206 255
174 206 255
174 206 255
174 206 255
173 206 255
173 206 255
173 206 255
173 206 255
173 206 255
173 206 255
173 206 255
173 206 255
173 206 255
173 206 255
173 206 255
173 206 255
173 206 255
172 206 255
172 206 255
172 206 255
172 206 255
172 206 255
172 205 255
172 205 255
172 205 255
172 205 255
172 205 255
172 205 255
172 205 255
172 205 255
171 205 255
171 205 255
171 205 255
171 205 255
171 205 255
171 205 255
171 205 255
171 205 255
171 205 255
171 205 255
171 205 255
171 205 255
170 204 255
170 204 255
170 204 255
170 204 255
170 204 255
170 204 255
170 204 255
170 204 255
170 204 255
170 204 255
170 204 255
170 204 255
169 204 255
169 204 255
169 204 255
169 204 255
169 204 255
169 204 255
169 204 255
169 204 255
169 203 255
169 203 255
169 203 255
169 203 255
168 203 255
168 203 255
168 203 255
168 203 255
168 203 255
168 203 255
168 203 255
168 203 255
168 203 255
168 203 255
168 203 255
168 203 255
168 203 255
167 203 255
167 203 255
167 203 255
167 203 255
167 202 255
167 202 255
167 202 255
167 202 255
167 202 255
167 202 255
167 202 255
167 202 255
167 202 255
167 202 255
166 202 255
166 202 255
166 202 255
166 202 255
166 202 255
166 202 255
166 202 255
166 202 255
156 190 240
89 110 142
74 91 116
72 90 117
69 86 112
68 86 114
69 86 112
69 84 107
69 85 109
67 83 108
66 83 108
69 86 113
69 85 110
68 85 110
69 86 111
69 85 110
68 85 111
69 86 113
68 85 110
71 87 113
69 88 115
69 84 108
70 87 112
70 87 113
70 88 114
69 85 110
68 84 108
71 88 114
70 87 113
70 87 113
66 82 107
69 85 110
67 85 111
69 86 112
67 84 109
64 80 104
68 84 108
68 84 110
69 86 110
72 89 115
67 84 109
67 84 109
68 85 112
70 87 113
69 87 113
68 84 109
66 83 108
67 84 110
67 83 108
70 87 113
69 86 111
68 84 109
66 82 107
65 82 107
66 83 108
67 83 108
68 85 110
72 88 113
73 90 117
70 87 111
68 84 109
70 87 113
67 83 108
69 86 112
66 83 109
71 88 114
67 83 108
72 89 114
70 86 111
71 88 115
72 88 113
68 86 112
71 88 113
68 85 111
70 87 112
69 85 109
72 90 116
72 90 116
93 114 147
151 184 234
166 202 255
166 202 255
166 202 255
166 202 255
166 202 255
166 202 255
166 202 255
166 202 255
166 202 255
167 202 255
167 202 255
167 202 255
167 202 255
167 202 255
167 202 255
167 202 255
167 202 255
167 202 255
167 203 255
167 203 255
167 203 255
167 203 255
168 203 255
168 203 255
168 203 255
168 203 255
168 203 255
168 203 255
168 203 255
168 203 255
168 203 255
168 203 255
168 203 255
168 203 255
168 203 255
169 203 255
169 203 255
169 203 255
169 203 255
169 204 255
169 204 255
169 204 255
169 204 255
169 204 255
169 204 255
169 204 255
169 204 255
170 204 255
170 204 255
170 204 255
170 204 255
170 204 255
170 204 255
170 204 255
170 204 255
170 204 255
170 204 255
170 204 255
170 204 255
171 205 255
171 205 255
171 205 255
171 205 255
171 205 255
171 205 255
171 205 255
171 205 255
171 205 255
171 205 255
171 205 255
171 205 255
172 205 255
172 205 255
172 205 255
172 205 255
172 205 255
172 205 255
172 205 255
172 205 255
172 205 255
172 206 255
172 206 255
172 206 255
172 206 255
173 206 255
173 206 255
173 206 255
173 206 255
173 206 255
173 206 255
173 206 255
173 206 255
173 206 255
173 206 255
173 206 255
173 206 255
173 206 255
174 206 255
174 206 255
174 206 255
174 206 255
174 206 255
174 207 255
174 207 255
174 207 255
174 207 255
174 207 255
174 207 255
174 207 255
174 207 255
174 207 255
174 207 255
175 207 255
175 207 255
175 207 255
175 207 255
175 207 255
175 207 255
175 207 255
175 207 255
175 207 255
175 207 255
175 207 255
175 207 255
175 207 255
175 207 255
175 207 255
176 208 255
176 208 255
176 208 255
176 208 255
176 208 255
176 208 255
176 208 255
176 208 255
176 208 255
176 208 255
176 208 255
176 208 255
176 208 255
176 208 255
176 208 255
176 208 255
176 208 255
177 208 255
177 208 255
177 208 255
177 208 255
177 208 255
177 208 255
177 208 255
177 208 255
177 208 255
177 208 255
177 208 255
177 208 255
177 209 255
177 209 255
177 209 255
177 209 255
178 209 255
178 209 255
177 209 255
177 209 255
177 209 255
177 209 255
177 209 255
177 209 255
177 209 255
177 208 255
177 208 255
177 208 255
177 208 255
177 208 255
177 208 255
177 208 255
177 208 255
177 208 255
177 208 255
177 208 255
177 208 255
176 208 255
176 208 255
176 208 255
176 208 255
176 208 255
176 208 255
176 208 255
176 208 255
176 208 255
176 208 255
176 208 255
176 208 255
176 208 255
176 208 255
176 208 255
176 208 255
175 207 255
175 207 255
175 207 255
175 207 255
175 207 255
175 207 255
175 207 255
175 207 255
175 207 255
175 207 255
175 207 255
175 207 255
175 207 255
175 207 255
175 207 255
175 207 255
174 207 255
174 207 255
174 207 255
174 207 255
174 207 255
174 207 255
174 207 255
174 207 255
174 207 255
174 207 255
174 206 255
174 206 255
174 206 255
174 206 255
173 206 255
173 206 255
173 206 255
173 206 255
173 206 255
173 206 255
173 206 255
173 206 255
173 206 255
173 206 255
173 206 255
173 206 255
173 206 255
173 206 255
172 206 255
172 206 255
172 206 255
172 206 255
172 205 255
172 205 255
172 205 255
172 205 255
172 205 255
172 205 255
172 205 255
172 205 255
171 205 255
171 205 255
171 205 255
171 205 255
171 205 255
171 205 255
171 205 255
171 205 255
171 205 255
171 205 255
171 205 255
171 205 255
171 205 255
170 204 255
170 204 255
170 204 255
170 204 255
170 204 255
170 204 255
170 204 255
170 204 255
170 204 255
170 204 255
170 204 255
170 204 255
169 204 255
169 204 255
169 204 255
169 204 255
169 204 255
169 204 255
169 204 255
169 204 255
169 203 255
169 203 255
169 203 255
169 203 255
168 203 255
168 203 255
168 203 255
168 203 255
168 203 255
168 203 255
168 203 255
168 203 255
168 203 255
168 203 255
168 203 255
168 203 255
168 203 255
167 203 255
167 203 255
167 203 255
167 203 255
167 203 255
167 202 255
167 202 255
167 202 255
167 202 255
167 202 255
167 202 255
167 202 255
167 202 255
167 202 255
167 202 255
166 202 255
144 176 224
76 93 120
68 86 112
64 81 106
70 88 114
70 86 111
68 85 111
72 89 115
67 83 108
67 83 108
72 88 112
66 81 105
68 85 111
67 84 110
67 84 108
71 89 115
68 85 110
67 84 110
66 82 106
68 84 109
68 84 107
70 87 112
68 84 110
72 90 116
69 86 111
69 86 112
68 85 110
66 82 105
72 90 116
69 87 113
70 87 112
67 84 109
64 81 105
67 84 110
67 84 108
65 81 106
69 86 112
70 87 112
67 84 109
68 85 112
73 90 116
68 85 110
71 87 112
66 83 108
65 81 106
70 87 112
67 84 110
67 85 110
67 84 109
67 84 110
67 84 109
63 80 105
65 82 108
68 85 111
69 87 113
71 87 112
71 88 114
68 86 112
70 87 113
67 83 108
68 84 109
65 80 103
71 88 113
66 84 110
65 81 106
72 89 116
68 85 111
68 85 110
72 90 117
71 88 115
70 87 113
70 88 114
70 87 114
70 87 112
70 87 114
71 87 112
67 85 112
65 82 108
68 85 110
69 85 110
79 97 125
140 171 217
166 202 255
166 202 255
167 202 255
167 202 255
167 202 255
167 202 255
167 202 255
167 202 255
167 202 255
167 202 255
167 202 255
167 203 255
167 203 255
167 203 255
167 203 255
167 203 255
168 203 255
168 203 255
168 203 255
168 203 255
168 203 255
168 203 255
168 203 255
168 203 255
168 203 255
168 203 255
168 203 255
168 203 255
168 203 255
169 203 255
169 203 255
169 203 255
169 203 255
169 204 255
169 204 255
169 204 255
169 204 255
169 204 255
169 204 255
169 204 255
169 204 255
170 204 255
170 204 255
170 204 255
170 204 255
170 204 255
170 204 255
170 204 255
170 204 255
170 204 255
170 204 255
170 204 255
170 204 255
171 205 255
171 205 255
171 205 255
171 205 255
171 205 255
171 205 255
171 205 255
171 205 255
171 205 255
171 205 255
171 205 255
171 205 255
171 205 255
172 205 255
172 205 255
172 205 255
172 205 255
172 205 255
172 205 255
172 205 255
172 205 255
172 206 255
172 206 255
172 206 255
172 206 255
172 206 255
173 206 255
173 206 255
173 206 255
173 206 255
173 206 255
173 206 255
173 206 255
173 206 255
173 206 255
173 206 255
173 206 255
173 206 255
173 206 255
174 206 255
174 206 255
174 206 255
174 206 255
174 207 255
174 207 255
174 207 255
174 207 255
174 207 255
174 207 255
174 207 255
174 207 255
174 207 255
174 207 255
175 207 255
175 207 255
175 207 255
175 207 255
175 207 255
175 207 255
175 207 255
175 207 255
175 207 255
175 207 255
175 207 255
175 207 255
175 207 255
175 207 255
175 207 255
176 208 255
176 208 255
176 208 255
176 208 255
176 208 255
176 208 255
176 208 255
176 208 255
176 208 255
176 208 255
176 208 255
176 208 255
176 208 255
176 208 255
176 208 255
176 208 255
176 208 255
177 208 255
177 208 255
177 208 255
177 208 255
177 208 255
177 208 255
177 208 255
177 208 255
177 208 255
177 208 255
177 208 255
177 208 255
177 209 255
177 209 255
177 209 255
177 209 255
177 209 255
177 209 255
177 209 255
178 209 255
178 209 255
178 209 255
178 209 255
178 209 255
178 209 255
178 209 255
178 209 255
178 209 255
178 209 255
177 209 255
177 209 255
177 209 255
177 209 255
177 209 255
177 208 255
177 208 255
177 208 255
177 208 255
177 208 255
177 208 255
177 208 255
177 208 255
177 208 255
177 208 255
177 208 255
177 208 255
177 208 255
176 208 255
176 208 255
176 208 255
176 208 255
176 208 255
176 208 255
176 208 255
176 208 255
176 208 255
176 208 255
176 208 255
176 208 255
176 208 255
176 208 255
176 208 255
176 208 255
175 207 255
175 207 255
175 207 255
175 207 255
175 207 255
175 207 255
175 207 255
175 207 255
175 207 255
175 207 255
175 207 255
175 207 255
175 207 255
175 207 255
175 207 255
175 207 255
174 207 255
174 207 255
174 207 255
174 207 255
174 207 255
174 207 255
174 207 255
174 207 255
174 207 255
174 206 255
174 206 255
174 206 255
174 206 255
174 206 255
173 206 255
173 206 255
173 206 255
173 206 255
173 206 255
173 206 255
173 206 255
173 206 255
173 206 255
173 206 255
173 206 255
173 206 255
173 206 255
172 206 255
172 206 255
172 206 255
172 206 255
172 205 255
172 205 255
172 205 255
172 205 255
172 205 255
172 205 255
172 205 255
172 205 255
172 205 255
171 205 255
171 205 255
171 205 255
171 205 255
171 205 255
171 205 255
171 205 255
171 205 255
171 205 255
171 205 255
171 205 255
171 205 255
170 204 255
170 204 255
170 204 255
170 204 255
170 204 255
170 204 255
170 204 255
170 204 255
170 204 255
170 204 255
170 204 255
170 204 255
169 204 255
169 204 255
169 204 255
169 204 255
169 204 255
169 204 255
169 204 255
169 204 255
169 204 255
169 203 255
169 203 255
169 203 255
169 203 255
168 203 255
168 203 255
168 203 255
168 203 255
168 203 255
168 203 255
168 203 255
168 203 255
168 203 255
168 203 255
168 203 255
168 203 255
168 203 255
168 203 255
167 203 255
167 203 255
167 203 255
167 203 255
167 203 255
167 202 255
167 202 255
167 202 255
166 201 254
118 144 183
74 91 117
72 89 116
68 85 109
66 84 110
69 85 111
72 89 114
72 90 117
68 84 108
67 84 109
73 90 116
70 87 111
70 88 113
68 85 110
68 85 111
70 86 110
67 84 108
68 85 110
69 86 111
65 82 107
70 87 112
73 89 113
68 85 110
69 86 112
70 87 112
70 86 112
68 84 108
68 85 110
66 82 106
69 85 110
67 85 111
68 84 110
68 84 108
68 84 107
69 86 112
68 86 112
70 87 112
69 86 112
69 86 111
64 81 105
67 83 108
66 83 108
68 86 112
66 83 108
67 84 110
68 86 112
72 90 116
66 82 106
71 88 114
69 86 112
67 84 109
69 86 111
70 87 112
66 82 106
72 89 116
69 86 112
69 85 110
66 83 107
69 86 112
72 88 114
69 87 113
66 83 109
68 84 108
67 84 110
67 84 109
69 86 111
70 87 112
73 89 115
70 86 111
69 85 110
69 85 109
70 87 113
66 82 106
69 86 111
71 88 114
67 83 108
65 81 105
69 87 114
69 86 113
67 84 111
69 87 113
68 85 111
72 90 117
116 142 180
167 202 255
167 202 255
167 202 255
167 202 255
167 203 255
167 203 255
167 203 255
167 203 255
167 203 255
168 203 255
168 203 255
168 203 255
168 203 255
168 203 255
168 203 255
168 203 255
168 203 255
168 203 255
168 203 255
168 203 255
168 203 255
168 203 255
168 203 255
169 203 255
169 203 255
169 203 255
169 203 255
169 204 255
169 204 255
169 204 255
169 204 255
169 204 255
169 204 255
169 204 255
169 204 255
170 204 255
170 204 255
170 204 255
170 204 255
170 204 255
170 204 255
170 204 255
170 204 255
170 204 255
170 204 255
170 204 255
170 204 255
170 204 255
171 205 255
171 205 255
171 205 255
171 205 255
171 205 255
171 205 255
171 205 255
171 205 255
171 205 255
171 205 255
171 205 255
171 205 255
172 205 255
172 205 255
172 205 255
172 205 255
172 205 255
172 205 255
172 205 255
172 205 255
172 205 255
172 206 255
172 206 255
172 206 255
172 206 255
173 206 255
173 206 255
173 206 255
173 206 255
173 206 255
173 206 255
173 206 255
173 206 255
173 206 255
173 206 255
173 206 255
173 206 255
173 206 255
174 206 255
174 206 255
174 206 255
174 206 255
174 206 255
174 207 255
174 207 255
174 207 255
174 207 255
174 207 255
174 207 255
174 207 255
174 207 255
174 207 255
175 207 255
175 207 255
175 207 255
175 207 255
175 207 255
175 207 255
175 207 255
175 207 255
175 207 255
175 207 255
175 207 255
175 207 255
175 207 255
175 207 255
175 207 255
176 208 255
176 208 255
176 208 255
176 208 255
176 208 255
176 208 255
176 208 255
176 208 255
176 208 255
176 208 255
176 208 255
176 208 255
176 208 255
176 208 255
176 208 255
176 208 255
176 208 255
177 208 255
177 208 255
177 208 255
177 208 255
177 208 255
177 208 255
177 208 255
177 208 255
177 208 255
177 208 255
177 208 255
177 208 255
177 209 255
177 209 255
177 209 255
177 209 255
177 209 255
177 209 255
178 209 255
178 209 255
178 209 255
178 209 255
178 209 255
178 209 255
178 209 255
178 209 255
178 209 255
178 209 255
178 209 255
178 209 255
178 209 255
178 209 255
178 209 255
178 209 255
178 209 255
178 209 255
178 209 255
178 209 255
177 209 255
177 209 255
177 209 255
177 209 255
177 209 255
177 209 255
177 209 255
177 208 255
177 208 255
177 208 255
177 208 255
177 208 255
177 208 255
177 208 255
177 208 255
177 208 255
177 208 255
177 208 255
176 208 255
176 208 255
176 208 255
176 208 255
176 208 255
176 208 255
176 208 255
176 208 255
176 208 255
176 208 255
176 208 255
176 208 255
176 208 255
176 208 255
176 208 255
176 208 255
176 208 255
175 207 255
175 207 255
175 207 255
175 207 255
175 207 255
175 207 255
175 207 255
175 207 255
175 207 255
175 207 255
175 207 255
175 207 255
175 207 255
175 207 255
175 207 255
174 207 255
174 207 255
174 207 255
174 207 255
174 207 255
174 207 255
174 207 255
174 207 255
174 207 255
174 207 255
174 206 255
174 206 255
174 206 255
174 206 255
173 206 255
173 206 255
173 206 255
173 206 255
173 206 255
173 206 255
173 206 255
173 206 255
173 206 255
173 206 255
173 206 255
173 206 255
173 206 255
173 206 255
172 206 255
172 206 255
172 206 255
172 206 255
172 205 255
172 205 255
172 205 255
172 205 255
172 205 255
172 205 255
172 205 255
172 205 255
171 205 255
171 205 255
171 205 255
171 205 255
171 205 255
171 205 255
171 205 255
171 205 255
171 205 255
171 205 255
171 205 255
171 205 255
171 205 255
170 204 255
170 204 255
170 204 255
170 204 255
170 204 255
170 204 255
170 204 255
170 204 255
170 204 255
170 204 255
170 204 255
170 204 255
169 204 255
169 204 255
169 204 255
169 204 255
169 204 255
169 204 255
169 204 255
169 204 255
169 204 255
169 203 255
169 203 255
169 203 255
169 203 255
169 203 255
168 203 255
168 203 255
168 203 255
168 203 255
168 203 255
168 203 255
168 203 255
168 203 255
168 203 255
168 203 255
168 203 255
168 203 255
168 203 255
168 203 255
167 203 255
167 202 254
105 129 165
66 82 106
68 85 110
68 85 110
69 86 112
73 90 117
71 88 113
66 83 109
67 84 109
67 84 108
69 86 111
67 84 109
63 79 103
68 86 112
65 81 105
69 86 111
67 83 107
70 86 111
66 81 104
68 85 111
69 85 110
68 85 111
71 89 115
66 82 106
68 84 108
68 85 110
67 83 108
69 86 110
68 84 108
69 85 109
68 84 110
70 87 113
68 85 109
67 83 108
66 82 107
68 84 108
69 85 109
71 89 115
67 84 109
65 81 105
69 86 110
68 84 109
70 87 112
68 84 108
68 84 108
66 82 105
67 85 111
71 88 114
69 85 110
68 84 109
68 84 108
72 88 113
70 86 110
69 85 110
70 86 110
67 83 108
67 84 108
69 86 112
68 84 109
64 80 105
68 85 111
64 81 105
69 86 111
70 87 113
70 87 112
64 80 103
70 87 113
67 84 109
63 79 103
69 85 109
69 85 109
72 89 116
69 86 112
65 81 105
65 81 105
65 80 103
71 88 113
68 85 111
70 88 113
70 87 114
70 87 113
69 86 112
70 88 114
71 89 116
70 87 113
101 123 157
166 201 254
167 203 255
168 203 255
168 203 255
168 203 255
168 203 255
168 203 255
168 203 255
168 203 255
168 203 255
168 203 255
168 203 255
168 203 255
168 203 255
168 203 255
168 203 255
169 203 255
169 203 255
169 203 255
169 203 255
169 203 255
169 204 255
169 204 255
169 204 255
169 204 255
169 204 255
169 204 255
169 204 255
169 204 255
170 204 255
170 204 255
170 204 255
170 204 255
170 204 255
170 204 255
170 204 255
170 204 255
170 204 255
170 204 255
170 204 255
170 204 255
170 204 255
171 205 255
171 205 255
171 205 255
171 205 255
171 205 255
171 205 255
171 205 255
171 205 255
171 205 255
171 205 255
171 205 255
171 205 255
171 205 255
172 205 255
172 205 255
172 205 255
172 205 255
172 205 255
172 205 255
172 205 255
172 205 255
172 206 255
172 206 255
172 206 255
172 206 255
173 206 255
173 206 255
173 206 255
173 206 255
173 206 255
173 206 255
173 206 255
173 206 255
173 206 255
173 206 255
173 206 255
173 206 255
173 206 255
173 206 255
174 206 255
174 206 255
174 206 255
174 206 255
174 207 255
174 207 255
174 207 255
174 207 255
174 207 255
174 207 255
174 207 255
174 207 255
174 207 255
174 207 255
175 207 255
175 207 255
175 207 255
175 207 255
175 207 255
175 207 255
175 207 255
175 207 255
175 207 255
175 207 255
175 207 255
175 207 255
175 207 255
175 207 255
175 207 255
176 208 255
176 208 255
176 208 255
176 208 255
176 208 255
176 208 255
176 208 255
176 208 255
176 208 255
176 208 255
176 208 255
176 208 255
176 208 255
176 208 255
176 208 255
176 208 255
177 208 255
177 208 255
177 208 255
177 208 255
177 208 255
177 208 255
177 208 255
177 208 255
177 208 255
177 208 255
177 208 255
177 208 255
177 209 255
177 209 255
177 209 255
177 209 255
177 209 255
177 209 255
178 209 255
178 209 255
178 209 255
178 209 255
178 209 255
178 209 255
178 209 255
178 209 255
178 209 255
178 209 255
178 209 255
178 209 255
178 209 255
178 209 255
178 209 255
178 209 255
178 209 255
178 209 255
178 209 255
178 209 255
178 209 255
178 209 255
178 209 255
178 209 255
178 209 255
178 209 255
178 209 255
178 209 255
178 209 255
178 209 255
178 209 255
177 209 255
177 209 255
177 209 255
177 209 255
177 209 255
177 209 255
177 208 255
177 208 255
177 208 255
177 208 255
177 208 255
177 208 255
177 208 255
177 208 255
177 208 255
177 208 255
177 208 255
177 208 255
176 208 255
176 208 255
176 208 255
176 208 255
176 208 255
176 208 255
176 208 255
176 208 255
176 208 255
176 208 255
176 208 255
176 208 255
176 208 255
176 208 255
176 208 255
176 208 255
175 207 255
175 207 255
175 207 255
175 207 255
175 207 255
175 207 255
175 207 255
175 207 255
175 207 255
175 207 255
175 207 255
175 207 255
175 207 255
175 207 255
175 207 255
174 207 255
174 207 255
174 207 255
174 207 255
174 207 255
174 207 255
174 207 255
174 207 255
174 207 255
174 206 255
174 206 255
174 206 255
174 206 255
174 206 255
173 206 255
173 206 255
173 206 255
173 206 255
173 206 255
173 206 255
173 206 255
173 206 255
173 206 255
173 206 255
173 206 255
173 206 255
173 206 255
172 206 255
172 206 255
172 206 255
172 206 255
172 206 255
172 205 255
172 205 255
172 205 255
172 205 255
172 205 255
172 205 255
172 205 255
172 205 255
171 205 255
171 205 255
171 205 255
171 205 255
171 205 255
171 205 255
171 205 255
171 205 255
171 205 255
171 205 255
171 205 255
171 205 255
171 205 255
170 204 255
170 204 255
170 204 255
170 204 255
170 204 255
170 204 255
170 204 255
170 204 255
170 204 255
170 204 255
170 204 255
170 204 255
169 204 255
169 204 255
169 204 255
169 204 255
169 204 255
169 204 255
169 204 255
169 204 255
169 204 255
169 204 255
169 203 255
169 203 255
169 203 255
169 203 255
168 203 255
168 203 255
168 203 255
168 203 255
168 203 255
168 203 255
168 203 255
168 203 255
168 203 255
164 198 250
95 117 149
70 87 113
71 88 113
70 86 111
70 87 112
69 87 113
68 85 109
66 84 109
71 89 116
69 86 112
70 88 114
67 84 108
70 88 114
67 83 108
67 83 107
68 84 110
70 86 110
69 86 111
68 84 107
67 84 110
68 86 112
67 83 107
71 87 112
69 86 112
74 91 115
70 88 114
61 77 100
70 87 112
70 87 112
68 85 110
70 86 110
69 86 113
66 83 108
68 85 111
68 84 109
67 84 108
69 86 111
71 88 113
65 82 106
68 83 107
70 87 113
71 87 111
63 79 103
66 83 108
67 83 106
66 82 107
69 86 111
70 86 111
69 87 114
65 81 105
70 87 113
68 84 108
65 82 106
63 79 103
65 81 106
71 88 114
65 81 105
68 84 108
65 80 104
68 85 110
69 86 111
68 85 109
68 84 108
71 89 117
70 86 110
69 85 109
68 84 108
70 87 112
66 83 107
68 85 111
67 83 108
68 86 112
68 85 110
67 83 106
71 87 112
70 87 112
72 88 112
69 85 108
67 83 107
69 87 112
71 88 114
69 85 110
70 87 112
70 86 112
70 86 111
71 88 114
74 90 116
97 119 152
164 199 250
168 203 255
168 203 255
168 203 255
168 203 255
168 203 255
168 203 255
168 203 255
168 203 255
168 203 255
169 203 255
169 203 255
169 203 255
169 203 255
169 203 255
169 204 255
169 204 255
169 204 255
169 204 255
169 204 255
169 204 255
169 204 255
169 204 255
170 204 255
170 204 255
170 204 255
170 204 255
170 204 255
170 204 255
170 204 255
170 204 255
170 204 255
170 204 255
170 204 255
170 204 255
170 204 255
171 205 255
171 205 255
171 205 255
171 205 255
171 205 255
171 205 255
171 205 255
171 205 255
171 205 255
171 205 255
171 205 255
171 205 255
171 205 255
172 205 255
172 205 255
172 205 255
172 205 255
172 205 255
172 205 255
172 205 255
172 205 255
172 205 255
172 206 255
172 206 255
172 206 255
172 206 255
173 206 255
173 206 255
173 206 255
173 206 255
173 206 255
173 206 255
173 206 255
173 206 255
173 206 255
173 206 255
173 206 255
173 206 255
173 206 255
174 206 255
174 206 255
174 206 255
174 206 255
174 206 255
174 207 255
174 207 255
174 207 255
174 207 255
174 207 255
174 207 255
174 207 255
174 207 255
174 207 255
175 207 255
175 207 255
175 207 255
175 207 255
175 207 255
175 207 255
175 207 255
175 207 255
175 207 255
175 207 255
175 207 255
175 207 255
175 207 255
175 207 255
175 207 255
176 208 255
176 208 255
176 208 255
176 208 255
176 208 255
176 208 255
176 208 255
176 208 255
176 208 255
176 208 255
176 208 255
176 208 255
176 208 255
176 208 255
176 208 255
176 208 255
177 208 255
177 208 255
177 208 255
177 208 255
177 208 255
177 208 255
177 208 255
177 208 255
177 208 255
177 208 255
177 208 255
177 208 255
177 209 255
177 209 255
177 209 255
177 209 255
177 209 255
177 209 255
178 209 255
178 209 255
178 209 255
178 209 255
178 209 255
178 209 255
178 209 255
178 209 255
178 209 255
178 209 255
178 209 255
178 209 255
178 209 255
178 209 255
178 209 255
178 209 255
178 209 255
178 209 255
179 209 255
179 209 255
179 209 255
178 209 255
178 209 255
178 209 255
178 209 255
178 209 255
178 209 255
178 209 255
178 209 255
178 209 255
178 209 255
178 209 255
178 209 255
178 209 255
178 209 255
178 209 255
178 209 255
178 209 255
178 209 255
178 209 255
178 209 255
177 209 255
177 209 255
177 209 255
177 209 255
177 209 255
177 209 255
177 208 255
177 208 255
177 208 255
177 208 255
177 208 255
177 208 255
177 208 255
177 208 255
177 208 255
177 208 255
177 208 255
177 208 255
176 208 255
176 208 255
176 208 255
176 208 255
176 208 255
176 208 255
176 208 255
176 208 255
176 208 255
176 208 255
176 208 255
176 208 255
176 208 255
176 208 255
176 208 255
176 208 255
175 207 255
175 207 255
175 207 255
175 207 255
175 207 255
175 207 255
175 207 255
175 207 255
175 207 255
175 207 255
175 207 255
175 207 255
175 207 255
175 207 255
175 207 255
174 207 255
174 207 255
174 207 255
174 207 255
174 207 255
174 207 255
174 207 255
174 207 255
174 207 255
174 206 255
174 206 255
174 206 255
174 206 255
174 206 255
173 206 255
173 206 255
173 206 255
173 206 255
173 206 255
173 206 255
173 206 255
173 206 255
173 206 255
173 206 255
173 206 255
173 206 255
173 206 255
172 206 255
172 206 255
172 206 255
172 206 255
172 205 255
172 205 255
172 205 255
172 205 255
172 205 255
172 205 255
172 205 255
172 205 255
172 205 255
171 205 255
171 205 255
171 205 255
171 205 255
171 205 255
171 205 255
171 205 255
171 205 255
171 205 255
171 205 255
171 205 255
171 205 255
171 205 255
170 204 255
170 204 255
170 204 255
170 204 255
170 204 255
170 204 255
170 204 255
170 204 255
170 204 255
170 204 255
170 204 255
170 204 255
170 204 255
169 204 255
169 204 255
169 204 255
169 204 255
169 204 255
169 204 255
169 204 255
169 204 255
169 204 255
169 203 255
169 203 255
169 203 255
169 203 255
169 203 255
169 203 255
168 203 255
165 200 251
92 113 145
71 89 115
72 89 114
71 87 112
66 82 105
68 84 109
68 85 110
66 82 107
73 89 114
69 86 112
70 86 111
67 84 110
62 78 101
69 85 110
66 82 107
68 84 109
66 82 107
64 79 103
67 82 106
71 88 113
66 82 107
73 89 114
68 85 111
70 86 111
65 82 107
71 88 113
65 82 107
68 85 110
69 87 113
66 82 105
68 85 110
66 83 108
69 86 110
68 84 108
63 78 102
68 86 112
68 84 110
69 85 110
66 82 105
66 83 107
66 82 108
67 85 111
68 85 109
66 83 108
70 87 113
69 86 111
67 83 107
69 86 112
67 83 109
65 82 107
67 83 106
70 87 112
70 88 114
66 82 107
68 85 112
67 84 108
70 87 112
69 86 112
67 83 107
67 85 111
69 86 110
70 86 111
67 84 109
66 81 104
71 86 109
68 84 110
67 83 107
67 83 108
66 82 106
66 82 107
69 85 110
71 88 113
65 81 106
69 85 108
67 84 108
66 82 106
71 88 113
72 89 115
71 88 113
69 86 112
71 88 115
71 89 115
73 90 117
66 83 108
65 81 106
70 88 113
68 85 111
64 80 104
70 88 115
92 114 147
160 194 244
168 203 255
168 203 255
169 203 255
169 203 255
169 203 255
169 203 255
169 204 255
169 204 255
169 204 255
169 204 255
169 204 255
169 204 255
169 204 255
169 204 255
169 204 255
169 204 255
170 204 255
170 204 255
170 204 255
170 204 255
170 204 255
170 204 255
170 204 255
170 204 255
170 204 255
170 204 255
170 204 255
170 204 255
170 204 255
171 205 255
171 205 255
171 205 255
171 205 255
171 205 255
171 205 255
171 205 255
171 205 255
171 205 255
171 205 255
171 205 255
171 205 255
171 205 255
172 205 255
172 205 255
172 205 255
172 205 255
172 205 255
172 205 255
172 205 255
172 205 255
172 205 255
172 206 255
172 206 255
172 206 255
172 206 255
173 206 255
173 206 255
173 206 255
173 206 255
173 206 255
173 206 255
173 206 255
173 206 255
173 206 255
173 206 255
173 206 255
173 206 255
173 206 255
174 206 255
174 206 255
174 206 255
174 206 255
174 206 255
174 207 255
174 207 255
174 207 255
174 207 255
174 207 255
174 207 255
174 207 255
174 207 255
174 207 255
175 207 255
175 207 255
175 207 255
175 207 255
175 207 255
175 207 255
175 207 255
175 207 255
175 207 255
175 207 255
175 207 255
175 207 255
175 207 255
175 207 255
175 207 255
176 208 255
176 208 255
176 208 255
176 208 255
176 208 255
176 208 255
176 208 255
176 208 255
176 208 255
176 208 255
176 208 255
176 208 255
176 208 255
176 208 255
176 208 255
176 208 255
176 208 255
177 208 255
177 208 255
177 208 255
177 208 255
177 208 255
177 208 255
177 208 255
177 208 255
177 208 255
177 208 255
177 209 255
177 209 255
177 209 255
177 209 255
177 209 255
177 209 255
177 209 255
178 209 255
178 209 255
178 209 255
178 209 255
178 209 255
178 209 255
178 209 255
178 209 255
178 209 255
178 209 255
178 209 255
178 209 255
178 209 255
178 209 255
178 209 255
178 209 255
178 209 255
178 209 255
178 209 255
178 209 255
179 209 255
179 209 255
179 209 255
179 210 255
179 210 255
179 209 255
179 209 255
179 209 255
179 209 255
179 209 255
179 209 255
179 209 255
178 209 255
178 209 255
178 209 255
178 209 255
178 209 255
178 209 255
178 209 255
178 209 255
178 209 255
178 209 255
178 209 255
178 209 255
178 209 255
178 209 255
178 209 255
178 209 255
178 209 255
178 209 255
178 209 255
177 209 255
177 209 255
177 209 255
177 209 255
177 209 255
177 209 255
177 209 255
177 208 255
177 208 255
177 208 255
177 208 255
177 208 255
177 208 255
177 208 255
177 208 255
177 208 255
177 208 255
177 208 255
176 208 255
176 208 255
176 208 255
176 208 255
176 208 255
176 208 255
176 208 255
176 208 255
176 208 255
176 208 255
176 208 255
176 208 255
176 208 255
176 208 255
176 208 255
176 208 255
175 207 255
175 207 255
175 207 255
175 207 255
175 207 255
175 207 255
175 207 255
175 207 255
175 207 255
175 207 255
175 207 255
175 207 255
175 207 255
175 207 255
174 207 255
174 207 255
174 207 255
174 207 255
174 207 255
174 207 255
174 207 255
174 207 255
174 207 255
174 207 255
174 206 255
174 206 255
174 206 255
174 206 255
174 206 255
173 206 255
173 206 255
173 206 255
173 206 255
173 206 255
173 206 255
173 206 255
173 206 255
173 206 255
173 206 255
173 206 255
173 206 255
173 206 255
172 206 255
172 206 255
172 206 255
172 206 255
172 206 255
172 205 255
172 205 255
172 205 255
172 205 255
172 205 255
172 205 255
172 205 255
172 205 255
171 205 255
171 205 255
171 205 255
171 205 255
171 205 255
171 205 255
171 205 255
171 205 255
171 205 255
171 205 255
171 205 255
171 205 255
171 205 255
170 204 255
170 204 255
170 204 255
170 204 255
170 204 255
170 204 255
170 204 255
170 204 255
170 204 255
170 204 255
170 204 255
170 204 255
170 204 255
170 204 255
169 204 255
169 204 255
169 204 255
169 204 255
169 204 255
169 204 255
169 204 255
169 204 255
169 204 255
163 197 247
86 107 138
70 87 113
70 87 111
69 86 111
66 83 108
70 86 112
69 84 108
65 81 106
68 86 112
69 86 111
66 82 106
70 88 115
69 87 114
68 85 111
72 88 113
63 79 103
69 84 108
66 82 106
65 82 108
69 85 110
67 83 107
68 85 109
69 86 111
68 85 110
69 87 112
70 86 111
68 85 111
65 81 105
66 81 104
64 81 106
69 87 115
62 78 102
66 82 106
71 87 112
65 82 106
69 85 109
65 81 106
67 83 107
68 85 110
67 82 106
68 84 108
68 85 111
67 84 108
66 82 106
67 82 105
68 84 108
67 84 110
68 85 110
67 83 107
71 88 114
67 83 107
66 83 109
65 80 104
68 84 108
67 83 107
67 84 108
65 82 107
67 84 109
67 82 105
70 86 111
67 82 106
66 82 106
70 86 110
66 82 106
67 84 110
69 86 111
68 85 109
68 84 109
66 81 105
68 84 109
67 83 107
65 81 105
70 86 111
66 83 108
69 86 111
64 80 103
69 85 109
69 85 110
68 84 108
70 86 110
66 82 106
65 82 108
68 84 108
68 84 109
73 88 112
69 86 112
70 86 111
71 88 113
68 85 110
67 84 109
70 88 114
87 108 138
161 195 245
169 204 255
169 204 255
169 204 255
169 204 255
169 204 255
169 204 255
169 204 255
169 204 255
169 204 255
170 204 255
170 204 255
170 204 255
170 204 255
170 204 255
170 204 255
170 204 255
170 204 255
170 204 255
170 204 255
170 204 255
170 204 255
170 204 255
170 204 255
171 205 255
171 205 255
171 205 255
171 205 255
171 205 255
171 205 255
171 205 255
171 205 255
171 205 255
171 205 255
171 205 255
171 205 255
171 205 255
172 205 255
172 205 255
172 205 255
172 205 255
172 205 255
172 205 255
172 205 255
172 205 255
172 205 255
172 206 255
172 206 255
172 206 255
172 206 255
173 206 255
173 206 255
173 206 255
173 206 255
173 206 255
173 206 255
173 206 255
173 206 255
173 206 255
173 206 255
173 206 255
173 206 255
173 206 255
174 206 255
174 206 255
174 206 255
174 206 255
174 206 255
174 207 255
174 207 255
174 207 255
174 207 255
174 207 255
174 207 255
174 207 255
174 207 255
174 207 255
175 207 255
175 207 255
175 207 255
175 207 255
175 207 255
175 207 255
175 207 255
175 207 255
175 207 255
175 207 255
175 207 255
175 207 255
175 207 255
175 207 255
175 207 255
176 208 255
176 208 255
176 208 255
176 208 255
176 208 255
176 208 255
176 208 255
176 208 255
176 208 255
176 208 255
176 208 255
176 208 255
176 208 255
176 208 255
176 208 255
176 208 255
177 208 255
177 208 255
177 208 255
177 208 255
177 208 255
177 208 255
177 208 255
177 208 255
177 208 255
177 208 255
177 208 255
177 208 255
177 209 255
177 209 255
177 209 255
177 209 255
177 209 255
177 209 255
178 209 255
178 209 255
178 209 255
178 209 255
178 209 255
178 209 255
178 209 255
178 209 255
178 209 255
178 209 255
178 209 255
178 209 255
178 209 255
178 209 255
178 209 255
178 209 255
178 209 255
178 209 255
178 209 255
179 209 255
179 209 255
179 209 255
179 209 255
179 209 255
179 209 255
179 209 255
179 210 255
179 210 255
179 210 255
179 210 255
179 210 255
179 210 255
179 210 255
179 210 255
179 210 255
179 210 255
179 209 255
179 209 255
179 209 255
179 209 255
179 209 255
179 209 255
179 209 255
178 209 255
178 209 255
178 209 255
178 209 255
178 209 255
178 209 255
178 209 255
178 209 255
178 209 255
178 209 255
178 209 255
178 209 255
178 209 255
178 209 255
178 209 255
178 209 255
178 209 255
178 209 255
178 209 255
177 209 255
177 209 255
177 209 255
177 209 255
177 209 255
177 209 255
177 208 255
177 208 255
177 208 255
177 208 255
177 208 255
177 208 255
177 208 255
177 208 255
177 208 255
177 208 255
177 208 255
176 208 255
176 208 255
176 208 255
176 208 255
176 208 255
176 208 255
176 208 255
176 208 255
176 208 255
176 208 255
176 208 255
176 208 255
176 208 255
176 208 255
176 208 255
176 208 255
175 207 255
175 207 255
175 207 255
175 207 255
175 207 255
175 207 255
175 207 255
175 207 255
175 207 255
175 207 255
175 207 255
175 207 255
175 207 255
175 207 255
175 207 255
174 207 255
174 207 255
174 207 255
174 207 255
174 207 255
174 207 255
174 207 255
174 207 255
174 207 255
174 206 255
174 206 255
174 206 255
174 206 255
174 206 255
173 206 255
173 206 255
173 206 255
173 206 255
173 206 255
173 206 255
173 206 255
173 206 255
173 206 255
173 206 255
173 206 255
173 206 255
173 206 255
172 206 255
172 206 255
172 206 255
172 206 255
172 205 255
172 205 255
172 205 255
172 205 255
172 205 255
172 205 255
172 205 255
172 205 255
172 205 255
171 205 255
171 205 255
171 205 255
171 205 255
171 205 255
171 205 255
171 205 255
171 205 255
171 205 255
171 205 255
171 205 255
171 205 255
171 205 255
171 205 255
170 204 255
170 204 255
170 204 255
170 204 255
170 204 255
170 204 255
170 204 255
170 204 255
170 204 255
170 204 255
170 204 255
170 204 255
170 204 255
170 204 255
170 204 255
169 204 255
164 198 248
87 108 140
70 87 112
69 86 112
70 87 113
69 86 111
71 88 113
68 85 110
68 84 110
63 78 101
67 84 110
68 84 109
64 80 104
67 83 107
69 86 112
65 80 104
69 86 111
64 81 105
65 80 104
66 84 109
67 83 108
73 90 117
68 84 109
61 77 101
66 83 108
67 84 109
66 81 104
67 84 109
66 82 106
68 84 109
69 85 110
68 85 111
65 82 107
67 84 109
66 82 107
68 85 110
66 82 106
72 89 114
68 84 108
66 82 107
70 87 112
67 84 109
71 87 112
65 81 105
65 82 106
68 84 108
64 80 105
67 83 107
67 82 106
65 82 108
67 84 109
70 87 112
68 85 110
69 85 109
67 84 108
70 86 112
66 81 104
66 82 106
66 82 106
63 79 103
69 86 111
70 87 113
68 84 108
68 84 107
65 82 108
69 86 112
67 84 108
71 87 110
65 81 106
66 83 108
68 84 109
69 86 112
73 90 116
68 84 107
66 82 106
64 80 104
70 87 112
71 87 112
67 82 106
66 83 108
65 81 104
68 86 112
70 87 112
65 80 102
69 86 112
64 80 103
69 87 113
65 82 106
67 84 109
72 88 113
67 83 108
72 88 112
68 84 109
69 85 110
88 108 137
165 198 249
169 204 255
169 204 255
170 204 255
170 204 255
170 204 255
170 204 255
170 204 255
170 204 255
170 204 255
170 204 255
170 204 255
170 204 255
170 204 255
170 204 255
170 204 255
170 204 255
171 205 255
171 205 255
171 205 255
171 205 255
171 205 255
171 205 255
171 205 255
171 205 255
171 205 255
171 205 255
171 205 255
171 205 255
171 205 255
171 205 255
172 205 255
172 205 255
172 205 255
172 205 255
172 205 255
172 205 255
172 205 255
172 205 255
172 205 255
172 206 255
172 206 255
172 206 255
172 206 255
173 206 255
173 206 255
173 206 255
173 206 255
173 206 255
173 206 255
173 206 255
173 206 255
173 206 255
173 206 255
173 206 255
173 206 255
173 206 255
173 206 255
174 206 255
174 206 255
174 206 255
174 206 255
174 207 255
174 207 255
174 207 255
174 207 255
174 207 255
174 207 255
174 207 255
174 207 255
174 207 255
175 207 255
175 207 255
175 207 255
175 207 255
175 207 255
175 207 255
175 207 255
175 207 255
175 207 255
175 207 255
175 207 255
175 207 255
175 207 255
175 207 255
175 207 255
176 208 255
176 208 255
176 208 255
176 208 255
176 208 255
176 208 255
176 208 255
176 208 255
176 208 255
176 208 255
176 208 255
176 208 255
176 208 255
176 208 255
176 208 255
176 208 255
177 208 255
177 208 255
177 208 255
177 208 255
177 208 255
177 208 255
177 208 255
177 208 255
177 208 255
177 208 255
177 208 255
177 209 255
177 209 255
177 209 255
177 209 255
177 209 255
177 209 255
178 209 255
178 209 255
178 209 255
178 209 255
178 209 255
178 209 255
178 209 255
178 209 255
178 209 255
178 209 255
178 209 255
178 209 255
178 209 255
178 209 255
178 209 255
178 209 255
178 209 255
178 209 255
178 209 255
178 209 255
179 209 255
179 209 255
179 209 255
179 209 255
179 209 255
179 209 255
179 210 255
179 210 255
179 210 255
179 210 255
179 210 255
179 210 255
179 210 255
179 210 255
179 210 255
179 210 255
179 210 255
179 210 255
179 210 255
179 210 255
179 210 255
179 210 255
179 210 255
179 210 255
179 210 255
179 210 255
179 210 255
179 209 255
179 209 255
179 209 255
179 209 255
179 209 255
179 209 255
179 209 255
178 209 255
178 209 255
178 209 255
178 209 255
178 209 255
178 209 255
178 209 255
178 209 255
178 209 255
178 209 255
178 209 255
178 209 255
178 209 255
178 209 255
178 209 255
178 209 255
178 209 255
178 209 255
178 209 255
177 209 255
177 209 255
177 209 255
177 209 255
177 209 255
177 209 255
177 208 255
177 208 255
177 208 255
177 208 255
177 208 255
177 208 255
177 208 255
177 208 255
177 208 255
177 208 255
177 208 255
176 208 255
176 208 255
176 208 255
176 208 255
176 208 255
176 208 255
176 208 255
176 208 255
176 208 255
176 208 255
176 208 255
176 208 255
176 208 255
176 208 255
176 208 255
176 208 255
175 207 255
175 207 255
175 207 255
175 207 255
175 207 255
175 207 255
175 207 255
175 207 255
175 207 255
175 207 255
175 207 255
175 207 255
175 207 255
175 207 255
174 207 255
174 207 255
174 207 255
174 207 255
174 207 255
174 207 255
174 207 255
174 207 255
174 207 255
174 207 255
174 206 255
174 206 255
174 206 255
174 206 255
174 206 255
173 206 255
173 206 255
173 206 255
173 206 255
173 206 255
173 206 255
173 206 255
173 206 255
173 206 255
173 206 255
173 206 255
173 206 255
173 206 255
172 206 255
172 206 255
172 206 255
172 206 255
172 205 255
172 205 255
172 205 255
172 205 255
172 205 255
172 205 255
172 205 255
172 205 255
172 205 255
172 205 255
171 205 255
171 205 255
171 205 255
171 205 255
171 205 255
171 205 255
171 205 255
171 205 255
171 205 255
171 205 255
171 205 255
171 205 255
171 205 255
171 205 255
170 204 255
170 204 255
170 204 255
170 204 255
170 204 255
170 204 255
170 204 255
170 204 255
170 204 255
168 202 253
91 113 147
70 86 110
69 86 112
73 91 117
68 85 112
68 85 112
70 88 114
64 80 104
69 86 111
67 84 110
67 84 109
68 86 113
68 84 108
69 85 110
65 82 106
71 87 112
68 85 110
67 84 108
70 87 112
69 86 112
66 81 105
70 87 113
71 88 114
69 85 109
66 82 106
67 83 108
67 83 107
68 85 111
62 78 101
68 84 108
69 86 112
68 85 110
66 82 106
69 86 111
69 86 111
66 82 107
63 78 102
71 88 113
66 82 106
66 83 108
68 84 109
67 83 107
68 85 111
66 81 103
64 79 103
68 84 108
67 84 108
68 84 108
68 84 108
70 87 113
67 83 107
64 80 104
67 82 106
68 85 109
66 82 106
62 77 99
66 82 106
64 79 101
68 85 110
66 82 106
68 85 109
65 81 104
68 85 110
65 80 103
64 80 103
68 84 108
67 84 109
67 83 107
69 85 110
67 83 106
67 84 109
63 78 101
67 83 108
66 83 107
66 82 106
66 82 105
64 80 104
68 85 110
69 86 111
66 82 107
67 84 108
68 86 112
70 87 112
69 85 110
71 88 114
69 86 111
68 85 111
65 81 105
68 84 109
68 84 108
71 87 112
64 80 104
67 85 110
70 87 112
64 80 105
98 120 152
168 201 252
170 204 255
170 204 255
170 204 255
170 204 255
170 204 255
170 204 255
170 204 255
170 204 255
170 204 255
171 205 255
171 205 255
171 205 255
171 205 255
171 205 255
171 205 255
171 205 255
171 205 255
171 205 255
171 205 255
171 205 255
171 205 255
171 205 255
171 205 255
172 205 255
172 205 255
172 205 255
172 205 255
172 205 255
172 205 255
172 205 255
172 205 255
172 205 255
172 205 255
172 206 255
172 206 255
172 206 255
172 206 255
173 206 255
173 206 255
173 206 255
173 206 255
173 206 255
173 206 255
173 206 255
173 206 255
173 206 255
173 206 255
173 206 255
173 206 255
173 206 255
174 206 255
174 206 255
174 206 255
174 206 255
174 206 255
174 207 255
174 207 255
174 207 255
174 207 255
174 207 255
174 207 255
174 207 255
174 207 255
174 207 255
175 207 255
175 207 255
175 207 255
175 207 255
175 207 255
175 207 255
175 207 255
175 207 255
175 207 255
175 207 255
175 207 255
175 207 255
175 207 255
175 207 255
175 207 255
176 208 255
176 208 255
176 208 255
176 208 255
176 208 255
176 208 255
176 208 255
176 208 255
176 208 255
176 208 255
176 208 255
176 208 255
176 208 255
176 208 255
176 208 255
176 208 255
177 208 255
177 208 255
177 208 255
177 208 255
177 208 255
177 208 255
177 208 255
177 208 255
177 208 255
177 208 255
177 208 255
177 209 255
177 209 255
177 209 255
177 209 255
177 209 255
177 209 255
178 209 255
178 209 255
178 209 255
178 209 255
178 209 255
178 209 255
178 209 255
178 209 255
178 209 255
178 209 255
178 209 255
178 209 255
178 209 255
178 209 255
178 209 255
178 209 255
178 209 255
178 209 255
178 209 255
179 209 255
179 209 255
179 209 255
179 209 255
179 209 255
179 209 255
179 209 255
179 210 255
179 210 255
179 210 255
179 210 255
179 210 255
179 210 255
179 210 255
179 210 255
179 210 255
179 210 255
179 210 255
179 210 255
179 210 255
180 210 255
180 210 255
180 210 255
180 210 255
180 210 255
179 210 255
179 210 255
179 210 255
179 210 255
179 210 255
179 210 255
179 210 255
179 210 255
179 210 255
179 210 255
179 210 255
179 210 255
179 210 255
179 210 255
179 209 255
179 209 255
179 209 255
179 209 255
179 209 255
179 209 255
179 209 255
178 209 255
178 209 255
178 209 255
178 209 255
178 209 255
178 209 255
178 209 255
178 209 255
178 209 255
178 209 255
178 209 255
178 209 255
178 209 255
178 209 255
178 209 255
178 209 255
178 209 255
178 209 255
177 209 255
177 209 255
177 209 255
177 209 255
177 209 255
177 209 255
177 209 255
177 208 255
177 208 255
177 208 255
177 208 255
177 208 255
177 208 255
177 208 255
177 208 255
177 208 255
177 208 255
177 208 255
176 208 255
176 208 255
176 208 255
176 208 255
176 208 255
176 208 255
176 208 255
176 208 255
176 208 255
176 208 255
176 208 255
176 208 255
176 208 255
176 208 255
176 208 255
175 207 255
175 207 255
175 207 255
175 207 255
175 207 255
175 207 255
175 207 255
175 207 255
175 207 255
175 207 255
175 207 255
175 207 255
175 207 255
175 207 255
175 207 255
174 207 255
174 207 255
174 207 255
174 207 255
174 207 255
174 207 255
174 207 255
174 207 255
174 207 255
174 206 255
174 206 255
174 206 255
174 206 255
174 206 255
173 206 255
173 206 255
173 206 255
173 206 255
173 206 255
173 206 255
173 206 255
173 206 255
173 206 255
173 206 255
173 206 255
173 206 255
173 206 255
172 206 255
172 206 255
172 206 255
172 206 255
172 206 255
172 205 255
172 205 255
172 205 255
172 205 255
172 205 255
172 205 255
172 205 255
172 205 255
172 205 255
172 205 255
171 205 255
171 205 255
171 205 255
171 205 255
171 205 255
171 205 255
171 205 255
171 205 255
171 205 255
171 205 255
171 205 255
171 205 255
171 205 255
171 205 255
170 204 255
170 204 255
169 203 254
100 122 156
68 85 110
71 88 113
68 85 110
69 85 110
72 90 116
70 86 111
66 82 105
69 86 112
69 86 111
67 83 108
68 84 109
68 84 109
68 84 108
65 81 104
68 85 111
67 84 109
67 84 108
68 85 109
67 83 108
64 80 104
67 83 108
65 81 104
67 83 107
69 86 111
69 86 111
67 84 109
64 79 101
68 86 111
67 83 108
68 84 108
69 85 110
71 88 113
66 82 106
69 85 110
66 83 108
65 80 104
68 85 110
68 85 110
65 80 103
69 84 107
69 84 108
69 84 108
70 87 111
70 87 112
65 81 104
66 82 106
64 80 104
70 86 111
69 85 110
66 82 106
63 79 103
67 84 108
69 86 111
66 82 106
66 83 107
66 82 106
68 84 108
65 81 106
66 81 105
68 83 106
70 87 111
70 87 113
65 82 107
66 81 105
69 86 111
66 82 106
65 81 105
68 84 109
65 81 104
64 80 104
64 80 104
67 83 108
70 87 112
68 84 108
62 76 98
67 83 106
66 82 106
68 85 110
69 85 110
70 87 113
68 85 110
65 82 106
66 83 107
66 83 108
66 82 107
70 85 109
72 89 114
66 82 107
66 83 109
67 84 110
67 84 109
69 85 109
70 87 113
69 86 112
68 84 109
71 88 113
112 137 173
169 203 254
170 204 255
171 205 255
171 205 255
171 205 255
171 205 255
171 205 255
171 205 255
171 205 255
171 205 255
171 205 255
171 205 255
171 205 255
171 205 255
171 205 255
171 205 255
171 205 255
171 205 255
172 205 255
172 205 255
172 205 255
172 205 255
172 205 255
172 205 255
172 205 255
172 205 255
172 205 255
172 206 255
172 206 255
172 206 255
172 206 255
173 206 255
173 206 255
173 206 255
173 206 255
173 206 255
173 206 255
173 206 255
173 206 255
173 206 255
173 206 255
173 206 255
173 206 255
173 206 255
173 206 255
174 206 255
174 206 255
174 206 255
174 206 255
174 206 255
174 207 255
174 207 255
174 207 255
174 207 255
174 207 255
174 207 255
174 207 255
174 207 255
174 207 255
175 207 255
175 207 255
175 207 255
175 207 255
175 207 255
175 207 255
175 207 255
175 207 255
175 207 255
175 207 255
175 207 255
175 207 255
175 207 255
175 207 255
175 207 255
176 208 255
176 208 255
176 208 255
176 208 255
176 208 255
176 208 255
176 208 255
176 208 255
176 208 255
176 208 255
176 208 255
176 208 255
176 208 255
176 208 255
176 208 255
177 208 255
177 208 255
177 208 255
177 208 255
177 208 255
177 208 255
177 208 255
177 208 255
177 208 255
177 208 255
177 208 255
177 209 255
177 209 255
177 209 255
177 209 255
177 209 255
177 209 255
178 209 255
178 209 255
178 209 255
178 209 255
178 209 255
178 209 255
178 209 255
178 209 255
178 209 255
178 209 255
178 209 255
178 209 255
178 209 255
178 209 255
178 209 255
178 209 255
178 209 255
178 209 255
178 209 255
179 209 255
179 209 255
179 209 255
179 209 255
179 209 255
179 209 255
179 209 255
179 210 255
179 210 255
179 210 255
179 210 255
179 210 255
179 210 255
179 210 255
179 210 255
179 210 255
179 210 255
179 210 255
179 210 255
179 210 255
179 210 255
180 210 255
180 210 255
180 210 255
180 210 255
180 210 255
180 210 255
180 210 255
180 210 255
180 210 255
180 210 255
180 210 255
180 210 255
180 210 255
180 210 255
180 210 255
180 210 255
179 210 255
179 210 255
179 210 255
179 210 255
179 210 255
179 210 255
179 210 255
179 210 255
179 210 255
179 210 255
179 210 255
179 210 255
179 210 255
179 210 255
179 209 255
179 209 255
179 209 255
179 209 255
179 209 255
179 209 255
179 209 255
178 209 255
178 209 255
178 209 255
178 209 255
178 209 255
178 209 255
178 209 255
178 209 255
178 209 255
178 209 255
178 209 255
178 209 255
178 209 255
178 209 255
178 209 255
178 209 255
178 209 255
178 209 255
177 209 255
177 209 255
177 209 255
177 209 255
177 209 255
177 209 255
177 208 255
177 208 255
177 208 255
177 208 255
177 208 255
177 208 255
177 208 255
177 208 255
177 208 255
177 208 255
177 208 255
176 208 255
176 208 255
176 208 255
176 208 255
176 208 255
176 208 255
176 208 255
176 208 255
176 208 255
176 208 255
176 208 255
176 208 255
176 208 255
176 208 255
176 208 255
175 207 255
175 207 255
175 207 255
175 207 255
175 207 255
175 207 255
175 207 255
175 207 255
175 207 255
175 207 255
175 207 255
175 207 255
175 207 255
175 207 255
175 207 255
174 207 255
174 207 255
174 207 255
174 207 255
174 207 255
174 207 255
174 207 255
174 207 255
174 207 255
174 207 255
174 206 255
174 206 255
174 206 255
174 206 255
173 206 255
173 206 255
173 206 255
173 206 255
173 206 255
173 206 255
173 206 255
173 206 255
173 206 255
173 206 255
173 206 255
173 206 255
173 206 255
173 206 255
172 206 255
172 206 255
172 206 255
172 206 255
172 206 255
172 205 255
172 205 255
172 205 255
172 205 255
172 205 255
172 205 255
172 205 255
172 205 255
172 205 255
172 205 255
171 205 255
171 205 255
171 205 255
171 205 255
171 205 255
171 205 255
171 205 255
171 205 255
171 205 255
171 205 255
124 151 190
70 87 112
64 81 106
65 81 106
65 81 105
73 90 115
66 82 105
68 83 107
72 90 118
68 84 109
65 81 104
70 87 113
65 81 106
68 84 108
66 83 107
67 82 106
66 83 108
65 82 108
66 82 105
69 85 110
67 83 106
67 84 108
68 86 113
65 80 103
67 84 108
68 84 109
67 83 107
69 86 112
68 84 109
67 83 107
66 81 104
66 82 106
68 84 110
71 87 111
67 84 108
63 78 101
63 79 103
66 82 107
69 86 111
68 84 109
69 86 111
70 87 111
68 84 107
65 80 101
63 79 104
65 81 106
70 86 109
62 78 101
65 82 108
68 85 110
70 88 115
68 83 107
64 80 104
68 84 108
68 83 106
66 82 106
66 81 105
64 80 103
66 83 109
65 81 105
67 83 108
68 83 105
61 77 101
64 80 103
66 82 105
67 84 108
71 87 112
68 84 109
69 84 108
65 82 107
62 77 99
64 80 104
69 85 108
68 84 109
69 86 110
65 81 104
66 81 105
68 84 109
65 81 105
67 84 108
69 86 112
67 83 108
67 83 106
68 84 109
66 82 105
69 87 113
69 85 108
67 82 106
70 86 110
71 88 113
65 82 107
67 84 110
65 83 109
66 82 105
71 87 111
65 80 104
66 83 107
66 82 106
68 84 110
111 135 172
171 205 255
171 205 255
171 205 255
171 205 255
171 205 255
171 205 255
171 205 255
171 205 255
171 205 255
171 205 255
172 205 255
172 205 255
172 205 255
172 205 255
172 205 255
172 205 255
172 205 255
172 205 255
172 205 255
172 205 255
172 206 255
172 206 255
172 206 255
172 206 255
172 206 255
173 206 255
173 206 255
173 206 255
173 206 255
173 206 255
173 206 255
173 206 255
173 206 255
173 206 255
173 206 255
173 206 255
173 206 255
173 206 255
173 206 255
174 206 255
174 206 255
174 206 255
174 206 255
174 207 255
174 207 255
174 207 255
174 207 255
174 207 255
174 207 255
174 207 255
174 207 255
174 207 255
174 207 255
175 207 255
175 207 255
175 207 255
175 207 255
175 207 255
175 207 255
175 207 255
175 207 255
175 207 255
175 207 255
175 207 255
175 207 255
175 207 255
175 207 255
175 207 255
176 208 255
176 208 255
176 208 255
176 208 255
176 208 255
176 208 255
176 208 255
176 208 255
176 208 255
176 208 255
176 208 255
176 208 255
176 208 255
176 208 255
176 208 255
177 208 255
177 208 255
177 208 255
177 208 255
177 208 255
177 208 255
177 208 255
177 208 255
177 208 255
177 208 255
177 208 255
177 209 255
177 209 255
177 209 255
177 209 255
177 209 255
177 209 255
178 209 255
178 209 255
178 209 255
178 209 255
178 209 255
178 209 255
178 209 255
178 209 255
178 209 255
178 209 255
178 209 255
178 209 255
178 209 255
178 209 255
178 209 255
178 209 255
178 209 255
178 209 255
179 209 255
179 209 255
179 209 255
179 209 255
179 209 255
179 209 255
179 209 255
179 210 255
179 210 255
179 210 255
179 210 255
179 210 255
179 210 255
179 210 255
179 210 255
179 210 255
179 210 255
179 210 255
179 210 255
179 210 255
179 210 255
180 210 255
180 210 255
180 210 255
180 210 255
180 210 255
180 210 255
180 210 255
180 210 255
180 210 255
180 210 255
180 210 255
180 210 255
180 210 255
180 210 255
180 210 255
180 210 255
180 210 255
180 210 255
180 210 255
180 210 255
180 210 255
180 210 255
180 210 255
180 210 255
180 210 255
180 210 255
180 210 255
180 210 255
179 210 255
179 210 255
179 210 255
179 210 255
179 210 255
179 210 255
179 210 255
179 210 255
179 210 255
179 210 255
179 210 255
179 210 255
179 210 255
179 210 255
179 209 255
179 209 255
179 209 255
179 209 255
179 209 255
179 209 255
178 209 255
178 209 255
178 209 255
178 209 255
178 209 255
178 209 255
178 209 255
178 209 255
178 209 255
178 209 255
178 209 255
178 209 255
178 209 255
178 209 255
178 209 255
178 209 255
178 209 255
178 209 255
178 209 255
177 209 255
177 209 255
177 209 255
177 209 255
177 209 255
177 209 255
177 208 255
177 208 255
177 208 255
177 208 255
177 208 255
177 208 255
177 208 255
177 208 255
177 208 255
177 208 255
176 208 255
176 208 255
176 208 255
176 208 255
176 208 255
176 208 255
176 208 255
176 208 255
176 208 255
176 208 255
176 208 255
176 208 255
176 208 255
176 208 255
176 208 255
176 208 255
175 207 255
175 207 255
175 207 255
175 207 255
175 207 255
175 207 255
175 207 255
175 207 255
175 207 255
175 207 255
175 207 255
175 207 255
175 207 255
175 207 255
175 207 255
174 207 255
174 207 255
174 207 255
174 207 255
174 207 255
174 207 255
174 207 255
174 207 255
174 207 255
174 206 255
174 206 255
174 206 255
174 206 255
174 206 255
173 206 255
173 206 255
173 206 255
173 206 255
173 206 255
173 206 255
173 206 255
173 206 255
173 206 255
173 206 255
173 206 255
173 206 255
173 206 255
173 206 255
172 206 255
172 206 255
172 206 255
172 206 255
172 206 255
172 205 255
172 205 255
172 205 255
172 205 255
172 205 255
172 205 255
172 205 255
172 205 255
172 205 255
172 205 255
171 205 255
171 205 255
171 205 255
125 151 190
65 82 107
69 85 109
67 84 110
71 89 115
72 90 116
69 84 108
66 81 104
65 83 109
65 81 103
66 83 108
70 86 111
69 86 110
70 86 110
67 83 107
70 86 110
68 84 107
67 83 108
68 85 109
68 83 106
65 81 104
69 86 111
65 81 105
67 83 107
67 83 107
67 85 111
64 80 103
68 84 109
68 85 109
69 85 109
66 82 107
66 82 107
67 84 108
66 83 109
68 83 106
65 81 106
70 87 113
66 82 106
68 85 110
66 81 105
68 83 107
65 81 106
66 81 105
63 78 102
66 83 108
64 79 102
68 85 111
64 80 104
69 85 110
67 84 108
66 83 107
63 78 101
64 80 105
64 79 102
63 79 103
63 79 103
65 81 106
70 86 110
71 88 114
68 85 110
65 81 104
70 87 113
65 82 106
69 86 111
62 79 104
69 86 110
68 84 109
67 83 108
66 82 106
64 80 104
69 85 110
69 85 110
66 81 105
65 80 103
64 80 104
64 80 103
70 85 109
65 81 105
65 81 105
63 79 103
65 80 102
66 81 104
61 76 99
68 84 108
66 82 105
67 84 108
68 84 109
63 79 102
69 85 110
68 85 110
69 86 111
67 84 108
69 86 112
69 86 110
66 83 107
66 82 106
66 82 107
69 86 111
69 85 110
66 82 106
68 85 109
131 158 199
171 205 255
171 205 255
172 205 255
172 205 255
172 205 255
172 205 255
172 205 255
172 205 255
172 205 255
172 205 255
172 205 255
172 205 255
172 205 255
172 206 255
172 206 255
172 206 255
172 206 255
172 206 255
173 206 255
173 206 255
173 206 255
173 206 255
173 206 255
173 206 255
173 206 255
173 206 255
173 206 255
173 206 255
173 206 255
173 206 255
173 206 255
173 206 255
174 206 255
174 206 255
174 206 255
174 206 255
174 206 255
174 207 255
174 207 255
174 207 255
174 207 255
174 207 255
174 207 255
174 207 255
174 207 255
174 207 255
175 207 255
175 207 255
175 207 255
175 207 255
175 207 255
175 207 255
175 207 255
175 207 255
175 207 255
175 207 255
175 207 255
175 207 255
175 207 255
175 207 255
175 207 255
176 208 255
176 208 255
176 208 255
176 208 255
176 208 255
176 208 255
176 208 255
176 208 255
176 208 255
176 208 255
176 208 255
176 208 255
176 208 255
176 208 255
176 208 255
176 208 255
177 208 255
177 208 255
177 208 255
177 208 255
177 208 255
177 208 255
177 208 255
177 208 255
177 208 255
177 208 255
177 208 255
177 209 255
177 209 255
177 209 255
177 209 255
177 209 255
178 209 255
178 209 255
178 209 255
178 209 255
178 209 255
178 209 255
178 209 255
178 209 255
178 209 255
178 209 255
178 209 255
178 209 255
178 209 255
178 209 255
178 209 255
178 209 255
178 209 255
178 209 255
178 209 255
179 209 255
179 209 255
179 209 255
179 209 255
179 209 255
179 209 255
179 210 255
179 210 255
179 210 255
179 210 255
179 210 255
179 210 255
179 210 255
179 210 255
179 210 255
179 210 255
179 210 255
179 210 255
179 210 255
179 210 255
180 210 255
180 210 255
180 210 255
180 210 255
180 210 255
180 210 255
180 210 255
180 210 255
180 210 255
180 210 255
180 210 255
180 210 255
180 210 255
180 210 255
180 210 255
180 210 255
180 210 255
180 210 255
180 210 255
180 210 255
180 210 255
180 210 255
180 210 255
180 210 255
180 210 255
180 210 255
180 210 255
180 210 255
180 210 255
180 210 255
180 210 255
180 210 255
180 210 255
180 210 255
180 210 255
180 210 255
180 210 255
180 210 255
180 210 255
180 210 255
179 210 255
179 210 255
179 210 255
179 210 255
179 210 255
179 210 255
179 210 255
179 210 255
179 210 255
179 210 255
179 210 255
179 210 255
179 210 255
179 210 255
179 209 255
179 209 255
179 209 255
179 209 255
179 209 255
179 209 255
178 209 255
178 209 255
178 209 255
178 209 255
178 209 255
178 209 255
178 209 255
178 209 255
178 209 255
178 209 255
178 209 255
178 209 255
178 209 255
178 209 255
178 209 255
178 209 255
178 209 255
178 209 255
178 209 255
177 209 255
177 209 255
177 209 255
177 209 255
177 209 255
177 208 255
177 208 255
177 208 255
177 208 255
177 208 255
177 208 255
177 208 255
177 208 255
177 208 255
177 208 255
177 208 255
176 208 255
176 208 255
176 208 255
176 208 255
176 208 255
176 208 255
176 208 255
176 208 255
176 208 255
176 208 255
176 208 255
176 208 255
176 208 255
176 208 255
176 208 255
175 207 255
175 207 255
175 207 255
175 207 255
175 207 255
175 207 255
175 207 255
175 207 255
175 207 255
175 207 255
175 207 255
175 207 255
175 207 255
175 207 255
175 207 255
174 207 255
174 207 255
174 207 255
174 207 255
174 207 255
174 207 255
174 207 255
174 207 255
174 207 255
174 207 255
174 206 255
174 206 255
174 206 255
174 206 255
174 206 255
173 206 255
173 206 255
173 206 255
173 206 255
173 206 255
173 206 255
173 206 255
173 206 255
173 206 255
173 206 255
173 206 255
173 206 255
173 206 255
173 206 255
172 206 255
172 206 255
172 206 255
172 206 255
172 206 255
172 206 255
172 205 255
172 205 255
172 205 255
172 205 255
172 205 255
144 174 218
72 90 115
66 83 108
66 82 106
70 87 112
69 86 112
66 82 105
69 85 109
68 85 110
69 85 110
67 84 110
70 86 110
66 82 105
71 87 112
69 85 109
60 76 98
69 85 109
64 79 102
67 84 110
66 81 104
68 84 108
68 85 109
66 81 104
66 82 107
70 86 111
68 85 110
63 79 102
69 85 108
69 84 108
66 82 107
66 82 105
68 85 109
69 86 112
66 83 108
69 84 108
70 87 113
70 86 111
68 85 110
65 80 103
69 85 110
69 84 108
64 79 102
65 81 106
69 86 111
63 79 103
67 83 107
69 85 109
67 84 109
64 80 104
69 85 109
64 79 102
68 85 109
63 79 102
67 83 109
63 79 103
64 80 104
69 86 111
66 82 107
64 80 105
69 85 111
66 82 105
67 84 110
66 82 107
68 85 110
68 84 108
65 81 105
65 80 104
67 83 108
67 84 108
64 81 106
63 79 104
60 75 96
65 81 106
68 84 109
68 85 110
67 83 107
67 83 108
69 86 111
68 84 108
65 81 105
66 82 106
67 83 107
69 85 109
69 84 107
69 85 110
66 82 107
63 78 101
66 83 108
67 83 107
64 81 106
64 81 107
71 87 113
66 82 107
69 86 112
68 85 110
65 82 106
66 83 107
68 85 110
68 84 109
69 85 110
71 88 113
68 85 110
71 88 114
151 181 227
172 205 255
172 205 255
172 205 255
172 205 255
172 205 255
172 206 255
172 206 255
172 206 255
172 206 255
172 206 255
173 206 255
173 206 255
173 206 255
173 206 255
173 206 255
173 206 255
173 206 255
173 206 255
173 206 255
173 206 255
173 206 255
173 206 255
173 206 255
173 206 255
173 206 255
174 206 255
174 206 255
174 206 255
174 206 255
174 206 255
174 207 255
174 207 255
174 207 255
174 207 255
174 207 255
174 207 255
174 207 255
174 207 255
174 207 255
174 207 255
175 207 255
175 207 255
175 207 255
175 207 255
175 207 255
175 207 255
175 207 255
175 207 255
175 207 255
175 207 255
175 207 255
175 207 255
175 207 255
175 207 255
176 208 255
176 208 255
176 208 255
176 208 255
176 208 255
176 208 255
176 208 255
176 208 255
176 208 255
176 208 255
176 208 255
176 208 255
176 208 255
176 208 255
176 208 255
176 208 255
177 208 255
177 208 255
177 208 255
177 208 255
177 208 255
177 208 255
177 208 255
177 208 255
177 208 255
177 208 255
177 208 255
177 209 255
177 209 255
177 209 255
177 209 255
177 209 255
178 209 255
178 209 255
178 209 255
178 209 255
178 209 255
178 209 255
178 209 255
178 209 255
178 209 255
178 209 255
178 209 255
178 209 255
178 209 255
178 209 255
178 209 255
178 209 255
178 209 255
178 209 255
178 209 255
179 209 255
179 209 255
179 209 255
179 209 255
179 209 255
179 209 255
179 210 255
179 210 255
179 210 255
179 210 255
179 210 255
179 210 255
179 210 255
179 210 255
179 210 255
179 210 255
179 210 255
179 210 255
179 210 255
179 210 255
180 210 255
180 210 255
180 210 255
180 210 255
180 210 255
180 210 255
180 210 255
180 210 255
180 210 255
180 210 255
180 210 255
180 210 255
180 210 255
180 210 255
180 210 255
180 210 255
180 210 255
180 210 255
180 210 255
180 210 255
180 210 255
180 210 255
180 210 255
181 211 255
181 211 255
181 211 255
181 211 255
181 211 255
181 211 255
181 211 255
180 210 255
180 210 255
180 210 255
180 210 255
180 210 255
180 210 255
180 210 255
180 210 255
180 210 255
180 210 255
180 210 255
180 210 255
180 210 255
180 210 255
180 210 255
180 210 255
180 210 255
180 210 255
180 210 255
180 210 255
180 210 255
180 210 255
180 210 255
179 210 255
179 210 255
179 210 255
179 210 255
179 210 255
179 210 255
179 210 255
179 210 255
179 210 255
179 210 255
179 210 255
179 210 255
179 210 255
179 209 255
179 209 255
179 209 255
179 209 255
179 209 255
179 209 255
179 209 255
178 209 255
178 209 255
178 209 255
178 209 255
178 209 255
178 209 255
178 209 255
178 209 255
178 209 255
178 209 255
178 209 255
178 209 255
178 209 255
178 209 255
178 209 255
178 209 255
178 209 255
178 209 255
177 209 255
177 209 255
177 209 255
177 209 255
177 209 255
177 208 255
177 208 255
177 208 255
177 208 255
177 208 255
177 208 255
177 208 255
177 208 255
177 208 255
177 208 255
177 208 255
176 208 255
176 208 255
176 208 255
176 208 255
176 208 255
176 208 255
176 208 255
176 208 255
176 208 255
176 208 255
176 208 255
176 208 255
176 208 255
176 208 255
176 208 255
175 207 255
175 207 255
175 207 255
175 207 255
175 207 255
175 207 255
175 207 255
175 207 255
175 207 255
175 207 255
175 207 255
175 207 255
175 207 255
175 207 255
175 207 255
174 207 255
174 207 255
174 207 255
174 207 255
174 207 255
174 207 255
174 207 255
174 207 255
174 207 255
174 207 255
174 206 255
174 206 255
174 206 255
174 206 255
174 206 255
173 206 255
173 206 255
173 206 255
173 206 255
173 206 255
173 206 255
173 206 255
173 206 255
173 206 255
173 206 255
173 206 255
173 206 255
173 206 255
173 206 255
173 206 255
173 206 255
172 206 255
172 206 255
167 199 247
82 101 129
72 89 115
67 85 112
68 84 109
64 80 105
68 85 111
63 79 102
71 89 116
67 84 109
69 86 111
69 85 109
67 84 110
66 83 107
65 81 105
65 82 108
66 83 109
66 82 106
65 82 107
68 85 111
67 82 105
65 80 104
65 81 105
68 84 108
68 84 108
66 82 105
67 83 107
64 81 106
70 87 111
66 83 109
64 81 105
68 85 109
70 86 111
68 85 109
68 84 109
65 82 106
72 90 117
65 81 105
67 83 108
65 80 104
68 85 112
65 81 104
65 80 104
66 81 105
68 84 109
68 84 108
62 78 101
65 80 103
64 80 104
70 86 110
66 82 106
65 80 102
68 84 109
69 86 111
67 82 105
68 84 109
64 81 105
69 85 108
68 83 106
71 87 112
67 84 109
67 84 108
67 83 106
67 84 110
62 78 101
68 84 108
65 81 105
70 87 113
68 84 106
66 82 105
64 79 103
64 79 102
66 81 104
67 84 108
69 86 111
66 82 106
69 85 109
67 83 106
69 86 111
69 85 109
67 83 107
66 82 106
68 85 110
67 82 105
68 84 108
65 81 106
65 81 106
68 85 110
69 86 111
67 83 108
66 83 107
68 84 108
68 85 110
64 80 104
70 86 110
68 85 109
66 82 105
67 83 107
67 83 108
68 84 108
62 77 100
65 81 105
71 87 112
70 87 113
80 99 126
165 197 245
172 206 255
172 206 255
172 206 255
173 206 255
173 206 255
173 206 255
173 206 255
173 206 255
173 206 255
173 206 255
173 206 255
173 206 255
173 206 255
173 206 255
173 206 255
173 206 255
173 206 255
173 206 255
174 206 255
174 206 255
174 206 255
174 206 255
174 206 255
174 207 255
174 207 255
174 207 255
174 207 255
174 207 255
174 207 255
174 207 255
174 207 255
174 207 255
174 207 255
175 207 255
175 207 255
175 207 255
175 207 255
175 207 255
175 207 255
175 207 255
175 207 255
175 207 255
175 207 255
175 207 255
175 207 255
175 207 255
175 207 255
175 207 255
176 208 255
176 208 255
176 208 255
176 208 255
176 208 255
176 208 255
176 208 255
176 208 255
176 208 255
176 208 255
176 208 255
176 208 255
176 208 255
176 208 255
176 208 255
177 208 255
177 208 255
177 208 255
177 208 255
177 208 255
177 208 255
177 208 255
177 208 255
177 208 255
177 208 255
177 208 255
177 209 255
177 209 255
177 209 255
177 209 255
177 209 255
177 209 255
178 209 255
178 209 255
178 209 255
178 209 255
178 209 255
178 209 255
178 209 255
178 209 255
178 209 255
178 209 255
178 209 255
178 209 255
178 209 255
178 209 255
178 209 255
178 209 255
178 209 255
179 209 255
179 209 255
179 209 255
179 209 255
179 209 255
179 209 255
179 209 255
179 210 255
179 210 255
179 210 255
179 210 255
179 210 255
179 210 255
179 210 255
179 210 255
179 210 255
179 210 255
179 210 255
179 210 255
179 210 255
180 210 255
180 210 255
180 210 255
180 210 255
180 210 255
180 210 255
180 210 255
180 210 255
180 210 255
180 210 255
180 210 255
180 210 255
180 210 255
180 210 255
180 210 255
180 210 255
180 210 255
180 210 255
180 210 255
180 210 255
180 210 255
180 210 255
180 210 255
181 211 255
181 211 255
181 211 255
181 211 255
181 211 255
181 211 255
181 211 255
181 211 255
181 211 255
181 211 255
181 211 255
181 211 255
181 211 255
181 211 255
181 211 255
181 211 255
181 211 255
181 211 255
181 211 255
181 211 255
181 211 255
180 210 255
180 210 255
180 210 255
180 210 255
180 210 255
180 210 255
180 210 255
180 210 255
180 210 255
180 210 255
180 210 255
180 210 255
180 210 255
180 210 255
180 210 255
180 210 255
180 210 255
180 210 255
180 210 255
180 210 255
180 210 255
180 210 255
179 210 255
179 210 255
179 210 255
179 210 255
179 210 255
179 210 255
179 210 255
179 210 255
179 210 255
179 210 255
179 210 255
179 210 255
179 210 255
179 209 255
179 209 255
179 209 255
179 209 255
179 209 255
179 209 255
179 209 255
178 209 255
178 209 255
178 209 255
178 209 255
178 209 255
178 209 255
178 209 255
178 209 255
178 209 255
178 209 255
178 209 255
178 209 255
178 209 255
178 209 255
178 209 255
178 209 255
178 209 255
177 209 255
177 209 255
177 209 255
177 209 255
177 209 255
177 209 255
177 208 255
177 208 255
177 208 255
177 208 255
177 208 255
177 208 255
177 208 255
177 208 255
177 208 255
177 208 255
177 208 255
176 208 255
176 208 255
176 208 255
176 208 255
176 208 255
176 208 255
176 208 255
176 208 255
176 208 255
176 208 255
176 208 255
176 208 255
176 208 255
176 208 255
176 208 255
175 207 255
175 207 255
175 207 255
175 207 255
175 207 255
175 207 255
175 207 255
175 207 255
175 207 255
175 207 255
175 207 255
175 207 255
175 207 255
175 207 255
175 207 255
174 207 255
174 207 255
174 207 255
174 207 255
174 207 255
174 207 255
174 207 255
174 207 255
174 207 255
174 207 255
174 206 255
174 206 255
174 206 255
174 206 255
174 206 255
174 206 255
173 206 255
173 206 255
173 206 255
173 206 255
173 206 255
173 206 255
173 206 255
173 206 255
173 206 255
173 206 255
173 206 255
103 124 156
68 83 107
69 86 110
66 82 107
70 87 113
68 84 109
71 87 112
64 81 105
67 83 108
70 87 112
68 84 107
66 82 107
68 84 108
70 87 111
70 86 110
66 82 107
70 86 110
68 84 109
67 83 108
66 82 105
67 82 106
67 83 107
68 84 109
70 87 112
64 79 102
66 82 107
68 84 108
70 86 111
64 79 102
70 86 110
69 85 108
65 81 105
69 85 110
64 80 104
66 83 108
68 84 109
64 80 103
65 80 103
66 82 106
67 83 108
67 83 107
71 88 113
62 78 102
69 86 111
69 85 109
67 83 108
66 82 107
66 83 108
69 86 112
69 86 111
68 85 110
66 82 107
71 87 111
66 82 105
67 83 107
62 78 101
68 84 107
65 81 105
67 83 107
66 83 107
68 84 108
64 81 106
65 81 104
64 79 102
68 83 106
65 82 107
66 82 106
68 84 108
68 85 109
66 82 107
64 81 105
65 81 106
65 80 104
70 85 109
69 85 109
66 82 107
66 82 108
67 84 109
66 82 104
67 82 105
62 77 101
64 79 103
67 84 109
65 81 104
66 81 104
66 82 105
67 82 104
65 81 104
66 82 106
68 84 108
64 80 104
66 82 107
64 80 104
66 82 106
66 82 106
65 81 104
66 82 105
62 78 102
65 80 104
69 85 110
63 79 103
70 88 114
68 84 109
65 81 104
68 84 109
105 128 162
173 206 255
173 206 255
173 206 255
173 206 255
173 206 255
173 206 255
173 206 255
173 206 255
173 206 255
173 206 255
173 206 255
173 206 255
174 206 255
174 206 255
174 206 255
174 206 255
174 207 255
174 207 255
174 207 255
174 207 255
174 207 255
174 207 255
174 207 255
174 207 255
174 207 255
174 207 255
174 207 255
175 207 255
175 207 255
175 207 255
175 207 255
175 207 255
175 207 255
175 207 255
175 207 255
175 207 255
175 207 255
175 207 255
175 207 255
175 207 255
175 207 255
175 207 255
176 208 255
176 208 255
176 208 255
176 208 255
176 208 255
176 208 255
176 208 255
176 208 255
176 208 255
176 208 255
176 208 255
176 208 255
176 208 255
176 208 255
176 208 255
177 208 255
177 208 255
177 208 255
177 208 255
177 208 255
177 208 255
177 208 255
177 208 255
177 208 255
177 208 255
177 208 255
177 209 255
177 209 255
177 209 255
177 209 255
177 209 255
177 209 255
178 209 255
178 209 255
178 209 255
178 209 255
178 209 255
178 209 255
178 209 255
178 209 255
178 209 255
178 209 255
178 209 255
178 209 255
178 209 255
178 209 255
178 209 255
178 209 255
178 209 255
178 209 255
179 209 255
179 209 255
179 209 255
179 209 255
179 209 255
179 209 255
179 210 255
179 210 255
179 210 255
179 210 255
179 210 255
179 210 255
179 210 255
179 210 255
179 210 255
179 210 255
179 210 255
179 210 255
179 210 255
180 210 255
180 210 255
180 210 255
180 210 255
180 210 255
180 210 255
180 210 255
180 210 255
180 210 255
180 210 255
180 210 255
180 210 255
180 210 255
180 210 255
180 210 255
180 210 255
180 210 255
180 210 255
180 210 255
180 210 255
180 210 255
180 210 255
181 211 255
181 211 255
181 211 255
181 211 255
181 211 255
181 211 255
181 211 255
181 211 255
181 211 255
181 211 255
181 211 255
181 211 255
181 211 255
181 211 255
181 211 255
181 211 255
181 211 255
181 211 255
181 211 255
181 211 255
181 211 255
181 211 255
181 211 255
181 211 255
181 211 255
181 211 255
181 211 255
181 211 255
181 211 255
181 211 255
181 211 255
181 211 255
181 211 255
181 211 255
180 210 255
180 210 255
180 210 255
180 210 255
180 210 255
180 210 255
180 210 255
180 210 255
180 210 255
180 210 255
180 210 255
180 210 255
180 210 255
180 210 255
180 210 255
180 210 255
180 210 255
180 210 255
180 210 255
180 210 255
180 210 255
180 210 255
179 210 255
179 210 255
179 210 255
179 210 255
179 210 255
179 210 255
179 210 255
179 210 255
179 210 255
179 210 255
179 210 255
179 210 255
179 210 255
179 209 255
179 209 255
179 209 255
179 209 255
179 209 255
179 209 255
179 209 255
178 209 255
178 209 255
178 209 255
178 209 255
178 209 255
178 209 255
178 209 255
178 209 255
178 209 255
178 209 255
178 209 255
178 209 255
178 209 255
178 209 255
178 209 255
178 209 255
178 209 255
177 209 255
177 209 255
177 209 255
177 209 255
177 209 255
177 209 255
177 208 255
177 208 255
177 208 255
177 208 255
177 208 255
177 208 255
177 208 255
177 208 255
177 208 255
177 208 255
177 208 255
176 208 255
176 208 255
176 208 255
176 208 255
176 208 255
176 208 255
176 208 255
176 208 255
176 208 255
176 208 255
176 208 255
176 208 255
176 208 255
176 208 255
176 208 255
175 207 255
175 207 255
175 207 255
175 207 255
175 207 255
175 207 255
175 207 255
175 207 255
175 207 255
175 207 255
175 207 255
175 207 255
175 207 255
175 207 255
175 207 255
175 207 255
174 207 255
174 207 255
174 207 255
174 207 255
174 207 255
174 207 255
174 207 255
174 207 255
174 207 255
174 207 255
174 206 255
174 206 255
174 206 255
174 206 255
174 206 255
174 206 255
173 206 255
173 206 255
173 206 255
129 156 195
69 86 111
65 81 105
67 84 109
64 80 103
65 80 104
67 84 108
68 86 112
67 84 110
62 77 100
71 88 114
68 84 109
68 85 110
69 85 110
63 79 103
64 82 107
64 81 106
66 82 107
65 82 107
63 79 104
64 79 103
68 84 108
67 83 108
67 84 108
63 79 103
66 81 105
65 81 104
68 84 107
68 85 110
65 81 105
67 83 108
63 80 104
67 84 110
68 84 108
65 80 102
64 80 103
65 82 107
71 88 113
67 83 108
62 76 99
65 81 105
67 84 110
68 84 110
67 83 106
67 83 106
65 82 107
69 85 108
64 80 105
68 85 110
68 85 109
66 82 105
67 83 106
59 74 96
68 84 110
71 87 112
66 82 106
67 83 106
64 79 103
65 80 102
63 78 100
64 80 103
66 83 107
67 83 108
62 77 100
64 80 105
71 88 113
67 83 108
68 85 110
66 82 106
69 85 110
67 83 107
64 80 103
64 79 101
68 85 109
66 82 107
71 87 111
68 84 108
67 82 106
66 82 106
66 82 105
66 82 106
66 83 108
67 84 109
68 85 109
66 81 104
64 80 103
64 80 104
69 85 110
68 84 107
69 87 113
71 88 114
65 80 104
66 83 108
65 81 106
70 87 112
63 79 102
64 81 106
68 84 109
67 83 107
67 83 107
67 83 108
68 83 107
68 84 108
65 81 105
68 84 108
69 85 110
66 81 104
133 160 200
173 206 255
173 206 255
173 206 255
174 206 255
174 206 255
174 206 255
174 206 255
174 206 255
174 206 255
174 207 255
174 207 255
174 207 255
174 207 255
174 207 255
174 207 255
174 207 255
174 207 255
174 207 255
174 207 255
175 207 255
175 207 255
175 207 255
175 207 255
175 207 255
175 207 255
175 207 255
175 207 255
175 207 255
175 207 255
175 207 255
175 207 255
175 207 255
175 207 255
175 207 255
175 207 255
176 208 255
176 208 255
176 208 255
176 208 255
176 208 255
176 208 255
176 208 255
176 208 255
176 208 255
176 208 255
176 208 255
176 208 255
176 208 255
176 208 255
176 208 255
177 208 255
177 208 255
177 208 255
177 208 255
177 208 255
177 208 255
177 208 255
177 208 255
177 208 255
177 208 255
177 208 255
177 209 255
177 209 255
177 209 255
177 209 255
177 209 255
177 209 255
178 209 255
178 209 255
178 209 255
178 209 255
178 209 255
178 209 255
178 209 255
178 209 255
178 209 255
178 209 255
178 209 255
178 209 255
178 209 255
178 209 255
178 209 255
178 209 255
178 209 255
178 209 255
179 209 255
179 209 255
179 209 255
179 209 255
179 209 255
179 210 255
179 210 255
179 210 255
179 210 255
179 210 255
179 210 255
179 210 255
179 210 255
179 210 255
179 210 255
179 210 255
179 210 255
179 210 255
179 210 255
180 210 255
180 210 255
180 210 255
180 210 255
180 210 255
180 210 255
180 210 255
180 210 255
180 210 255
180 210 255
180 210 255
180 210 255
180 210 255
180 210 255
180 210 255
180 210 255
180 210 255
180 210 255
180 210 255
180 210 255
180 210 255
180 210 255
181 211 255
181 211 255
181 211 255
181 211 255
181 211 255
181 211 255
181 211 255
181 211 255
181 211 255
181 211 255
181 211 255
181 211 255
181 211 255
181 211 255
181 211 255
181 211 255
181 211 255
181 211 255
181 211 255
181 211 255
182 211 255
182 211 255
181 211 255
181 211 255
181 211 255
181 211 255
181 211 255
181 211 255
181 211 255
181 211 255
181 211 255
181 211 255
181 211 255
181 211 255
181 211 255
181 211 255
181 211 255
181 211 255
181 211 255
181 211 255
181 211 255
181 211 255
181 211 255
181 211 255
181 211 255
181 211 255
181 211 255
180 210 255
180 210 255
180 210 255
180 210 255
180 210 255
180 210 255
180 210 255
180 210 255
180 210 255
180 210 255
180 210 255
180 210 255
180 210 255
180 210 255
180 210 255
180 210 255
180 210 255
180 210 255
180 210 255
180 210 255
180 210 255
180 210 255
179 210 255
179 210 255
179 210 255
179 210 255
179 210 255
179 210 255
179 210 255
179 210 255
179 210 255
179 210 255
179 210 255
179 210 255
179 209 255
179 209 255
179 209 255
179 209 255
179 209 255
179 209 255
179 209 255
178 209 255
178 209 255
178 209 255
178 209 255
178 209 255
178 209 255
178 209 255
178 209 255
178 209 255
178 209 255
178 209 255
178 209 255
178 209 255
178 209 255
178 209 255
178 209 255
178 209 255
177 209 255
177 209 255
177 209 255
177 209 255
177 209 255
177 209 255
177 208 255
177 208 255
177 208 255
177 208 255
177 208 255
177 208 255
177 208 255
177 208 255
177 208 255
177 208 255
177 208 255
176 208 255
176 208 255
176 208 255
176 208 255
176 208 255
176 208 255
176 208 255
176 208 255
176 208 255
176 208 255
176 208 255
176 208 255
176 208 255
176 208 255
176 208 255
176 208 255
175 207 255
175 207 255
175 207 255
175 207 255
175 207 255
175 207 255
175 207 255
175 207 255
175 207 255
175 207 255
175 207 255
175 207 255
175 207 255
175 207 255
175 207 255
175 207 255
174 207 255
174 207 255
174 207 255
174 207 255
174 207 255
174 207 255
174 207 255
174 207 255
174 207 255
174 207 255
174 207 255
165 196 243
72 90 117
67 83 107
67 83 108
66 82 105
66 83 108
66 82 106
70 86 111
67 84 108
67 83 106
64 81 106
69 86 112
64 80 104
68 84 110
65 81 105
62 78 102
65 81 105
67 83 107
66 81 104
67 82 106
65 80 104
66 83 107
65 80 102
69 85 109
64 80 104
65 82 107
69 85 109
66 82 106
64 80 103
66 82 106
68 84 107
62 77 100
69 85 109
65 81 104
67 82 105
65 81 105
66 82 107
62 78 100
64 81 107
67 83 107
64 80 105
67 82 105
68 84 108
69 85 109
65 80 102
66 81 104
65 81 105
70 86 112
67 83 107
70 88 113
64 80 104
66 83 108
65 81 104
65 80 104
68 84 108
63 78 101
68 83 105
65 80 103
70 87 112
66 82 106
66 82 106
69 85 110
66 82 106
61 77 100
68 83 106
68 84 108
65 81 104
68 85 111
63 79 104
65 80 104
70 87 111
66 82 107
64 80 104
70 87 112
67 83 107
67 84 108
66 81 105
64 80 104
66 81 105
66 82 105
62 76 98
67 83 107
66 82 107
67 83 107
65 80 104
68 84 108
64 80 104
64 79 102
67 84 109
62 78 101
66 81 103
69 86 110
70 86 109
63 79 103
68 84 109
66 81 105
65 81 104
68 85 110
64 80 104
65 81 106
66 84 109
68 85 109
64 79 101
70 86 111
62 78 100
68 84 108
69 85 110
69 86 111
79 97 125
168 200 248
174 207 255
174 207 255
174 207 255
174 207 255
174 207 255
174 207 255
174 207 255
174 207 255
174 207 255
174 207 255
174 207 255
175 207 255
175 207 255
175 207 255
175 207 255
175 207 255
175 207 255
175 207 255
175 207 255
175 207 255
175 207 255
175 207 255
175 207 255
175 207 255
175 207 255
175 207 255
175 207 255
176 208 255
176 208 255
176 208 255
176 208 255
176 208 255
176 208 255
176 208 255
176 208 255
176 208 255
176 208 255
176 208 255
176 208 255
176 208 255
176 208 255
176 208 255
176 208 255
177 208 255
177 208 255
177 208 255
177 208 255
177 208 255
177 208 255
177 208 255
177 208 255
177 208 255
177 208 255
177 208 255
177 209 255
177 209 255
177 209 255
177 209 255
177 209 255
178 209 255
178 209 255
178 209 255
178 209 255
178 209 255
178 209 255
178 209 255
178 209 255
178 209 255
178 209 255
178 209 255
178 209 255
178 209 255
178 209 255
178 209 255
178 209 255
178 209 255
178 209 255
179 209 255
179 209 255
179 209 255
179 209 255
179 209 255
179 209 255
179 210 255
179 210 255
179 210 255
179 210 255
179 210 255
179 210 255
179 210 255
179 210 255
179 210 255
179 210 255
179 210 255
179 210 255
179 210 255
180 210 255
180 210 255
180 210 255
180 210 255
180 210 255
180 210 255
180 210 255
180 210 255
180 210 255
180 210 255
180 210 255
180 210 255
180 210 255
180 210 255
180 210 255
180 210 255
180 210 255
180 210 255
180 210 255
180 210 255
180 210 255
180 210 255
181 211 255
181 211 255
181 211 255
181 211 255
181 211 255
181 211 255
181 211 255
181 211 255
181 211 255
181 211 255
181 211 255
181 211 255
181 211 255
181 211 255
181 211 255
181 211 255
181 211 255
181 211 255
181 211 255
181 211 255
181 211 255
181 211 255
181 211 255
181 211 255
181 211 255
182 211 255
182 211 255
182 211 255
182 211 255
182 211 255
182 211 255
182 211 255
182 211 255
182 211 255
182 211 255
182 211 255
181 211 255
181 211 255
181 211 255
181 211 255
181 211 255
181 211 255
181 211 255
181 211 255
181 211 255
181 211 255
181 211 255
181 211 255
181 211 255
181 211 255
181 211 255
181 211 255
181 211 255
181 211 255
181 211 255
181 211 255
181 211 255
181 211 255
181 211 255
181 211 255
181 211 255
180 210 255
180 210 255
180 210 255
180 210 255
180 210 255
180 210 255
180 210 255
180 210 255
180 210 255
180 210 255
180 210 255
180 210 255
180 210 255
180 210 255
180 210 255
180 210 255
180 210 255
180 210 255
180 210 255
180 210 255
180 210 255
179 210 255
179 210 255
179 210 255
179 210 255
179 210 255
179 210 255
179 210 255
179 210 255
179 210 255
179 210 255
179 210 255
179 210 255
179 210 255
179 209 255
179 209 255
179 209 255
179 209 255
179 209 255
179 209 255
178 209 255
178 209 255
178 209 255
178 209 255
178 209 255
178 209 255
178 209 255
178 209 255
178 209 255
178 209 255
178 209 255
178 209 255
178 209 255
178 209 255
178 209 255
178 209 255
178 209 255
178 209 255
177 209 255
177 209 255
177 209 255
177 209 255
177 209 255
177 209 255
177 208 255
177 208 255
177 208 255
177 208 255
177 208 255
177 208 255
177 208 255
177 208 255
177 208 255
177 208 255
176 208 255
176 208 255
176 208 255
176 208 255
176 208 255
176 208 255
176 208 255
176 208 255
176 208 255
176 208 255
176 208 255
176 208 255
176 208 255
176 208 255
176 208 255
176 208 255
176 208 255
175 207 255
175 207 255
175 207 255
175 207 255
175 207 255
175 207 255
175 207 255
175 207 255
175 207 255
175 207 255
175 207 255
175 207 255
175 207 255
175 207 255
175 207 255
175 207 255
174 207 255
174 207 255
174 207 255
174 207 255
102 124 157
64 79 101
68 85 110
66 82 107
66 83 108
61 77 101
65 81 106
69 86 112
65 80 104
67 83 108
67 83 106
64 80 103
66 82 108
64 80 104
68 83 106
64 81 106
69 85 109
66 81 105
66 82 106
66 82 106
65 80 104
70 87 111
65 81 106
63 79 102
66 83 107
65 82 108
70 86 110
67 83 108
65 81 104
69 85 110
68 84 109
63 77 98
63 80 104
67 83 107
67 83 106
65 80 104
66 82 105
66 82 105
67 83 106
67 82 105
61 76 98
66 82 107
64 80 103
63 78 101
68 84 108
64 81 105
60 75 98
67 84 108
63 79 104
65 81 105
64 80 104
66 82 107
63 79 103
61 75 95
65 81 104
62 77 100
62 77 99
64 78 101
71 88 112
67 83 107
68 85 109
72 89 114
65 80 103
65 82 107
62 77 99
66 83 107
65 80 103
65 81 105
68 83 105
70 87 113
66 83 109
64 79 102
64 79 102
70 86 111
68 83 105
68 85 109
67 84 109
67 82 106
65 82 106
66 82 106
67 83 108
66 82 107
64 80 103
65 80 104
62 77 101
65 81 105
63 78 100
68 85 109
60 75 97
65 81 104
65 82 107
62 76 99
67 82 105
65 80 104
63 79 102
63 79 102
65 81 105
66 82 105
67 84 110
68 84 108
70 86 111
67 83 106
64 79 102
67 83 107
64 80 104
68 84 108
66 83 109
67 85 112
68 85 110
93 114 145
174 207 255
174 207 255
174 207 255
174 207 255
175 207 255
175 207 255
175 207 255
175 207 255
175 207 255
175 207 255
175 207 255
175 207 255
175 207 255
175 207 255
175 207 255
175 207 255
175 207 255
175 207 255
175 207 255
175 207 255
175 207 255
176 208 255
176 208 255
176 208 255
176 208 255
176 208 255
176 208 255
176 208 255
176 208 255
176 208 255
176 208 255
176 208 255
176 208 255
176 208 255
176 208 255
176 208 255
176 208 255
177 208 255
177 208 255
177 208 255
177 208 255
177 208 255
177 208 255
177 208 255
177 208 255
177 208 255
177 208 255
177 208 255
177 209 255
177 209 255
177 209 255
177 209 255
177 209 255
178 209 255
178 209 255
178 209 255
178 209 255
178 209 255
178 209 255
178 209 255
178 209 255
178 209 255
178 209 255
178 209 255
178 209 255
178 209 255
178 209 255
178 209 255
178 209 255
178 209 255
178 209 255
179 209 255
179 209 255
179 209 255
179 209 255
179 209 255
179 209 255
179 210 255
179 210 255
179 210 255
179 210 255
179 210 255
179 210 255
179 210 255
179 210 255
179 210 255
179 210 255
179 210 255
179 210 255
179 210 255
180 210 255
180 210 255
180 210 255
180 210 255
180 210 255
180 210 255
180 210 255
180 210 255
180 210 255
180 210 255
180 210 255
180 210 255
180 210 255
180 210 255
180 210 255
180 210 255
180 210 255
180 210 255
180 210 255
180 210 255
180 210 255
181 211 255
181 211 255
181 211 255
181 211 255
181 211 255
181 211 255
181 211 255
181 211 255
181 211 255
181 211 255
181 211 255
181 211 255
181 211 255
181 211 255
181 211 255
181 211 255
181 211 255
181 211 255
181 211 255
181 211 255
181 211 255
181 211 255
181 211 255
181 211 255
181 211 255
182 211 255
182 211 255
182 211 255
182 211 255
182 211 255
182 211 255
182 211 255
182 211 255
182 211 255
182 211 255
182 211 255
182 211 255
182 211 255
182 211 255
182 211 255
182 211 255
182 211 255
182 211 255
182 211 255
182 211 255
182 211 255
182 211 255
182 211 255
182 211 255
182 211 255
182 211 255
181 211 255
181 211 255
181 211 255
181 211 255
181 211 255
181 211 255
181 211 255
181 211 255
181 211 255
181 211 255
181 211 255
181 211 255
181 211 255
181 211 255
181 211 255
181 211 255
181 211 255
181 211 255
181 211 255
181 211 255
181 211 255
181 211 255
181 211 255
181 211 255
180 210 255
180 210 255
180 210 255
180 210 255
180 210 255
180 210 255
180 210 255
180 210 255
180 210 255
180 210 255
180 210 255
180 210 255
180 210 255
180 210 255
180 210 255
180 210 255
180 210 255
180 210 255
180 210 255
180 210 255
180 210 255
179 210 255
179 210 255
179 210 255
179 210 255
179 210 255
179 210 255
179 210 255
179 210 255
179 210 255
179 210 255
179 210 255
179 210 255
179 210 255
179 209 255
179 209 255
179 209 255
179 209 255
179 209 255
178 209 255
178 209 255
178 209 255
178 209 255
178 209 255
178 209 255
178 209 255
178 209 255
178 209 255
178 209 255
178 209 255
178 209 255
178 209 255
178 209 255
178 209 255
178 209 255
178 209 255
178 209 255
177 209 255
177 209 255
177 209 255
177 209 255
177 209 255
177 209 255
177 208 255
177 208 255
177 208 255
177 208 255
177 208 255
177 208 255
177 208 255
177 208 255
177 208 255
177 208 255
177 208 255
176 208 255
176 208 255
176 208 255
176 208 255
176 208 255
176 208 255
176 208 255
176 208 255
176 208 255
176 208 255
176 208 255
176 208 255
176 208 255
176 208 255
176 208 255
176 208 255
175 207 255
175 207 255
175 207 255
175 207 255
175 207 255
175 207 255
175 207 255
175 207 255
175 207 255
175 207 255
175 207 255
175 207 255
175 207 255
137 164 204
68 85 109
68 84 108
66 82 107
67 82 105
65 81 105
67 83 107
65 81 105
65 80 103
66 82 107
68 85 110
72 89 115
63 78 101
66 83 108
67 83 107
66 81 104
67 84 109
65 80 103
65 81 105
66 82 106
69 86 111
63 79 101
68 85 110
64 80 104
65 82 106
68 85 111
66 81 104
65 80 103
64 79 102
65 81 106
68 84 108
66 82 107
62 77 101
65 81 105
65 81 104
63 79 103
68 85 109
63 79 102
65 81 105
64 79 102
67 83 107
64 80 102
70 86 110
63 78 100
68 85 111
67 82 105
65 81 104
67 84 108
69 85 109
65 81 106
66 82 105
64 80 105
69 86 110
65 81 104
70 86 110
71 87 112
68 84 109
64 80 103
65 80 104
67 83 106
66 82 106
70 86 109
65 80 103
68 83 107
63 78 100
68 84 108
69 86 111
65 82 106
66 82 107
67 83 107
63 79 102
65 81 104
66 82 107
66 83 107
69 85 109
67 85 111
64 79 102
59 74 96
68 85 110
66 81 105
68 84 107
64 80 104
64 80 103
67 82 105
66 81 105
65 81 106
69 85 109
67 84 110
65 81 106
65 81 105
64 81 106
64 80 104
67 84 109
64 78 100
64 79 103
66 83 109
65 80 104
64 81 105
65 81 104
66 81 104
65 81 104
67 83 108
65 81 105
66 81 103
67 83 108
70 86 110
68 86 112
67 85 111
71 87 112
65 81 104
63 78 100
134 160 199
175 207 255
175 207 255
175 207 255
175 207 255
175 207 255
175 207 255
175 207 255
175 207 255
175 207 255
175 207 255
175 207 255
175 207 255
176 208 255
176 208 255
176 208 255
176 208 255
176 208 255
176 208 255
176 208 255
176 208 255
176 208 255
176 208 255
176 208 255
176 208 255
176 208 255
176 208 255
176 208 255
176 208 255
176 208 255
177 208 255
177 208 255
177 208 255
177 208 255
177 208 255
177 208 255
177 208 255
177 208 255
177 208 255
177 208 255
177 208 255
177 209 255
177 209 255
177 209 255
177 209 255
177 209 255
177 209 255
178 209 255
178 209 255
178 209 255
178 209 255
178 209 255
178 209 255
178 209 255
178 209 255
178 209 255
178 209 255
178 209 255
178 209 255
178 209 255
178 209 255
178 209 255
178 209 255
178 209 255
179 209 255
179 209 255
179 209 255
179 209 255
179 209 255
179 209 255
179 210 255
179 210 255
179 210 255
179 210 255
179 210 255
179 210 255
179 210 255
179 210 255
179 210 255
179 210 255
179 210 255
179 210 255
179 210 255
180 210 255
180 210 255
180 210 255
180 210 255
180 210 255
180 210 255
180 210 255
180 210 255
180 210 255
180 210 255
180 210 255
180 210 255
180 210 255
180 210 255
180 210 255
180 210 255
180 210 255
180 210 255
180 210 255
180 210 255
180 210 255
181 211 255
181 211 255
181 211 255
181 211 255
181 211 255
181 211 255
181 211 255
181 211 255
181 211 255
181 211 255
181 211 255
181 211 255
181 211 255
181 211 255
181 211 255
181 211 255
181 211 255
181 211 255
181 211 255
181 211 255
181 211 255
181 211 255
181 211 255
181 211 255
182 211 255
182 211 255
182 211 255
182 211 255
182 211 255
182 211 255
182 211 255
182 211 255
182 211 255
182 211 255
182 211 255
182 211 255
182 211 255
182 211 255
182 211 255
182 211 255
182 211 255
182 212 255
182 212 255
182 212 255
182 212 255
182 212 255
182 212 255
182 211 255
182 211 255
182 211 255
182 211 255
182 211 255
182 211 255
182 211 255
182 211 255
182 211 255
182 211 255
182 211 255
182 211 255
182 211 255
182 211 255
182 211 255
182 211 255
182 211 255
182 211 255
181 211 255
181 211 255
181 211 255
181 211 255
181 211 255
181 211 255
181 211 255
181 211 255
181 211 255
181 211 255
181 211 255
181 211 255
181 211 255
181 211 255
181 211 255
181 211 255
181 211 255
181 211 255
181 211 255
181 211 255
181 211 255
181 211 255
181 211 255
181 211 255
180 210 255
180 210 255
180 210 255
180 210 255
180 210 255
180 210 255
180 210 255
180 210 255
180 210 255
180 210 255
180 210 255
180 210 255
180 210 255
180 210 255
180 210 255
180 210 255
180 210 255
180 210 255
180 210 255
180 210 255
180 210 255
179 210 255
179 210 255
179 210 255
179 210 255
179 210 255
179 210 255
179 210 255
179 210 255
179 210 255
179 210 255
179 210 255
179 210 255
179 209 255
179 209 255
179 209 255
179 209 255
179 209 255
179 209 255
179 209 255
178 209 255
178 209 255
178 209 255
178 209 255
178 209 255
178 209 255
178 209 255
178 209 255
178 209 255
178 209 255
178 209 255
178 209 255
178 209 255
178 209 255
178 209 255
178 209 255
178 209 255
177 209 255
177 209 255
177 209 255
177 209 255
177 209 255
177 209 255
177 208 255
177 208 255
177 208 255
177 208 255
177 208 255
177 208 255
177 208 255
177 208 255
177 208 255
177 208 255
177 208 255
176 208 255
176 208 255
176 208 255
176 208 255
176 208 255
176 208 255
176 208 255
176 208 255
176 208 255
176 208 255
176 208 255
176 208 255
176 208 255
176 208 255
176 208 255
176 208 255
176 208 255
176 208 255
175 207 255
175 207 255
175 207 255
167 198 244
79 98 127
68 85 110
64 80 105
66 83 108
66 81 105
65 80 104
67 83 106
69 84 108
66 82 106
64 79 103
66 82 105
67 84 108
67 83 107
62 77 99
59 74 96
72 89 113
68 84 109
67 83 106
66 82 106
67 83 107
61 75 97
66 81 104
69 86 111
66 83 107
66 82 106
62 78 100
64 80 104
62 77 100
63 78 101
66 81 104
69 85 109
66 81 104
68 84 108
63 79 104
69 84 108
66 81 104
65 81 105
64 80 103
64 79 102
62 78 101
65 81 104
70 86 110
65 81 104
62 78 102
66 82 107
63 78 101
65 80 103
68 84 109
66 81 104
65 81 106
67 82 105
65 82 107
65 80 104
63 78 100
64 79 103
68 84 109
64 82 108
67 83 108
64 80 104
68 83 107
64 79 101
67 82 105
65 81 104
68 84 109
67 83 107
65 81 105
66 81 103
67 82 105
61 77 99
64 79 103
65 81 105
65 82 106
63 77 99
65 81 104
65 81 105
66 82 107
63 79 103
68 84 108
67 83 106
68 84 109
59 74 98
66 82 105
69 85 110
67 82 106
68 84 109
69 85 108
63 78 100
71 87 112
66 83 109
62 77 99
65 80 102
67 83 107
68 84 108
62 79 103
63 78 101
63 78 101
67 82 106
64 80 104
64 80 104
67 83 107
65 81 104
61 76 99
66 83 108
66 81 105
65 81 104
68 84 109
64 79 102
63 79 102
65 81 105
63 79 103
64 80 103
76 93 119
165 196 242
175 207 255
175 207 255
175 207 255
176 208 255
176 208 255
176 208 255
176 208 255
176 208 255
176 208 255
176 208 255
176 208 255
176 208 255
176 208 255
176 208 255
176 208 255
176 208 255
176 208 255
176 208 255
176 208 255
176 208 255
176 208 255
177 208 255
177 208 255
177 208 255
177 208 255
177 208 255
177 208 255
177 208 255
177 208 255
177 208 255
177 208 255
177 208 255
177 209 255
177 209 255
177 209 255
177 209 255
177 209 255
177 209 255
178 209 255
178 209 255
178 209 255
178 209 255
178 209 255
178 209 255
178 209 255
178 209 255
178 209 255
178 209 255
178 209 255
178 209 255
178 209 255
178 209 255
178 209 255
178 209 255
178 209 255
179 209 255
179 209 255
179 209 255
179 209 255
179 209 255
179 209 255
179 210 255
179 210 255
179 210 255
179 210 255
179 210 255
179 210 255
179 210 255
179 210 255
179 210 255
179 210 255
179 210 255
179 210 255
179 210 255
180 210 255
180 210 255
180 210 255
180 210 255
180 210 255
180 210 255
180 210 255
180 210 255
180 210 255
180 210 255
180 210 255
180 210 255
180 210 255
180 210 255
180 210 255
180 210 255
180 210 255
180 210 255
180 210 255
180 210 255
180 210 255
181 211 255
181 211 255
181 211 255
181 211 255
181 211 255
181 211 255
181 211 255
181 211 255
181 211 255
181 211 255
181 211 255
181 211 255
181 211 255
181 211 255
181 211 255
181 211 255
181 211 255
181 211 255
181 211 255
181 211 255
181 211 255
181 211 255
181 211 255
182 211 255
182 211 255
182 211 255
182 211 255
182 211 255
182 211 255
182 211 255
182 211 255
182 211 255
182 211 255
182 211 255
182 211 255
182 211 255
182 211 255
182 211 255
182 211 255
182 211 255
182 211 255
182 211 255
182 212 255
182 212 255
182 212 255
182 212 255
182 212 255
182 212 255
183 212 255
183 212 255
183 212 255
183 212 255
183 212 255
182 212 255
182 212 255
182 212 255
182 212 255
182 212 255
182 212 255
182 212 255
182 212 255
182 212 255
182 211 255
182 211 255
182 211 255
182 211 255
182 211 255
182 211 255
182 211 255
182 211 255
182 211 255
182 211 255
182 211 255
182 211 255
182 211 255
182 211 255
182 211 255
182 211 255
182 211 255
182 211 255
181 211 255
181 211 255
181 211 255
181 211 255
181 211 255
181 211 255
181 211 255
181 211 255
181 211 255
181 211 255
181 211 255
181 211 255
181 211 255
181 211 255
181 211 255
181 211 255
181 211 255
181 211 255
181 211 255
181 211 255
181 211 255
181 211 255
181 211 255
180 210 255
180 210 255
180 210 255
180 210 255
180 210 255
180 210 255
180 210 255
180 210 255
180 210 255
180 210 255
180 210 255
180 210 255
180 210 255
180 210 255
180 210 255
180 210 255
180 210 255
180 210 255
180 210 255
180 210 255
180 210 255
179 210 255
179 210 255
179 210 255
179 210 255
179 210 255
179 210 255
179 210 255
179 210 255
179 210 255
179 210 255
179 210 255
179 210 255
179 209 255
179 209 255
179 209 255
179 209 255
179 209 255
179 209 255
178 209 255
178 209 255
178 209 255
178 209 255
178 209 255
178 209 255
178 209 255
178 209 255
178 209 255
178 209 255
178 209 255
178 209 255
178 209 255
178 209 255
178 209 255
178 209 255
178 209 255
178 209 255
177 209 255
177 209 255
177 209 255
177 209 255
177 209 255
177 209 255
177 208 255
177 208 255
177 208 255
177 208 255
177 208 255
177 208 255
177 208 255
177 208 255
177 208 255
177 208 255
177 208 255
176 208 255
176 208 255
176 208 255
176 208 255
176 208 255
176 208 255
176 208 255
176 208 255
176 208 255
176 208 255
176 208 255
176 208 255
176 208 255
176 208 255
119 143 179
70 86 110
69 85 110
68 84 107
67 82 106
66 81 104
65 80 102
68 84 108
68 85 110
66 82 106
65 80 103
67 82 106
66 83 108
63 79 102
65 81 105
68 84 108
68 83 107
66 82 105
66 83 107
68 84 109
60 75 98
65 82 106
66 82 106
66 82 107
67 83 108
64 79 103
66 82 107
66 81 103
58 73 95
69 84 108
66 83 109
67 82 105
63 79 102
67 83 107
65 81 105
66 82 107
66 81 104
67 83 108
65 81 106
64 80 105
62 77 99
68 84 108
62 77 100
65 80 102
66 81 104
65 81 105
67 83 108
68 84 108
66 82 105
67 82 106
62 77 100
66 82 106
65 82 106
66 82 106
65 80 102
66 83 107
67 83 108
67 83 107
63 78 100
60 75 97
62 77 100
66 82 106
67 83 106
64 79 101
67 82 106
60 75 98
66 81 104
65 81 105
67 83 107
67 84 109
64 81 106
65 80 103
66 80 102
66 83 108
65 80 104
64 80 103
66 81 105
69 84 107
63 78 101
65 81 104
66 82 106
64 79 101
69 85 109
65 81 104
64 80 104
65 81 104
66 82 106
68 85 109
63 77 99
65 81 105
60 75 98
66 82 105
63 79 102
63 79 102
71 87 112
67 83 107
65 81 104
69 85 110
68 84 108
67 82 106
66 82 106
67 83 107
70 87 113
68 84 109
64 78 100
67 84 109
69 86 111
70 86 111
64 80 103
68 85 110
67 84 109
62 78 101
63 78 101
128 153 190
176 208 255
176 208 255
176 208 255
176 208 255
176 208 255
176 208 255
176 208 255
176 208 255
176 208 255
176 208 255
176 208 255
176 208 255
176 208 255
176 208 255
177 208 255
177 208 255
177 208 255
177 208 255
177 208 255
177 208 255
177 208 255
177 208 255
177 208 255
177 208 255
177 208 255
177 209 255
177 209 255
177 209 255
177 209 255
177 209 255
177 209 255
178 209 255
178 209 255
178 209 255
178 209 255
178 209 255
178 209 255
178 209 255
178 209 255
178 209 255
178 209 255
178 209 255
178 209 255
178 209 255
178 209 255
178 209 255
178 209 255
178 209 255
178 209 255
179 209 255
179 209 255
179 209 255
179 209 255
179 209 255
179 209 255
179 210 255
179 210 255
179 210 255
179 210 255
179 210 255
179 210 255
179 210 255
179 210 255
179 210 255
179 210 255
179 210 255
179 210 255
179 210 255
180 210 255
180 210 255
180 210 255
180 210 255
180 210 255
180 210 255
180 210 255
180 210 255
180 210 255
180 210 255
180 210 255
180 210 255
180 210 255
180 210 255
180 210 255
180 210 255
180 210 255
180 210 255
180 210 255
180 210 255
181 211 255
181 211 255
181 211 255
181 211 255
181 211 255
181 211 255
181 211 255
181 211 255
181 211 255
181 211 255
181 211 255
181 211 255
181 211 255
181 211 255
181 211 255
181 211 255
181 211 255
181 211 255
181 211 255
181 211 255
181 211 255
181 211 255
181 211 255
182 211 255
182 211 255
182 211 255
182 211 255
182 211 255
182 211 255
182 211 255
182 211 255
182 211 255
182 211 255
182 211 255
182 211 255
182 211 255
182 211 255
182 211 255
182 211 255
182 211 255
182 212 255
182 212 255
182 212 255
182 212 255
182 212 255
182 212 255
182 212 255
182 212 255
182 212 255
182 212 255
183 212 255
183 212 255
183 212 255
183 212 255
183 212 255
183 212 255
183 212 255
183 212 255
183 212 255
183 212 255
183 212 255
183 212 255
183 212 255
183 212 255
183 212 255
183 212 255
183 212 255
183 212 255
182 212 255
182 212 255
182 212 255
182 212 255
182 212 255
182 212 255
182 212 255
182 212 255
182 212 255
182 211 255
182 211 255
182 211 255
182 211 255
182 211 255
182 211 255
182 211 255
182 211 255
182 211 255
182 211 255
182 211 255
182 211 255
182 211 255
182 211 255
182 211 255
182 211 255
182 211 255
181 211 255
181 211 255
181 211 255
181 211 255
181 211 255
181 211 255
181 211 255
181 211 255
181 211 255
181 211 255
181 211 255
181 211 255
181 211 255
181 211 255
181 211 255
181 211 255
181 211 255
181 211 255
181 211 255
181 211 255
181 211 255
181 211 255
181 211 255
181 211 255
180 210 255
180 210 255
180 210 255
180 210 255
180 210 255
180 210 255
180 210 255
180 210 255
180 210 255
180 210 255
180 210 255
180 210 255
180 210 255
180 210 255
180 210 255
180 210 255
180 210 255
180 210 255
180 210 255
180 210 255
179 210 255
179 210 255
179 210 255
179 210 255
179 210 255
179 210 255
179 210 255
179 210 255
179 210 255
179 210 255
179 210 255
179 210 255
179 210 255
179 209 255
179 209 255
179 209 255
179 209 255
179 209 255
179 209 255
178 209 255
178 209 255
178 209 255
178 209 255
178 209 255
178 209 255
178 209 255
178 209 255
178 209 255
178 209 255
178 209 255
178 209 255
178 209 255
178 209 255
178 209 255
178 209 255
178 209 255
178 209 255
177 209 255
177 209 255
177 209 255
177 209 255
177 209 255
177 208 255
177 208 255
177 208 255
177 208 255
177 208 255
177 208 255
177 208 255
177 208 255
177 208 255
177 208 255
177 208 255
177 208 255
177 208 255
176 208 255
176 208 255
176 208 255
176 208 255
162 192 237
69 85 109
63 79 103
66 83 108
66 82 105
63 78 100
66 82 106
66 81 104
67 83 106
65 81 105
66 81 104
68 84 109
66 83 108
65 80 103
68 83 106
66 83 108
68 84 109
70 85 108
64 80 103
63 78 99
64 80 104
64 80 104
67 84 109
63 77 99
63 77 98
65 80 103
61 74 95
68 84 109
64 80 104
65 81 105
69 85 109
69 86 111
63 78 100
65 81 105
63 78 100
64 81 106
67 82 105
67 83 108
65 80 104
66 81 104
64 80 104
65 81 105
64 80 103
63 78 100
68 84 108
66 81 105
65 81 105
62 78 101
65 82 108
62 77 100
64 80 104
72 89 114
68 84 108
64 80 104
63 79 103
65 81 105
67 82 105
67 82 106
65 81 105
63 80 104
67 82 104
66 82 107
64 80 103
68 83 106
63 78 101
64 80 104
65 81 106
69 85 108
66 81 104
66 80 103
64 80 104
67 83 107
63 78 101
64 79 101
68 84 108
62 78 102
62 77 100
67 82 104
69 85 109
64 78 101
65 81 104
63 78 101
66 82 105
66 83 109
66 82 107
67 83 107
65 82 106
69 85 109
65 81 106
67 83 107
64 80 104
66 83 109
67 83 106
63 80 104
67 83 108
65 82 107
59 74 97
67 84 109
67 82 105
67 83 106
67 83 106
67 84 110
66 82 106
64 81 106
65 81 105
65 81 105
62 78 102
64 79 102
69 86 111
63 79 101
71 86 110
65 80 104
63 78 102
65 80 103
68 85 109
161 190 234
176 208 255
176 208 255
176 208 255
176 208 255
177 208 255
177 208 255
177 208 255
177 208 255
177 208 255
177 208 255
177 208 255
177 208 255
177 208 255
177 208 255
177 208 255
177 208 255
177 209 255
177 209 255
177 209 255
177 209 255
177 209 255
177 209 255
178 209 255
178 209 255
178 209 255
178 209 255
178 209 255
178 209 255
178 209 255
178 209 255
178 209 255
178 209 255
178 209 255
178 209 255
178 209 255
178 209 255
178 209 255
178 209 255
178 209 255
178 209 255
179 209 255
179 209 255
179 209 255
179 209 255
179 209 255
179 209 255
179 209 255
179 210 255
179 210 255
179 210 255
179 210 255
179 210 255
179 210 255
179 210 255
179 210 255
179 210 255
179 210 255
179 210 255
179 210 255
180 210 255
180 210 255
180 210 255
180 210 255
180 210 255
180 210 255
180 210 255
180 210 255
180 210 255
180 210 255
180 210 255
180 210 255
180 210 255
180 210 255
180 210 255
180 210 255
180 210 255
180 210 255
180 210 255
180 210 255
180 210 255
181 211 255
181 211 255
181 211 255
181 211 255
181 211 255
181 211 255
181 211 255
181 211 255
181 211 255
181 211 255
181 211 255
181 211 255
181 211 255
181 211 255
181 211 255
181 211 255
181 211 255
181 211 255
181 211 255
181 211 255
181 211 255
181 211 255
181 211 255
182 211 255
182 211 255
182 211 255
182 211 255
182 211 255
182 211 255
182 211 255
182 211 255
182 211 255
182 211 255
182 211 255
182 211 255
182 211 255
182 211 255
182 211 255
182 211 255
182 211 255
182 212 255
182 212 255
182 212 255
182 212 255
182 212 255
182 212 255
182 212 255
182 212 255
182 212 255
183 212 255
183 212 255
183 212 255
183 212 255
183 212 255
183 212 255
183 212 255
183 212 255
183 212 255
183 212 255
183 212 255
183 212 255
183 212 255
183 212 255
183 212 255
183 212 255
183 212 255
183 212 255
183 212 255
183 212 255
183 212 255
183 212 255
183 212 255
183 212 255
183 212 255
183 212 255
183 212 255
183 212 255
183 212 255
183 212 255
183 212 255
183 212 255
183 212 255
183 212 255
182 212 255
182 212 255
182 212 255
182 212 255
182 212 255
182 212 255
182 212 255
182 212 255
182 212 255
182 212 255
182 211 255
182 211 255
182 211 255
182 211 255
182 211 255
182 211 255
182 211 255
182 211 255
182 211 255
182 211 255
182 211 255
182 211 255
182 211 255
182 211 255
182 211 255
182 211 255
182 211 255
181 211 255
181 211 255
181 211 255
181 211 255
181 211 255
181 211 255
181 211 255
181 211 255
181 211 255
181 211 255
181 211 255
181 211 255
181 211 255
181 211 255
181 211 255
181 211 255
181 211 255
181 211 255
181 211 255
181 211 255
181 211 255
181 211 255
180 210 255
180 210 255
180 210 255
180 210 255
180 210 255
180 210 255
180 210 255
180 210 255
180 210 255
180 210 255
180 210 255
180 210 255
180 210 255
180 210 255
180 210 255
180 210 255
180 210 255
180 210 255
180 210 255
180 210 255
179 210 255
179 210 255
179 210 255
179 210 255
179 210 255
179 210 255
179 210 255
179 210 255
179 210 255
179 210 255
179 210 255
179 210 255
179 210 255
179 209 255
179 209 255
179 209 255
179 209 255
179 209 255
179 209 255
178 209 255
178 209 255
178 209 255
178 209 255
178 209 255
178 209 255
178 209 255
178 209 255
178 209 255
178 209 255
178 209 255
178 209 255
178 209 255
178 209 255
178 209 255
178 209 255
178 209 255
178 209 255
177 209 255
177 209 255
177 209 255
177 209 255
177 209 255
177 209 255
177 209 255
177 208 255
177 208 255
177 208 255
177 208 255
177 208 255
177 208 255
177 208 255
177 208 255
104 126 160
62 78 102
66 81 103
69 86 111
63 78 101
69 85 109
65 80 104
67 84 108
63 80 104
64 80 104
66 82 106
66 82 107
64 80 103
64 79 102
63 79 102
64 80 104
62 78 102
62 77 100
67 83 107
61 76 99
66 81 105
64 79 101
64 80 104
67 83 107
62 76 98
68 83 107
64 80 104
66 82 106
70 86 111
65 80 103
68 83 107
59 74 95
65 81 105
62 78 102
68 84 107
64 80 104
65 81 105
67 82 105
65 81 104
66 82 105
66 82 105
66 81 104
61 75 97
66 82 106
63 80 105
64 79 101
65 80 103
64 79 101
65 81 105
66 83 107
61 77 102
62 78 101
66 82 105
66 82 106
67 83 107
63 78 101
64 80 104
65 80 102
61 76 99
66 81 105
63 78 101
65 81 105
67 82 106
65 81 104
63 78 101
60 74 96
69 86 111
65 81 105
66 81 105
66 81 104
66 82 107
64 79 102
62 77 99
62 77 99
67 83 107
58 72 94
69 85 109
65 82 107
64 80 103
67 84 110
63 78 100
63 78 101
65 80 103
69 84 108
68 84 108
66 82 106
64 78 100
66 82 105
63 78 100
63 78 100
67 83 107
68 83 106
68 84 108
68 84 108
63 79 103
62 78 101
67 83 107
65 81 104
69 85 110
62 78 101
69 84 107
64 80 105
67 83 107
65 81 105
62 78 101
64 80 103
61 75 98
64 81 105
65 80 104
69 84 108
66 82 106
64 81 105
65 80 102
69 86 112
62 78 102
112 135 169
177 208 255
177 208 255
177 208 255
177 208 255
177 208 255
177 208 255
177 208 255
177 208 255
177 209 255
177 209 255
177 209 255
177 209 255
177 209 255
177 209 255
178 209 255
178 209 255
178 209 255
178 209 255
178 209 255
178 209 255
178 209 255
178 209 255
178 209 255
178 209 255
178 209 255
178 209 255
178 209 255
178 209 255
178 209 255
178 209 255
178 209 255
178 209 255
178 209 255
179 209 255
179 209 255
179 209 255
179 209 255
179 209 255
179 209 255
179 209 255
179 210 255
179 210 255
179 210 255
179 210 255
179 210 255
179 210 255
179 210 255
179 210 255
179 210 255
179 210 255
179 210 255
179 210 255
180 210 255
180 210 255
180 210 255
180 210 255
180 210 255
180 210 255
180 210 255
180 210 255
180 210 255
180 210 255
180 210 255
180 210 255
180 210 255
180 210 255
180 210 255
180 210 255
180 210 255
180 210 255
180 210 255
180 210 255
181 211 255
181 211 255
181 211 255
181 211 255
181 211 255
181 211 255
181 211 255
181 211 255
181 211 255
181 211 255
181 211 255
181 211 255
181 211 255
181 211 255
181 211 255
181 211 255
181 211 255
181 211 255
181 211 255
181 211 255
181 211 255
181 211 255
181 211 255
182 211 255
182 211 255
182 211 255
182 211 255
182 211 255
182 211 255
182 211 255
182 211 255
182 211 255
182 211 255
182 211 255
182 211 255
182 211 255
182 211 255
182 211 255
182 211 255
182 211 255
182 212 255
182 212 255
182 212 255
182 212 255
182 212 255
182 212 255
182 212 255
182 212 255
182 212 255
183 212 255
183 212 255
183 212 255
183 212 255
183 212 255
183 212 255
183 212 255
183 212 255
183 212 255
183 212 255
183 212 255
183 212 255
183 212 255
183 212 255
183 212 255
183 212 255
183 212 255
183 212 255
183 212 255
183 212 255
183 212 255
183 212 255
183 212 255
183 212 255
183 212 255
183 212 255
183 212 255
183 212 255
183 212 255
183 212 255
183 212 255
183 212 255
183 212 255
183 212 255
183 212 255
183 212 255
183 212 255
183 212 255
183 212 255
183 212 255
183 212 255
183 212 255
183 212 255
183 212 255
183 212 255
183 212 255
183 212 255
183 212 255
183 212 255
183 212 255
183 212 255
182 212 255
182 212 255
182 212 255
182 212 255
182 212 255
182 212 255
182 212 255
182 212 255
182 212 255
182 211 255
182 211 255
182 211 255
182 211 255
182 211 255
182 211 255
182 211 255
182 211 255
182 211 255
182 211 255
182 211 255
182 211 255
182 211 255
182 211 255
182 211 255
182 211 255
181 211 255
181 211 255
181 211 255
181 211 255
181 211 255
181 211 255
181 211 255
181 211 255
181 211 255
181 211 255
181 211 255
181 211 255
181 211 255
181 211 255
181 211 255
181 211 255
181 211 255
181 211 255
181 211 255
181 211 255
181 211 255
181 211 255
181 211 255
180 210 255
180 210 255
180 210 255
180 210 255
180 210 255
180 210 255
180 210 255
180 210 255
180 210 255
180 210 255
180 210 255
180 210 255
180 210 255
180 210 255
180 210 255
180 210 255
180 210 255
180 210 255
180 210 255
180 210 255
179 210 255
179 210 255
179 210 255
179 210 255
179 210 255
179 210 255
179 210 255
179 210 255
179 210 255
179 210 255
179 210 255
179 210 255
179 210 255
179 209 255
179 209 255
179 209 255
179 209 255
179 209 255
179 209 255
178 209 255
178 209 255
178 209 255
178 209 255
178 209 255
178 209 255
178 209 255
178 209 255
178 209 255
178 209 255
178 209 255
178 209 255
178 209 255
178 209 255
178 209 255
178 209 255
178 209 255
178 209 255
178 209 255
177 209 255
177 209 255
177 209 255
177 209 255
177 209 255
160 189 232
62 77 99
65 81 106
68 84 109
66 83 108
68 84 109
64 79 102
68 84 108
61 76 98
69 86 111
64 79 101
65 80 103
66 81 104
62 78 101
64 79 103
63 78 100
68 85 110
64 79 103
69 86 110
66 81 104
65 80 102
62 77 100
66 82 105
66 82 106
64 79 101
63 79 103
66 83 108
68 84 108
67 83 108
67 83 106
68 84 110
68 85 109
67 83 108
67 81 103
68 83 107
62 77 99
62 78 102
64 79 101
66 81 104
68 84 109
61 76 98
65 80 103
64 79 103
65 81 105
65 80 104
63 78 100
65 81 104
65 80 104
65 81 105
67 83 106
66 81 104
67 83 107
66 81 104
66 82 105
59 74 97
68 83 106
66 82 107
66 82 106
64 79 102
65 81 105
66 82 106
71 87 112
68 84 107
61 76 99
63 79 104
67 83 107
65 80 104
66 82 106
66 84 110
66 81 104
65 80 103
65 81 105
64 79 102
65 80 102
63 79 103
62 77 100
68 84 108
66 82 106
64 80 105
64 80 104
61 76 99
65 81 105
65 80 103
65 80 103
65 81 104
68 84 109
65 81 104
68 84 108
66 82 105
70 87 112
66 82 105
64 79 102
63 78 100
67 84 108
67 82 106
64 79 103
65 80 104
70 86 110
66 82 105
66 81 105
63 79 104
63 78 102
65 81 104
65 81 105
68 84 108
68 85 110
69 84 107
62 77 100
64 78 99
66 83 107
68 85 110
66 82 106
64 80 103
68 84 108
62 79 103
64 80 103
73 90 115
167 197 242
177 209 255
177 209 255
177 209 255
177 209 255
177 209 255
178 209 255
178 209 255
178 209 255
178 209 255
178 209 255
178 209 255
178 209 255
178 209 255
178 209 255
178 209 255
178 209 255
178 209 255
178 209 255
178 209 255
178 209 255
178 209 255
178 209 255
178 209 255
178 209 255
179 209 255
179 209 255
179 209 255
179 209 255
179 209 255
179 209 255
179 210 255
179 210 255
179 210 255
179 210 255
179 210 255
179 210 255
179 210 255
179 210 255
179 210 255
179 210 255
179 210 255
179 210 255
179 210 255
180 210 255
180 210 255
180 210 255
180 210 255
180 210 255
180 210 255
180 210 255
180 210 255
180 210 255
180 210 255
180 210 255
180 210 255
180 210 255
180 210 255
180 210 255
180 210 255
180 210 255
180 210 255
180 210 255
180 210 255
181 211 255
181 211 255
181 211 255
181 211 255
181 211 255
181 211 255
181 211 255
181 211 255
181 211 255
181 211 255
181 211 255
181 211 255
181 211 255
181 211 255
181 211 255
181 211 255
181 211 255
181 211 255
181 211 255
181 211 255
181 211 255
181 211 255
181 211 255
182 211 255
182 211 255
182 211 255
182 211 255
182 211 255
182 211 255
182 211 255
182 211 255
182 211 255
182 211 255
182 211 255
182 211 255
182 211 255
182 211 255
182 211 255
182 211 255
182 211 255
182 212 255
182 212 255
182 212 255
182 212 255
182 212 255
182 212 255
182 212 255
182 212 255
183 212 255
183 212 255
183 212 255
183 212 255
183 212 255
183 212 255
183 212 255
183 212 255
183 212 255
183 212 255
183 212 255
183 212 255
183 212 255
183 212 255
183 212 255
183 212 255
183 212 255
183 212 255
183 212 255
183 212 255
183 212 255
183 212 255
183 212 255
183 212 255
183 212 255
183 212 255
183 212 255
183 212 255
183 212 255
183 212 255
184 212 255
184 212 255
184 212 255
184 212 255
184 212 255
184 212 255
184 212 255
184 212 255
183 212 255
183 212 255
183 212 255
183 212 255
183 212 255
183 212 255
183 212 255
183 212 255
183 212 255
183 212 255
183 212 255
183 212 255
183 212 255
183 212 255
183 212 255
183 212 255
183 212 255
183 212 255
183 212 255
183 212 255
183 212 255
183 212 255
183 212 255
183 212 255
183 212 255
183 212 255
183 212 255
183 212 255
183 212 255
183 212 255
182 212 255
182 212 255
182 212 255
182 212 255
182 212 255
182 212 255
182 212 255
182 212 255
182 212 255
182 211 255
182 211 255
182 211 255
182 211 255
182 211 255
182 211 255
182 211 255
182 211 255
182 211 255
182 211 255
182 211 255
182 211 255
182 211 255
182 211 255
182 211 255
182 211 255
182 211 255
181 211 255
181 211 255
181 211 255
181 211 255
181 211 255
181 211 255
181 211 255
181 211 255
181 211 255
181 211 255
181 211 255
181 211 255
181 211 255
181 211 255
181 211 255
181 211 255
181 211 255
181 211 255
181 211 255
181 211 255
181 211 255
180 210 255
180 210 255
180 210 255
180 210 255
180 210 255
180 210 255
180 210 255
180 210 255
180 210 255
180 210 255
180 210 255
180 210 255
180 210 255
180 210 255
180 210 255
180 210 255
180 210 255
180 210 255
180 210 255
180 210 255
180 210 255
179 210 255
179 210 255
179 210 255
179 210 255
179 210 255
179 210 255
179 210 255
179 210 255
179 210 255
179 210 255
179 210 255
179 210 255
179 210 255
179 209 255
179 209 255
179 209 255
179 209 255
179 209 255
179 209 255
179 209 255
178 209 255
178 209 255
178 209 255
178 209 255
178 209 255
178 209 255
178 209 255
178 209 255
178 209 255
178 209 255
178 209 255
178 209 255
178 209 255
178 209 255
178 209 255
104 125 157
67 83 107
63 78 100
69 85 110
68 85 110
67 83 107
67 83 108
64 80 104
64 79 103
66 82 106
60 75 98
63 78 100
61 76 98
60 75 97
68 84 109
69 86 112
65 81 104
68 84 107
66 82 105
65 82 106
69 85 109
66 83 109
65 81 104
64 78 101
64 80 104
65 81 105
67 83 107
66 81 103
66 82 105
65 80 103
63 78 101
66 81 104
64 79 102
69 86 112
70 86 110
63 78 101
63 78 100
59 73 96
63 77 99
65 80 102
65 80 103
69 85 109
65 81 105
63 78 100
61 76 98
68 85 109
66 82 105
65 81 105
62 78 102
62 78 101
64 80 102
64 78 100
64 78 100
66 82 105
62 78 102
66 81 104
63 77 99
65 80 103
63 78 101
67 83 107
65 81 105
66 82 106
64 79 102
62 77 100
65 80 104
62 76 98
66 82 107
67 82 106
65 81 104
64 80 104
65 82 107
67 83 107
64 79 101
69 86 111
62 77 101
69 84 108
68 84 108
60 74 96
61 77 99
65 81 106
63 78 101
62 78 102
65 80 103
64 80 104
66 82 106
66 83 107
63 77 100
65 81 104
65 80 104
68 84 109
65 80 103
66 81 104
64 80 104
63 78 101
64 79 102
64 79 103
66 83 109
64 79 102
63 78 101
63 78 101
65 82 107
67 83 106
64 81 106
64 80 104
61 76 99
61 77 99
64 80 103
64 80 103
66 83 107
65 81 104
66 82 106
64 79 102
63 79 104
64 79 102
70 86 111
63 78 101
63 79 102
112 135 168
178 209 255
178 209 255
178 209 255
178 209 255
178 209 255
178 209 255
178 209 255
178 209 255
178 209 255
178 209 255
178 209 255
178 209 255
178 209 255
178 209 255
178 209 255
178 209 255
179 209 255
179 209 255
179 209 255
179 209 255
179 209 255
179 209 255
179 210 255
179 210 255
179 210 255
179 210 255
179 210 255
179 210 255
179 210 255
179 210 255
179 210 255
179 210 255
179 210 255
179 210 255
179 210 255
180 210 255
180 210 255
180 210 255
180 210 255
180 210 255
180 210 255
180 210 255
180 210 255
180 210 255
180 210 255
180 210 255
180 210 255
180 210 255
180 210 255
180 210 255
180 210 255
180 210 255
180 210 255
180 210 255
180 210 255
180 210 255
181 211 255
181 211 255
181 211 255
181 211 255
181 211 255
181 211 255
181 211 255
181 211 255
181 211 255
181 211 255
181 211 255
181 211 255
181 211 255
181 211 255
181 211 255
181 211 255
181 211 255
181 211 255
181 211 255
181 211 255
181 211 255
181 211 255
182 211 255
182 211 255
182 211 255
182 211 255
182 211 255
182 211 255
182 211 255
182 211 255
182 211 255
182 211 255
182 211 255
182 211 255
182 211 255
182 211 255
182 211 255
182 211 255
182 212 255
182 212 255
182 212 255
182 212 255
182 212 255
182 212 255
182 212 255
182 212 255
182 212 255
183 212 255
183 212 255
183 212 255
183 212 255
183 212 255
183 212 255
183 212 255
183 212 255
183 212 255
183 212 255
183 212 255
183 212 255
183 212 255
183 212 255
183 212 255
183 212 255
183 212 255
183 212 255
183 212 255
183 212 255
183 212 255
183 212 255
183 212 255
183 212 255
183 212 255
183 212 255
183 212 255
183 212 255
183 212 255
183 212 255
184 212 255
184 212 255
184 212 255
184 212 255
184 212 255
184 212 255
184 212 255
184 212 255
184 213 255
184 213 255
184 213 255
184 213 255
184 213 255
184 213 255
184 212 255
184 212 255
184 212 255
184 212 255
184 212 255
184 212 255
184 212 255
184 212 255
184 212 255
184 212 255
184 212 255
184 212 255
183 212 255
183 212 255
183 212 255
183 212 255
183 212 255
183 212 255
183 212 255
183 212 255
183 212 255
183 212 255
183 212 255
183 212 255
183 212 255
183 212 255
183 212 255
183 212 255
183 212 255
183 212 255
183 212 255
183 212 255
183 212 255
183 212 255
183 212 255
183 212 255
183 212 255
183 212 255
183 212 255
183 212 255
183 212 255
182 212 255
182 212 255
182 212 255
182 212 255
182 212 255
182 212 255
182 212 255
182 212 255
182 212 255
182 211 255
182 211 255
182 211 255
182 211 255
182 211 255
182 211 255
182 211 255
182 211 255
182 211 255
182 211 255
182 211 255
182 211 255
182 211 255
182 211 255
182 211 255
182 211 255
181 211 255
181 211 255
181 211 255
181 211 255
181 211 255
181 211 255
181 211 255
181 211 255
181 211 255
181 211 255
181 211 255
181 211 255
181 211 255
181 211 255
181 211 255
181 211 255
181 211 255
181 211 255
181 211 255
181 211 255
181 211 255
181 211 255
180 210 255
180 210 255
180 210 255
180 210 255
180 210 255
180 210 255
180 210 255
180 210 255
180 210 255
180 210 255
180 210 255
180 210 255
180 210 255
180 210 255
180 210 255
180 210 255
180 210 255
180 210 255
180 210 255
180 210 255
179 210 255
179 210 255
179 210 255
179 210 255
179 210 255
179 210 255
179 210 255
179 210 255
179 210 255
179 210 255
179 210 255
179 210 255
179 210 255
179 209 255
179 209 255
179 209 255
179 209 255
179 209 255
179 209 255
179 209 255
179 209 255
178 209 255
178 209 255
178 209 255
178 209 255
178 209 255
170 200 245
74 91 116
65 79 102
67 83 108
66 82 106
67 82 104
64 79 101
67 84 110
67 84 108
65 80 103
62 79 103
65 80 103
59 74 95
66 82 107
64 80 104
63 78 100
63 78 100
64 80 104
63 79 102
67 82 106
70 86 111
64 80 103
65 81 105
65 79 101
64 80 104
65 80 102
65 81 104
61 76 100
67 83 106
68 84 109
60 75 96
66 82 106
68 84 107
63 78 102
62 77 99
66 82 106
58 72 94
61 77 100
64 79 102
65 81 105
60 75 97
65 80 104
65 81 104
66 82 106
63 78 100
66 81 105
71 87 112
62 78 101
66 83 107
63 79 102
64 80 103
65 81 105
67 84 109
67 83 108
63 78 101
68 83 106
66 82 106
66 81 103
65 81 105
66 81 104
67 82 105
63 79 101
67 81 103
66 81 104
65 81 104
66 82 105
64 79 102
62 77 99
64 80 103
65 80 102
65 82 106
64 79 101
64 80 104
65 81 105
64 80 104
63 78 101
63 77 99
65 80 103
63 79 102
62 77 100
62 78 101
67 83 106
62 77 101
65 81 105
64 79 103
68 85 109
68 85 110
61 75 97
65 81 104
63 78 100
64 80 102
65 81 104
68 84 109
63 77 99
65 82 108
63 78 102
63 80 104
66 81 104
68 85 110
65 80 104
69 85 109
61 76 99
65 81 105
62 77 99
66 82 105
65 80 103
64 79 103
65 81 105
67 83 107
63 78 101
67 82 106
63 78 100
65 81 105
63 78 101
68 84 108
69 85 109
67 82 105
67 82 103
66 82 106
159 188 231
178 209 255
178 209 255
178 209 255
178 209 255
178 209 255
179 209 255
179 209 255
179 209 255
179 209 255
179 209 255
179 209 255
179 209 255
179 210 255
179 210 255
179 210 255
179 210 255
179 210 255
179 210 255
179 210 255
179 210 255
179 210 255
179 210 255
179 210 255
179 210 255
179 210 255
179 210 255
180 210 255
180 210 255
180 210 255
180 210 255
180 210 255
180 210 255
180 210 255
180 210 255
180 210 255
180 210 255
180 210 255
180 210 255
180 210 255
180 210 255
180 210 255
180 210 255
180 210 255
180 210 255
180 210 255
180 210 255
181 211 255
181 211 255
181 211 255
181 211 255
181 211 255
181 211 255
181 211 255
181 211 255
181 211 255
181 211 255
181 211 255
181 211 255
181 211 255
181 211 255
181 211 255
181 211 255
181 211 255
181 211 255
181 211 255
181 211 255
181 211 255
181 211 255
182 211 255
182 211 255
182 211 255
182 211 255
182 211 255
182 211 255
182 211 255
182 211 255
182 211 255
182 211 255
182 211 255
182 211 255
182 211 255
182 211 255
182 211 255
182 211 255
182 211 255
182 212 255
182 212 255
182 212 255
182 212 255
182 212 255
182 212 255
182 212 255
182 212 255
183 212 255
183 212 255
183 212 255
183 212 255
183 212 255
183 212 255
183 212 255
183 212 255
183 212 255
183 212 255
183 212 255
183 212 255
183 212 255
183 212 255
183 212 255
183 212 255
183 212 255
183 212 255
183 212 255
183 212 255
183 212 255
183 212 255
183 212 255
183 212 255
183 212 255
183 212 255
183 212 255
183 212 255
183 212 255
183 212 255
184 212 255
184 212 255
184 212 255
184 212 255
184 212 255
184 212 255
184 212 255
184 212 255
184 212 255
184 212 255
184 212 255
184 213 255
184 213 255
184 213 255
184 213 255
184 213 255
184 213 255
184 213 255
184 213 255
184 213 255
184 213 255
184 213 255
184 213 255
184 213 255
184 213 255
184 213 255
184 213 255
184 213 255
184 213 255
184 213 255
184 213 255
184 213 255
184 213 255
184 212 255
184 212 255
184 212 255
184 212 255
184 212 255
184 212 255
184 212 255
184 212 255
184 212 255
184 212 255
183 212 255
183 212 255
183 212 255
183 212 255
183 212 255
183 212 255
183 212 255
183 212 255
183 212 255
183 212 255
183 212 255
183 212 255
183 212 255
183 212 255
183 212 255
183 212 255
183 212 255
183 212 255
183 212 255
183 212 255
183 212 255
183 212 255
183 212 255
183 212 255
183 212 255
183 212 255
183 212 255
183 212 255
183 212 255
183 212 255
182 212 255
182 212 255
182 212 255
182 212 255
182 212 255
182 212 255
182 212 255
182 212 255
182 211 255
182 211 255
182 211 255
182 211 255
182 211 255
182 211 255
182 211 255
182 211 255
182 211 255
182 211 255
182 211 255
182 211 255
182 211 255
182 211 255
182 211 255
182 211 255
182 211 255
181 211 255
181 211 255
181 211 255
181 211 255
181 211 255
181 211 255
181 211 255
181 211 255
181 211 255
181 211 255
181 211 255
181 211 255
181 211 255
181 211 255
181 211 255
181 211 255
181 211 255
181 211 255
181 211 255
181 211 255
181 211 255
180 210 255
180 210 255
180 210 255
180 210 255
180 210 255
180 210 255
180 210 255
180 210 255
180 210 255
180 210 255
180 210 255
180 210 255
180 210 255
180 210 255
180 210 255
180 210 255
180 210 255
180 210 255
180 210 255
180 210 255
180 210 255
179 210 255
179 210 255
179 210 255
179 210 255
179 210 255
179 210 255
179 210 255
179 210 255
179 210 255
179 210 255
179 210 255
179 210 255
179 210 255
179 210 255
179 209 255
179 209 255
179 209 255
116 139 174
68 84 109
66 82 106
68 85 109
64 80 103
63 79 102
68 84 110
64 79 102
65 80 104
63 78 102
63 78 101
63 77 100
64 81 106
63 78 100
62 77 100
61 76 98
67 82 105
68 84 107
68 83 107
70 86 110
58 73 95
64 79 102
67 82 106
62 78 102
66 81 105
67 83 107
65 81 104
61 75 97
65 80 104
67 83 108
63 79 103
66 81 104
64 79 103
67 83 106
66 81 104
67 83 108
66 81 103
66 82 106
69 85 110
65 81 105
62 77 100
64 79 102
63 78 101
60 75 97
65 81 105
67 82 104
65 81 104
62 78 101
65 80 103
62 78 101
64 80 104
66 81 105
64 80 103
65 81 106
67 84 109
68 84 110
67 82 105
63 78 100
62 76 98
63 79 104
63 79 102
63 79 103
62 78 102
67 82 104
64 81 105
66 81 104
64 79 102
68 84 108
66 82 105
67 82 106
68 84 107
65 80 103
67 83 108
64 79 103
61 77 100
64 80 103
60 75 96
68 84 108
65 80 103
62 77 99
61 76 99
62 77 100
66 82 106
63 78 101
62 77 99
63 78 100
63 78 101
66 82 106
67 83 108
68 84 108
61 76 99
62 76 99
64 80 104
66 82 106
63 78 101
64 80 103
63 78 100
64 80 104
68 84 108
65 80 103
64 79 102
68 84 109
62 78 101
64 81 105
62 77 100
62 77 100
66 81 103
62 77 98
63 78 100
65 80 103
66 81 104
64 79 101
69 85 109
66 81 103
63 79 102
64 80 104
68 84 108
68 84 107
62 77 101
116 139 172
179 209 255
179 209 255
179 209 255
179 210 255
179 210 255
179 210 255
179 210 255
179 210 255
179 210 255
179 210 255
179 210 255
179 210 255
179 210 255
179 210 255
179 210 255
179 210 255
179 210 255
180 210 255
180 210 255
180 210 255
180 210 255
180 210 255
180 210 255
180 210 255
180 210 255
180 210 255
180 210 255
180 210 255
180 210 255
180 210 255
180 210 255
180 210 255
180 210 255
180 210 255
180 210 255
180 210 255
180 210 255
180 210 255
181 211 255
181 211 255
181 211 255
181 211 255
181 211 255
181 211 255
181 211 255
181 211 255
181 211 255
181 211 255
181 211 255
181 211 255
181 211 255
181 211 255
181 211 255
181 211 255
181 211 255
181 211 255
181 211 255
181 211 255
181 211 255
181 211 255
182 211 255
182 211 255
182 211 255
182 211 255
182 211 255
182 211 255
182 211 255
182 211 255
182 211 255
182 211 255
182 211 255
182 211 255
182 211 255
182 211 255
182 211 255
182 211 255
182 212 255
182 212 255
182 212 255
182 212 255
182 212 255
182 212 255
182 212 255
182 212 255
182 212 255
183 212 255
183 212 255
183 212 255
183 212 255
183 212 255
183 212 255
183 212 255
183 212 255
183 212 255
183 212 255
183 212 255
183 212 255
183 212 255
183 212 255
183 212 255
183 212 255
183 212 255
183 212 255
183 212 255
183 212 255
183 212 255
183 212 255
183 212 255
183 212 255
183 212 255
183 212 255
183 212 255
183 212 255
183 212 255
184 212 255
184 212 255
184 212 255
184 212 255
184 212 255
184 212 255
184 212 255
184 212 255
184 212 255
184 212 255
184 213 255
184 213 255
184 213 255
184 213 255
184 213 255
184 213 255
184 213 255
184 213 255
184 213 255
184 213 255
184 213 255
184 213 255
184 213 255
184 213 255
184 213 255
184 213 255
185 213 255
185 213 255
184 213 255
184 213 255
184 213 255
184 213 255
184 213 255
184 213 255
184 213 255
184 213 255
184 213 255
184 213 255
184 213 255
184 213 255
184 213 255
184 213 255
184 213 255
184 213 255
184 213 255
184 213 255
184 213 255
184 213 255
184 213 255
184 213 255
184 213 255
184 213 255
184 212 255
184 212 255
184 212 255
184 212 255
184 212 255
184 212 255
184 212 255
184 212 255
184 212 255
184 212 255
184 212 255
183 212 255
183 212 255
183 212 255
183 212 255
183 212 255
183 212 255
183 212 255
183 212 255
183 212 255
183 212 255
183 212 255
183 212 255
183 212 255
183 212 255
183 212 255
183 212 255
183 212 255
183 212 255
183 212 255
183 212 255
183 212 255
183 212 255
183 212 255
183 212 255
183 212 255
183 212 255
183 212 255
182 212 255
182 212 255
182 212 255
182 212 255
182 212 255
182 212 255
182 212 255
182 212 255
182 212 255
182 211 255
182 211 255
182 211 255
182 211 255
182 211 255
182 211 255
182 211 255
182 211 255
182 211 255
182 211 255
182 211 255
182 211 255
182 211 255
182 211 255
182 211 255
182 211 255
181 211 255
181 211 255
181 211 255
181 211 255
181 211 255
181 211 255
181 211 255
181 211 255
181 211 255
181 211 255
181 211 255
181 211 255
181 211 255
181 211 255
181 211 255
181 211 255
181 211 255
181 211 255
181 211 255
181 211 255
181 211 255
181 211 255
180 210 255
180 210 255
180 210 255
180 210 255
180 210 255
180 210 255
180 210 255
180 210 255
180 210 255
180 210 255
180 210 255
180 210 255
180 210 255
180 210 255
180 210 255
180 210 255
180 210 255
180 210 255
180 210 255
180 210 255
180 210 255
180 210 255
179 210 255
179 210 255
179 210 255
179 210 255
179 210 255
179 210 255
176 206 251
71 88 114
67 83 108
67 83 107
72 89 114
68 84 107
62 78 102
62 77 100
63 79 104
62 77 100
64 79 102
62 77 99
62 76 98
62 77 98
65 80 103
65 80 104
65 81 105
69 85 109
66 82 106
68 84 109
65 80 104
63 78 100
65 81 104
64 80 104
64 78 100
64 80 104
62 78 101
62 77 100
70 86 111
62 76 99
69 85 109
63 79 102
65 80 103
68 83 106
66 82 106
67 83 108
57 72 94
63 79 102
67 82 104
65 81 105
64 79 101
67 82 106
66 82 106
64 79 102
64 80 103
66 82 105
64 79 102
63 78 100
65 81 104
65 81 105
63 78 101
65 80 103
61 76 98
63 78 100
65 81 105
64 79 103
63 79 103
61 76 98
61 76 99
66 82 106
68 85 109
61 76 100
65 80 104
63 77 99
72 87 111
67 83 106
66 82 106
64 80 103
63 77 99
63 78 100
62 77 100
66 81 105
65 81 106
66 82 107
64 81 105
70 86 110
63 78 100
63 79 102
65 80 103
59 74 97
63 78 100
64 80 104
64 79 101
63 79 102
61 77 101
68 83 107
64 78 101
66 81 105
64 81 105
63 78 101
64 80 104
61 75 96
62 77 100
64 80 105
65 80 102
61 76 99
67 83 107
63 80 104
61 77 100
66 82 106
61 75 96
66 81 104
64 79 103
67 83 107
62 77 99
60 75 97
63 78 100
67 83 107
66 83 107
65 81 104
68 84 108
63 78 100
62 77 99
66 82 106
66 81 105
66 81 104
64 80 103
63 78 100
65 81 104
64 79 102
75 91 116
177 207 252
179 210 255
179 210 255
179 210 255
179 210 255
179 210 255
179 210 255
180 210 255
180 210 255
180 210 255
180 210 255
180 210 255
180 210 255
180 210 255
180 210 255
180 210 255
180 210 255
180 210 255
180 210 255
180 210 255
180 210 255
180 210 255
180 210 255
180 210 255
180 210 255
180 210 255
180 210 255
180 210 255
180 210 255
181 211 255
181 211 255
181 211 255
181 211 255
181 211 255
181 211 255
181 211 255
181 211 255
181 211 255
181 211 255
181 211 255
181 211 255
181 211 255
181 211 255
181 211 255
181 211 255
181 211 255
181 211 255
181 211 255
181 211 255
181 211 255
181 211 255
182 211 255
182 211 255
182 211 255
182 211 255
182 211 255
182 211 255
182 211 255
182 211 255
182 211 255
182 211 255
182 211 255
182 211 255
182 211 255
182 211 255
182 211 255
182 211 255
182 212 255
182 212 255
182 212 255
182 212 255
182 212 255
182 212 255
182 212 255
182 212 255
183 212 255
183 212 255
183 212 255
183 212 255
183 212 255
183 212 255
183 212 255
183 212 255
183 212 255
183 212 255
183 212 255
183 212 255
183 212 255
183 212 255
183 212 255
183 212 255
183 212 255
183 212 255
183 212 255
183 212 255
183 212 255
183 212 255
183 212 255
183 212 255
183 212 255
183 212 255
183 212 255
183 212 255
184 212 255
184 212 255
184 212 255
184 212 255
184 212 255
184 212 255
184 212 255
184 212 255
184 212 255
184 212 255
184 213 255
184 213 255
184 213 255
184 213 255
184 213 255
184 213 255
184 213 255
184 213 255
184 213 255
184 213 255
184 213 255
184 213 255
184 213 255
184 213 255
184 213 255
184 213 255
184 213 255
184 213 255
184 213 255
184 213 255
184 213 255
184 213 255
184 213 255
184 213 255
184 213 255
185 213 255
185 213 255
185 213 255
185 213 255
185 213 255
185 213 255
185 213 255
185 213 255
185 213 255
185 213 255
185 213 255
185 213 255
185 213 255
185 213 255
185 213 255
184 213 255
184 213 255
184 213 255
184 213 255
184 213 255
184 213 255
184 213 255
184 213 255
184 213 255
184 213 255
184 213 255
184 213 255
184 213 255
184 213 255
184 213 255
184 213 255
184 213 255
184 213 255
184 213 255
184 213 255
184 213 255
184 213 255
184 213 255
184 212 255
184 212 255
184 212 255
184 212 255
184 212 255
184 212 255
184 212 255
184 212 255
184 212 255
184 212 255
183 212 255
183 212 255
183 212 255
183 212 255
183 212 255
183 212 255
183 212 255
183 212 255
183 212 255
183 212 255
183 212 255
183 212 255
183 212 255
183 212 255
183 212 255
183 212 255
183 212 255
183 212 255
183 212 255
183 212 255
183 212 255
183 212 255
183 212 255
183 212 255
183 212 255
183 212 255
183 212 255
183 212 255
182 212 255
182 212 255
182 212 255
182 212 255
182 212 255
182 212 255
182 212 255
182 212 255
182 211 255
182 211 255
182 211 255
182 211 255
182 211 255
182 211 255
182 211 255
182 211 255
182 211 255
182 211 255
182 211 255
182 211 255
182 211 255
182 211 255
182 211 255
182 211 255
182 211 255
181 211 255
181 211 255
181 211 255
181 211 255
181 211 255
181 211 255
181 211 255
181 211 255
181 211 255
181 211 255
181 211 255
181 211 255
181 211 255
181 211 255
181 211 255
181 211 255
181 211 255
181 211 255
181 211 255
181 211 255
181 211 255
180 210 255
180 210 255
180 210 255
180 210 255
180 210 255
180 210 255
180 210 255
180 210 255
180 210 255
180 210 255
180 210 255
180 210 255
180 210 255
180 210 255
180 210 255
180 210 255
180 210 255
180 210 255
180 210 255
133 157 194
67 83 107
69 85 110
64 79 103
67 81 104
69 84 108
64 80 105
68 84 108
65 81 105
66 81 103
64 80 105
66 82 106
65 82 107
65 81 105
68 84 108
63 78 101
64 79 103
67 83 107
63 80 104
62 77 99
63 79 102
68 83 106
64 80 103
69 84 107
62 77 100
64 80 103
65 80 104
67 82 105
66 82 106
63 78 102
66 82 105
63 79 104
67 84 110
63 79 102
64 79 102
65 80 104
65 80 104
66 81 104
62 77 101
66 81 103
67 83 107
60 75 97
70 86 110
63 79 102
62 76 97
62 77 99
67 83 107
64 79 102
64 80 103
63 77 100
66 82 106
69 84 107
63 78 101
66 82 106
66 82 106
69 84 108
65 80 102
62 77 98
63 79 102
61 75 97
66 82 106
65 80 103
70 86 110
64 79 101
65 80 104
65 81 105
66 81 104
65 80 104
63 77 99
66 82 107
67 83 106
62 77 99
66 81 104
66 81 104
65 81 105
67 83 107
67 82 105
62 78 102
62 77 100
67 83 106
64 79 102
68 82 104
62 79 104
62 77 100
61 76 99
64 80 104
62 77 100
61 76 98
66 81 105
62 78 101
67 82 106
59 74 97
62 77 99
64 80 104
68 84 108
70 86 109
63 79 103
63 78 101
66 81 103
64 80 103
64 79 102
63 78 99
63 79 102
70 86 111
64 79 101
67 83 107
67 83 107
65 80 104
67 84 108
65 80 104
65 81 105
67 82 106
67 83 106
68 84 108
63 78 101
63 79 102
64 80 104
66 82 105
65 81 104
65 81 106
67 83 107
139 164 202
180 210 255
180 210 255
180 210 255
180 210 255
180 210 255
180 210 255
180 210 255
180 210 255
180 210 255
180 210 255
180 210 255
180 210 255
180 210 255
180 210 255
180 210 255
180 210 255
180 210 255
180 210 255
181 211 255
181 211 255
181 211 255
181 211 255
181 211 255
181 211 255
181 211 255
181 211 255
181 211 255
181 211 255
181 211 255
181 211 255
181 211 255
181 211 255
181 211 255
181 211 255
181 211 255
181 211 255
181 211 255
181 211 255
181 211 255
181 211 255
181 211 255
182 211 255
182 211 255
182 211 255
182 211 255
182 211 255
182 211 255
182 211 255
182 211 255
182 211 255
182 211 255
182 211 255
182 211 255
182 211 255
182 211 255
182 211 255
182 211 255
182 212 255
182 212 255
182 212 255
182 212 255
182 212 255
182 212 255
182 212 255
182 212 255
183 212 255
183 212 255
183 212 255
183 212 255
183 212 255
183 212 255
183 212 255
183 212 255
183 212 255
183 212 255
183 212 255
183 212 255
183 212 255
183 212 255
183 212 255
183 212 255
183 212 255
183 212 255
183 212 255
183 212 255
183 212 255
183 212 255
183 212 255
183 212 255
183 212 255
183 212 255
183 212 255
183 212 255
184 212 255
184 212 255
184 212 255
184 212 255
184 212 255
184 212 255
184 212 255
184 212 255
184 212 255
184 212 255
184 213 255
184 213 255
184 213 255
184 213 255
184 213 255
184 213 255
184 213 255
184 213 255
184 213 255
184 213 255
184 213 255
184 213 255
184 213 255
184 213 255
184 213 255
184 213 255
184 213 255
184 213 255
184 213 255
184 213 255
184 213 255
184 213 255
184 213 255
185 213 255
185 213 255
185 213 255
185 213 255
185 213 255
185 213 255
185 213 255
185 213 255
185 213 255
185 213 255
185 213 255
185 213 255
185 213 255
185 213 255
185 213 255
185 213 255
185 213 255
185 213 255
185 213 255
185 213 255
185 213 255
185 213 255
185 213 255
185 213 255
185 213 255
185 213 255
185 213 255
185 213 255
185 213 255
185 213 255
185 213 255
185 213 255
185 213 255
185 213 255
185 213 255
185 213 255
185 213 255
184 213 255
184 213 255
184 213 255
184 213 255
184 213 255
184 213 255
184 213 255
184 213 255
184 213 255
184 213 255
184 213 255
184 213 255
184 213 255
184 213 255
184 213 255
184 213 255
184 213 255
184 213 255
184 213 255
184 213 255
184 213 255
184 213 255
184 212 255
184 212 255
184 212 255
184 212 255
184 212 255
184 212 255
184 212 255
184 212 255
184 212 255
184 212 255
183 212 255
183 212 255
183 212 255
183 212 255
183 212 255
183 212 255
183 212 255
183 212 255
183 212 255
183 212 255
183 212 255
183 212 255
183 212 255
183 212 255
183 212 255
183 212 255
183 212 255
183 212 255
183 212 255
183 212 255
183 212 255
183 212 255
183 212 255
183 212 255
183 212 255
183 212 255
183 212 255
183 212 255
182 212 255
182 212 255
182 212 255
182 212 255
182 212 255
182 212 255
182 212 255
182 212 255
182 211 255
182 211 255
182 211 255
182 211 255
182 211 255
182 211 255
182 211 255
182 211 255
182 211 255
182 211 255
182 211 255
182 211 255
182 211 255
182 211 255
182 211 255
182 211 255
181 211 255
181 211 255
181 211 255
181 211 255
181 211 255
181 211 255
181 211 255
181 211 255
181 211 255
181 211 255
181 211 255
181 211 255
181 211 255
181 211 255
181 211 255
181 211 255
181 211 255
181 211 255
181 211 255
181 211 255
181 211 255
181 211 255
181 211 255
181 211 255
180 210 255
180 210 255
180 210 255
180 210 255
180 210 255
180 210 255
180 210 255
88 106 134
63 79 104
64 81 105
64 79 103
66 81 104
65 81 105
64 79 103
64 79 102
66 81 104
64 79 103
67 83 106
65 81 105
67 83 106
67 82 106
68 83 106
64 79 101
65 80 102
66 82 106
66 82 106
61 76 99
65 81 104
68 84 108
63 78 101
65 80 103
64 79 102
66 80 102
64 79 101
63 78 101
62 77 98
59 73 95
66 82 105
66 82 105
65 80 103
67 82 104
64 79 102
63 78 101
66 82 105
67 83 107
66 82 105
63 78 100
63 79 104
67 82 105
66 82 105
67 82 105
65 81 104
64 80 103
65 80 104
65 81 106
66 81 104
60 75 98
64 79 101
64 79 102
67 83 108
66 82 106
64 79 101
64 79 102
61 76 97
61 76 99
66 82 106
66 82 106
67 81 103
65 80 102
62 77 98
65 81 104
60 74 96
63 79 102
64 79 102
64 78 99
65 80 102
62 77 98
65 80 103
61 77 100
60 76 98
62 77 99
64 79 102
67 82 105
67 84 110
68 83 107
63 78 101
65 80 103
63 78 100
63 77 98
63 77 99
64 79 102
66 82 105
64 79 103
64 80 103
63 79 102
65 80 102
61 77 101
68 83 106
64 79 102
66 82 105
64 78 101
62 76 98
65 80 102
66 81 104
63 77 99
64 80 104
65 80 103
67 84 110
64 80 104
64 79 103
64 80 104
68 83 106
65 80 102
66 82 105
62 77 99
64 80 103
65 81 105
64 79 102
59 74 97
66 82 105
63 79 103
63 79 103
62 78 101
66 82 106
66 82 105
65 81 105
63 79 103
68 84 108
94 113 143
180 210 255
180 210 255
180 210 255
180 210 255
180 210 255
180 210 255
180 210 255
180 210 255
180 210 255
181 211 255
181 211 255
181 211 255
181 211 255
181 211 255
181 211 255
181 211 255
181 211 255
181 211 255
181 211 255
181 211 255
181 211 255
181 211 255
181 211 255
181 211 255
181 211 255
181 211 255
181 211 255
181 211 255
181 211 255
181 211 255
181 211 255
182 211 255
182 211 255
182 211 255
182 211 255
182 211 255
182 211 255
182 211 255
182 211 255
182 211 255
182 211 255
182 211 255
182 211 255
182 211 255
182 211 255
182 211 255
182 211 255
182 212 255
182 212 255
182 212 255
182 212 255
182 212 255
182 212 255
182 212 255
182 212 255
183 212 255
183 212 255
183 212 255
183 212 255
183 212 255
183 212 255
183 212 255
183 212 255
183 212 255
183 212 255
183 212 255
183 212 255
183 212 255
183 212 255
183 212 255
183 212 255
183 212 255
183 212 255
183 212 255
183 212 255
183 212 255
183 212 255
183 212 255
183 212 255
183 212 255
183 212 255
183 212 255
183 212 255
184 212 255
184 212 255
184 212 255
184 212 255
184 212 255
184 212 255
184 212 255
184 212 255
184 212 255
184 212 255
184 213 255
184 213 255
184 213 255
184 213 255
184 213 255
184 213 255
184 213 255
184 213 255
184 213 255
184 213 255
184 213 255
184 213 255
184 213 255
184 213 255
184 213 255
184 213 255
184 213 255
184 213 255
184 213 255
184 213 255
184 213 255
184 213 255
185 213 255
185 213 255
185 213 255
185 213 255
185 213 255
185 213 255
185 213 255
185 213 255
185 213 255
185 213 255
185 213 255
185 213 255
185 213 255
185 213 255
185 213 255
185 213 255
185 213 255
185 213 255
185 213 255
185 213 255
185 213 255
185 213 255
185 213 255
185 213 255
185 213 255
185 213 255
185 213 255
185 213 255
185 213 255
185 213 255
185 213 255
185 213 255
185 213 255
185 213 255
185 213 255
185 213 255
185 213 255
185 213 255
185 213 255
185 213 255
185 213 255
185 213 255
185 213 255
185 213 255
185 213 255
185 213 255
185 213 255
185 213 255
185 213 255
185 213 255
185 213 255
185 213 255
185 213 255
185 213 255
185 213 255
185 213 255
185 213 255
185 213 255
185 213 255
184 213 255
184 213 255
184 213 255
184 213 255
184 213 255
184 213 255
184 213 255
184 213 255
184 213 255
184 213 255
184 213 255
184 213 255
184 213 255
184 213 255
184 213 255
184 213 255
184 213 255
184 213 255
184 213 255
184 213 255
184 213 255
184 213 255
184 212 255
184 212 255
184 212 255
184 212 255
184 212 255
184 212 255
184 212 255
184 212 255
184 212 255
183 212 255
183 212 255
183 212 255
183 212 255
183 212 255
183 212 255
183 212 255
183 212 255
183 212 255
183 212 255
183 212 255
183 212 255
183 212 255
183 212 255
183 212 255
183 212 255
183 212 255
183 212 255
183 212 255
183 212 255
183 212 255
183 212 255
183 212 255
183 212 255
183 212 255
183 212 255
183 212 255
182 212 255
182 212 255
182 212 255
182 212 255
182 212 255
182 212 255
182 212 255
182 212 255
182 211 255
182 211 255
182 211 255
182 211 255
182 211 255
182 211 255
182 211 255
182 211 255
182 211 255
182 211 255
182 211 255
182 211 255
182 211 255
182 211 255
182 211 255
182 211 255
182 211 255
181 211 255
181 211 255
181 211 255
181 211 255
181 211 255
181 211 255
181 211 255
181 211 255
181 211 255
181 211 255
181 211 255
181 211 255
181 211 255
181 211 255
181 211 255
181 211 255
181 211 255
181 211 255
181 211 255
181 211 255
170 199 242
66 81 104
66 82 105
66 82 107
65 81 104
63 78 101
63 79 104
66 81 104
67 82 105
65 79 100
66 81 105
66 81 103
62 77 100
63 77 99
66 81 103
63 79 102
67 83 108
59 74 98
65 81 105
67 83 107
64 80 104
65 81 106
71 86 109
65 80 104
61 76 98
67 83 106
60 75 99
64 79 102
66 82 107
65 80 103
63 78 100
67 82 105
64 80 103
63 78 101
62 76 98
65 80 104
70 86 110
67 83 106
64 79 101
61 76 98
65 81 105
69 85 109
64 79 102
63 78 101
67 81 104
60 75 98
65 81 105
67 82 106
65 79 101
63 78 100
64 79 102
63 78 102
59 75 98
66 81 103
62 78 101
61 76 98
62 77 100
63 78 100
63 78 101
62 77 98
64 79 102
65 79 102
68 84 108
65 80 103
65 79 101
62 77 100
63 79 102
63 77 99
64 80 103
66 80 100
66 82 105
65 81 104
66 81 103
67 83 106
61 75 98
69 85 109
65 80 103
66 81 104
61 75 96
64 79 101
69 85 110
63 77 99
65 80 103
66 81 104
64 79 101
62 76 98
64 79 103
59 73 95
64 80 105
62 78 102
63 79 102
65 81 104
69 86 111
62 77 101
66 82 106
62 77 99
67 82 106
64 80 104
64 79 101
69 85 108
63 78 101
63 77 99
68 84 109
63 77 99
63 78 101
66 81 105
66 82 105
64 79 101
66 82 105
64 79 101
65 81 104
67 83 106
64 80 103
64 79 101
68 84 108
62 77 99
64 79 101
62 76 98
68 83 106
67 83 108
67 83 106
65 80 103
69 85 109
172 201 245
181 211 255
181 211 255
181 211 255
181 211 255
181 211 255
181 211 255
181 211 255
181 211 255
181 211 255
181 211 255
181 211 255
181 211 255
181 211 255
181 211 255
181 211 255
181 211 255
181 211 255
181 211 255
181 211 255
181 211 255
182 211 255
182 211 255
182 211 255
182 211 255
182 211 255
182 211 255
182 211 255
182 211 255
182 211 255
182 211 255
182 211 255
182 211 255
182 211 255
182 211 255
182 211 255
182 211 255
182 212 255
182 212 255
182 212 255
182 212 255
182 212 255
182 212 255
182 212 255
182 212 255
183 212 255
183 212 255
183 212 255
183 212 255
183 212 255
183 212 255
183 212 255
183 212 255
183 212 255
183 212 255
183 212 255
183 212 255
183 212 255
183 212 255
183 212 255
183 212 255
183 212 255
183 212 255
183 212 255
183 212 255
183 212 255
183 212 255
183 212 255
183 212 255
183 212 255
183 212 255
183 212 255
184 212 255
184 212 255
184 212 255
184 212 255
184 212 255
184 212 255
184 212 255
184 212 255
184 212 255
184 212 255
184 213 255
184 213 255
184 213 255
184 213 255
184 213 255
184 213 255
184 213 255
184 213 255
184 213 255
184 213 255
184 213 255
184 213 255
184 213 255
184 213 255
184 213 255
184 213 255
184 213 255
184 213 255
184 213 255
184 213 255
184 213 255
184 213 255
184 213 255
185 213 255
185 213 255
185 213 255
185 213 255
185 213 255
185 213 255
185 213 255
185 213 255
185 213 255
185 213 255
185 213 255
185 213 255
185 213 255
185 213 255
185 213 255
185 213 255
185 213 255
185 213 255
185 213 255
185 213 255
185 213 255
185 213 255
185 213 255
185 213 255
185 213 255
185 213 255
185 213 255
185 213 255
185 213 255
185 213 255
185 213 255
185 213 255
185 213 255
185 213 255
186 214 255
186 214 255
186 214 255
186 214 255
186 214 255
186 214 255
186 214 255
185 213 255
185 213 255
185 213 255
185 213 255
185 213 255
185 213 255
185 213 255
185 213 255
185 213 255
185 213 255
185 213 255
185 213 255
185 213 255
185 213 255
185 213 255
185 213 255
185 213 255
185 213 255
185 213 255
185 213 255
185 213 255
185 213 255
185 213 255
185 213 255
185 213 255
185 213 255
185 213 255
185 213 255
185 213 255
185 213 255
185 213 255
185 213 255
185 213 255
185 213 255
185 213 255
185 213 255
185 213 255
185 213 255
185 213 255
184 213 255
184 213 255
184 213 255
184 213 255
184 213 255
184 213 255
184 213 255
184 213 255
184 213 255
184 213 255
184 213 255
184 213 255
184 213 255
184 213 255
184 213 255
184 213 255
184 213 255
184 213 255
184 213 255
184 213 255
184 213 255
184 212 255
184 212 255
184 212 255
184 212 255
184 212 255
184 212 255
184 212 255
184 212 255
184 212 255
184 212 255
183 212 255
183 212 255
183 212 255
183 212 255
183 212 255
183 212 255
183 212 255
183 212 255
183 212 255
183 212 255
183 212 255
183 212 255
183 212 255
183 212 255
183 212 255
183 212 255
183 212 255
183 212 255
183 212 255
183 212 255
183 212 255
183 212 255
183 212 255
183 212 255
183 212 255
183 212 255
183 212 255
182 212 255
182 212 255
182 212 255
182 212 255
182 212 255
182 212 255
182 212 255
182 212 255
182 212 255
182 211 255
182 211 255
182 211 255
182 211 255
182 211 255
182 211 255
182 211 255
182 211 255
182 211 255
182 211 255
182 211 255
182 211 255
182 211 255
182 211 255
182 211 255
182 211 255
181 211 255
181 211 255
181 211 255
181 211 255
181 211 255
181 211 255
181 211 255
181 211 255
181 211 255
118 139 172
67 82 105
64 79 101
60 76 99
59 73 95
66 82 106
67 82 106
67 83 107
68 83 106
62 79 104
66 82 106
69 84 108
64 80 104
60 75 97
66 81 105
61 76 98
60 75 97
61 75 97
64 80 104
66 82 105
66 83 107
65 80 103
64 79 102
64 79 103
63 78 101
63 78 102
62 77 98
67 83 107
63 78 102
63 79 102
64 80 103
69 85 109
64 81 106
63 77 98
68 83 105
66 82 106
65 81 105
67 83 106
63 78 100
65 81 105
64 80 104
63 78 100
65 81 104
64 78 100
65 81 103
62 76 98
64 79 102
63 78 101
64 79 102
59 74 97
69 86 110
70 86 110
63 79 103
64 80 103
63 78 101
68 84 107
66 81 103
67 82 105
64 79 101
61 75 97
65 81 105
65 80 103
61 76 99
66 82 107
63 78 100
64 79 102
63 79 103
66 82 105
64 80 103
65 79 101
67 82 105
63 79 102
66 81 103
70 87 111
64 80 103
65 81 104
64 80 104
63 78 100
69 85 108
63 78 102
63 78 101
68 83 107
63 78 101
63 78 101
64 79 101
63 78 100
65 80 103
61 77 100
69 85 109
68 83 106
59 73 94
63 79 102
64 80 104
64 79 101
66 82 106
67 82 105
64 78 100
66 82 105
67 83 107
64 79 101
69 84 108
66 82 106
63 78 100
62 77 99
59 73 94
65 81 104
66 82 105
64 79 101
64 79 101
61 76 97
65 81 105
65 81 104
66 82 105
63 78 100
67 82 105
61 76 100
67 82 105
61 76 100
68 85 110
66 82 105
65 80 102
69 85 109
66 82 106
125 148 182
181 211 255
181 211 255
181 211 255
181 211 255
181 211 255
181 211 255
181 211 255
181 211 255
182 211 255
182 211 255
182 211 255
182 211 255
182 211 255
182 211 255
182 211 255
182 211 255
182 211 255
182 211 255
182 211 255
182 211 255
182 211 255
182 211 255
182 211 255
182 211 255
182 211 255
182 212 255
182 212 255
182 212 255
182 212 255
182 212 255
182 212 255
182 212 255
182 212 255
182 212 255
183 212 255
183 212 255
183 212 255
183 212 255
183 212 255
183 212 255
183 212 255
183 212 255
183 212 255
183 212 255
183 212 255
183 212 255
183 212 255
183 212 255
183 212 255
183 212 255
183 212 255
183 212 255
183 212 255
183 212 255
183 212 255
183 212 255
183 212 255
183 212 255
183 212 255
183 212 255
183 212 255
184 212 255
184 212 255
184 212 255
184 212 255
184 212 255
184 212 255
184 212 255
184 212 255
184 212 255
184 212 255
184 213 255
184 213 255
184 213 255
184 213 255
184 213 255
184 213 255
184 213 255
184 213 255
184 213 255
184 213 255
184 213 255
184 213 255
184 213 255
184 213 255
184 213 255
184 213 255
184 213 255
184 213 255
184 213 255
184 213 255
184 213 255
185 213 255
185 213 255
185 213 255
185 213 255
185 213 255
185 213 255
185 213 255
185 213 255
185 213 255
185 213 255
185 213 255
185 213 255
185 213 255
185 213 255
185 213 255
185 213 255
185 213 255
185 213 255
185 213 255
185 213 255
185 213 255
185 213 255
185 213 255
185 213 255
185 213 255
185 213 255
185 213 255
185 213 255
185 213 255
185 213 255
185 213 255
185 213 255
185 213 255
185 213 255
185 213 255
185 213 255
185 213 255
185 213 255
186 214 255
186 214 255
186 214 255
186 214 255
186 214 255
186 214 255
186 214 255
186 214 255
186 214 255
186 214 255
186 214 255
186 214 255
186 214 255
186 214 255
186 214 255
186 214 255
186 214 255
186 214 255
186 214 255
186 214 255
186 214 255
186 214 255
186 214 255
186 214 255
186 214 255
186 214 255
186 214 255
186 214 255
185 213 255
185 213 255
185 213 255
185 213 255
185 213 255
185 213 255
185 213 255
185 213 255
185 213 255
185 213 255
185 213 255
185 213 255
185 213 255
185 213 255
185 213 255
185 213 255
185 213 255
185 213 255
185 213 255
185 213 255
185 213 255
185 213 255
185 213 255
185 213 255
185 213 255
185 213 255
185 213 255
185 213 255
185 213 255
185 213 255
185 213 255
185 213 255
185 213 255
185 213 255
185 213 255
185 213 255
185 213 255
184 213 255
184 213 255
184 213 255
184 213 255
184 213 255
184 213 255
184 213 255
184 213 255
184 213 255
184 213 255
184 213 255
184 213 255
184 213 255
184 213 255
184 213 255
184 213 255
184 213 255
184 213 255
184 213 255
184 213 255
184 213 255
184 212 255
184 212 255
184 212 255
184 212 255
184 212 255
184 212 255
184 212 255
184 212 255
184 212 255
184 212 255
183 212 255
183 212 255
183 212 255
183 212 255
183 212 255
183 212 255
183 212 255
183 212 255
183 212 255
183 212 255
183 212 255
183 212 255
183 212 255
183 212 255
183 212 255
183 212 255
183 212 255
183 212 255
183 212 255
183 212 255
183 212 255
183 212 255
183 212 255
183 212 255
183 212 255
183 212 255
183 212 255
182 212 255
182 212 255
182 212 255
182 212 255
182 212 255
182 212 255
182 212 255
182 212 255
182 212 255
182 212 255
182 211 255
182 211 255
182 211 255
182 211 255
182 211 255
182 211 255
182 211 255
182 211 255
182 211 255
182 211 255
182 211 255
182 211 255
182 211 255
84 102 129
66 81 104
63 78 101
65 80 104
64 79 102
65 80 103
66 81 103
63 77 99
64 79 103
65 80 104
66 80 102
63 79 102
66 82 106
64 79 102
65 80 102
63 78 101
65 82 106
62 78 101
58 72 94
65 80 103
62 76 97
63 78 100
63 77 99
67 82 106
60 75 98
66 81 103
66 81 105
61 75 96
66 81 105
70 87 111
65 80 102
64 80 105
64 79 101
64 79 102
64 79 102
66 81 104
64 79 102
66 82 106
66 81 104
64 78 100
63 78 101
62 76 98
66 81 104
66 82 106
60 75 97
63 79 102
65 81 104
63 77 100
62 77 98
67 82 105
64 78 100
60 74 95
64 79 101
63 78 100
63 79 102
62 76 98
66 82 106
62 77 100
66 81 104
66 81 105
65 81 105
61 75 96
64 79 101
65 81 105
64 79 101
62 76 97
62 77 100
63 77 99
66 81 103
64 79 103
66 81 105
64 79 101
66 81 103
60 74 95
64 79 101
62 76 99
64 80 103
63 78 100
63 78 100
60 74 96
64 79 102
64 79 101
67 83 107
67 82 104
62 76 98
65 81 105
62 77 99
63 78 102
66 81 103
64 79 102
65 80 104
64 79 101
62 77 100
60 75 97
67 82 105
63 78 100
68 83 105
61 76 99
68 84 106
61 75 97
65 80 104
64 81 105
66 81 103
67 83 107
66 82 106
59 74 95
69 85 109
65 80 103
65 81 105
61 75 96
62 77 99
65 80 102
68 84 107
63 79 102
67 83 107
58 72 93
66 81 105
63 79 103
64 80 104
63 78 101
62 76 99
64 79 102
67 82 104
82 99 126
182 211 255
182 211 255
182 211 255
182 211 255
182 211 255
182 211 255
182 211 255
182 211 255
182 211 255
182 211 255
182 211 255
182 211 255
182 211 255
182 212 255
182 212 255
182 212 255
182 212 255
182 212 255
182 212 255
182 212 255
182 212 255
182 212 255
182 212 255
183 212 255
183 212 255
183 212 255
183 212 255
183 212 255
183 212 255
183 212 255
183 212 255
183 212 255
183 212 255
183 212 255
183 212 255
183 212 255
183 212 255
183 212 255
183 212 255
183 212 255
183 212 255
183 212 255
183 212 255
183 212 255
183 212 255
183 212 255
183 212 255
183 212 255
183 212 255
183 212 255
184 212 255
184 212 255
184 212 255
184 212 255
184 212 255
184 212 255
184 212 255
184 212 255
184 212 255
184 212 255
184 213 255
184 213 255
184 213 255
184 213 255
184 213 255
184 213 255
184 213 255
184 213 255
184 213 255
184 213 255
184 213 255
184 213 255
184 213 255
184 213 255
184 213 255
184 213 255
184 213 255
184 213 255
184 213 255
184 213 255
184 213 255
185 213 255
185 213 255
185 213 255
185 213 255
185 213 255
185 213 255
185 213 255
185 213 255
185 213 255
185 213 255
185 213 255
185 213 255
185 213 255
185 213 255
185 213 255
185 213 255
185 213 255
185 213 255
185 213 255
185 213 255
185 213 255
185 213 255
185 213 255
185 213 255
185 213 255
185 213 255
185 213 255
185 213 255
185 213 255
185 213 255
185 213 255
185 213 255
185 213 255
185 213 255
185 213 255
185 213 255
185 213 255
185 213 255
186 214 255
186 214 255
186 214 255
186 214 255
186 214 255
186 214 255
186 214 255
186 214 255
186 214 255
186 214 255
186 214 255
186 214 255
186 214 255
186 214 255
186 214 255
186 214 255
186 214 255
186 214 255
186 214 255
186 214 255
186 214 255
186 214 255
186 214 255
186 214 255
186 214 255
186 214 255
186 214 255
186 214 255
186 214 255
186 214 255
186 214 255
186 214 255
186 214 255
186 214 255
186 214 255
186 214 255
186 214 255
186 214 255
186 214 255
186 214 255
186 214 255
186 214 255
186 214 255
186 214 255
186 214 255
186 214 255
186 214 255
186 214 255
186 214 255
186 214 255
186 214 255
185 213 255
185 213 255
185 213 255
185 213 255
185 213 255
185 213 255
185 213 255
185 213 255
185 213 255
185 213 255
185 213 255
185 213 255
185 213 255
185 213 255
185 213 255
185 213 255
185 213 255
185 213 255
185 213 255
185 213 255
185 213 255
185 213 255
185 213 255
185 213 255
185 213 255
185 213 255
185 213 255
185 213 255
185 213 255
185 213 255
185 213 255
185 213 255
185 213 255
185 213 255
185 213 255
185 213 255
185 213 255
184 213 255
184 213 255
184 213 255
184 213 255
184 213 255
184 213 255
184 213 255
184 213 255
184 213 255
184 213 255
184 213 255
184 213 255
184 213 255
184 213 255
184 213 255
184 213 255
184 213 255
184 213 255
184 213 255
184 213 255
184 212 255
184 212 255
184 212 255
184 212 255
184 212 255
184 212 255
184 212 255
184 212 255
184 212 255
184 212 255
183 212 255
183 212 255
183 212 255
183 212 255
183 212 255
183 212 255
183 212 255
183 212 255
183 212 255
183 212 255
183 212 255
183 212 255
183 212 255
183 212 255
183 212 255
183 212 255
183 212 255
183 212 255
183 212 255
183 212 255
183 212 255
183 212 255
183 212 255
183 212 255
183 212 255
183 212 255
183 212 255
183 212 255
183 212 255
182 212 255
182 212 255
182 212 255
182 212 255
182 212 255
182 212 255
182 212 255
182 212 255
182 212 255
175 204 247
65 81 104
62 77 100
64 80 105
63 77 98
62 76 99
63 78 100
63 78 101
65 80 104
61 76 98
66 82 106
65 80 102
65 80 102
64 79 101
67 82 105
70 85 108
62 76 98
61 76 98
62 78 102
63 78 99
63 78 100
63 77 97
64 79 101
67 82 105
63 78 101
62 77 100
63 77 100
66 81 104
65 80 103
65 81 104
65 80 102
68 84 107
64 78 100
67 84 109
63 78 100
64 80 104
64 79 102
61 77 100
66 82 106
64 79 102
61 76 98
65 80 103
61 76 98
61 75 98
61 75 96
62 77 100
63 78 100
62 77 99
65 79 100
62 76 97
59 74 96
65 80 101
67 83 107
65 80 102
65 80 104
62 76 97
65 81 106
65 79 102
59 73 94
62 76 97
61 75 96
59 73 94
62 76 98
64 80 104
60 74 96
63 78 100
62 77 99
64 79 100
63 78 101
61 76 98
62 77 100
63 78 99
61 76 99
63 79 102
67 82 105
63 79 102
61 76 98
62 78 101
63 78 101
60 74 96
67 82 106
62 77 100
63 78 101
62 77 100
65 80 102
64 79 101
65 80 102
63 77 98
62 78 102
66 81 104
66 81 104
62 77 100
61 75 96
65 81 106
60 75 97
67 83 108
61 76 97
68 85 109
63 77 97
67 82 105
60 74 96
62 77 100
66 81 104
64 79 100
65 81 104
66 81 105
62 77 101
65 81 104
62 77 99
65 80 102
64 79 102
66 81 105
63 78 99
65 80 102
61 76 100
64 79 103
64 79 102
68 83 107
64 80 104
65 80 104
64 79 102
64 79 102
62 77 98
64 79 101
64 79 101
165 191 232
182 212 255
182 212 255
182 212 255
182 212 255
182 212 255
182 212 255
182 212 255
182 212 255
182 212 255
182 212 255
183 212 255
183 212 255
183 212 255
183 212 255
183 212 255
183 212 255
183 212 255
183 212 255
183 212 255
183 212 255
183 212 255
183 212 255
183 212 255
183 212 255
183 212 255
183 212 255
183 212 255
183 212 255
183 212 255
183 212 255
183 212 255
183 212 255
183 212 255
183 212 255
183 212 255
183 212 255
183 212 255
183 212 255
184 212 255
184 212 255
184 212 255
184 212 255
184 212 255
184 212 255
184 212 255
184 212 255
184 212 255
184 213 255
184 213 255
184 213 255
184 213 255
184 213 255
184 213 255
184 213 255
184 213 255
184 213 255
184 213 255
184 213 255
184 213 255
184 213 255
184 213 255
184 213 255
184 213 255
184 213 255
184 213 255
184 213 255
184 213 255
184 213 255
185 213 255
185 213 255
185 213 255
185 213 255
185 213 255
185 213 255
185 213 255
185 213 255
185 213 255
185 213 255
185 213 255
185 213 255
185 213 255
185 213 255
185 213 255
185 213 255
185 213 255
185 213 255
185 213 255
185 213 255
185 213 255
185 213 255
185 213 255
185 213 255
185 213 255
185 213 255
185 213 255
185 213 255
185 213 255
185 213 255
185 213 255
185 213 255
185 213 255
185 213 255
185 213 255
185 213 255
186 214 255
186 214 255
186 214 255
186 214 255
186 214 255
186 214 255
186 214 255
186 214 255
186 214 255
186 214 255
186 214 255
186 214 255
186 214 255
186 214 255
186 214 255
186 214 255
186 214 255
186 214 255
186 214 255
186 214 255
186 214 255
186 214 255
186 214 255
186 214 255
186 214 255
186 214 255
186 214 255
186 214 255
186 214 255
186 214 255
186 214 255
186 214 255
186 214 255
186 214 255
186 214 255
186 214 255
186 214 255
186 214 255
186 214 255
186 214 255
186 214 255
186 214 255
186 214 255
186 214 255
186 214 255
186 214 255
186 214 255
186 214 255
186 214 255
186 214 255
186 214 255
186 214 255
186 214 255
186 214 255
186 214 255
186 214 255
186 214 255
186 214 255
186 214 255
186 214 255
186 214 255
186 214 255
186 214 255
186 214 255
186 214 255
186 214 255
186 214 255
186 214 255
186 214 255
186 214 255
186 214 255
186 214 255
186 214 255
186 214 255
186 214 255
186 214 255
186 214 255
186 214 255
185 213 255
185 213 255
185 213 255
185 213 255
185 213 255
185 213 255
185 213 255
185 213 255
185 213 255
185 213 255
185 213 255
185 213 255
185 213 255
185 213 255
185 213 255
185 213 255
185 213 255
185 213 255
185 213 255
185 213 255
185 213 255
185 213 255
185 213 255
185 213 255
185 213 255
185 213 255
185 213 255
185 213 255
185 213 255
185 213 255
185 213 255
185 213 255
185 213 255
185 213 255
185 213 255
185 213 255
185 213 255
184 213 255
184 213 255
184 213 255
184 213 255
184 213 255
184 213 255
184 213 255
184 213 255
184 213 255
184 213 255
184 213 255
184 213 255
184 213 255
184 213 255
184 213 255
184 213 255
184 213 255
184 213 255
184 213 255
184 213 255
184 212 255
184 212 255
184 212 255
184 212 255
184 212 255
184 212 255
184 212 255
184 212 255
184 212 255
184 212 255
183 212 255
183 212 255
183 212 255
183 212 255
183 212 255
183 212 255
183 212 255
183 212 255
183 212 255
183 212 255
183 212 255
183 212 255
183 212 255
183 212 255
183 212 255
183 212 255
183 212 255
183 212 255
183 212 255
183 212 255
183 212 255
183 212 255
183 212 255
183 212 255
183 212 255
132 155 189
63 79 103
66 83 107
67 83 107
63 78 101
64 80 103
65 81 105
64 79 102
61 75 95
64 80 104
68 84 107
62 76 98
62 78 101
65 80 103
66 81 105
66 82 105
62 78 103
64 79 101
62 76 98
60 75 96
65 80 102
61 76 99
62 77 99
63 77 97
65 80 103
65 80 103
65 81 105
61 76 98
66 81 105
65 81 106
63 77 98
66 82 105
63 77 100
62 77 98
66 81 104
59 74 96
65 80 102
69 85 108
65 80 104
63 78 102
63 80 104
61 76 97
65 80 104
63 78 100
64 80 103
61 76 98
67 82 105
61 76 98
61 76 98
64 79 102
58 72 93
63 78 100
62 77 100
65 80 103
63 77 98
66 81 104
65 80 103
63 78 99
64 78 100
63 78 101
65 80 103
68 82 104
66 82 106
61 76 99
61 76 98
63 80 104
60 74 96
63 78 100
62 77 99
61 76 98
64 79 101
63 78 100
63 78 100
64 79 102
64 79 102
65 80 102
63 78 100
66 82 105
62 77 99
67 82 105
61 77 100
65 81 104
63 77 99
63 77 99
64 79 101
68 84 107
62 77 99
63 79 101
62 76 98
65 80 102
63 78 99
66 81 104
63 78 101
64 79 102
64 79 102
63 78 100
65 80 104
64 78 100
65 80 103
67 82 106
61 75 97
65 81 105
65 81 105
61 76 99
63 77 98
63 78 100
60 75 98
67 84 108
62 77 99
65 80 102
62 78 101
65 81 105
66 82 106
66 81 104
67 83 108
69 84 108
65 81 105
65 81 105
64 78 100
64 79 102
63 78 101
64 79 102
64 79 103
69 84 108
64 79 101
131 154 189
183 212 255
183 212 255
183 212 255
183 212 255
183 212 255
183 212 255
183 212 255
183 212 255
183 212 255
183 212 255
183 212 255
183 212 255
183 212 255
183 212 255
183 212 255
183 212 255
183 212 255
183 212 255
183 212 255
183 212 255
183 212 255
183 212 255
183 212 255
183 212 255
183 212 255
184 212 255
184 212 255
184 212 255
184 212 255
184 212 255
184 212 255
184 212 255
184 212 255
184 212 255
184 212 255
184 213 255
184 213 255
184 213 255
184 213 255
184 213 255
184 213 255
184 213 255
184 213 255
184 213 255
184 213 255
184 213 255
184 213 255
184 213 255
184 213 255
184 213 255
184 213 255
184 213 255
184 213 255
184 213 255
184 213 255
184 213 255
185 213 255
185 213 255
185 213 255
185 213 255
185 213 255
185 213 255
185 213 255
185 213 255
185 213 255
185 213 255
185 213 255
185 213 255
185 213 255
185 213 255
185 213 255
185 213 255
185 213 255
185 213 255
185 213 255
185 213 255
185 213 255
185 213 255
185 213 255
185 213 255
185 213 255
185 213 255
185 213 255
185 213 255
185 213 255
185 213 255
185 213 255
185 213 255
185 213 255
185 213 255
185 213 255
186 214 255
186 214 255
186 214 255
186 214 255
186 214 255
186 214 255
186 214 255
186 214 255
186 214 255
186 214 255
186 214 255
186 214 255
186 214 255
186 214 255
186 214 255
186 214 255
186 214 255
186 214 255
186 214 255
186 214 255
186 214 255
186 214 255
186 214 255
186 214 255
186 214 255
186 214 255
186 214 255
186 214 255
186 214 255
186 214 255
186 214 255
186 214 255
186 214 255
186 214 255
186 214 255
186 214 255
186 214 255
186 214 255
186 214 255
186 214 255
186 214 255
186 214 255
186 214 255
186 214 255
186 214 255
186 214 255
187 214 255
187 214 255
187 214 255
187 214 255
187 214 255
187 214 255
187 214 255
187 214 255
187 214 255
187 214 255
187 214 255
187 214 255
187 214 255
187 214 255
186 214 255
186 214 255
186 214 255
186 214 255
186 214 255
186 214 255
186 214 255
186 214 255
186 214 255
186 214 255
186 214 255
186 214 255
186 214 255
186 214 255
186 214 255
186 214 255
186 214 255
186 214 255
186 214 255
186 214 255
186 214 255
186 214 255
186 214 255
186 214 255
186 214 255
186 214 255
186 214 255
186 214 255
186 214 255
186 214 255
186 214 255
186 214 255
186 214 255
186 214 255
186 214 255
186 214 255
186 214 255
186 214 255
186 214 255
186 214 255
186 214 255
186 214 255
186 214 255
186 214 255
186 214 255
185 213 255
185 213 255
185 213 255
185 213 255
185 213 255
185 213 255
185 213 255
185 213 255
185 213 255
185 213 255
185 213 255
185 213 255
185 213 255
185 213 255
185 213 255
185 213 255
185 213 255
185 213 255
185 213 255
185 213 255
185 213 255
185 213 255
185 213 255
185 213 255
185 213 255
185 213 255
185 213 255
185 213 255
185 213 255
185 213 255
185 213 255
185 213 255
185 213 255
185 213 255
185 213 255
184 213 255
184 213 255
184 213 255
184 213 255
184 213 255
184 213 255
184 213 255
184 213 255
184 213 255
184 213 255
184 213 255
184 213 255
184 213 255
184 213 255
184 213 255
184 213 255
184 213 255
184 213 255
184 213 255
184 213 255
184 213 255
184 212 255
184 212 255
184 212 255
184 212 255
184 212 255
184 212 255
184 212 255
184 212 255
184 212 255
184 212 255
183 212 255
183 212 255
183 212 255
183 212 255
183 212 255
183 212 255
183 212 255
183 212 255
183 212 255
183 212 255
183 212 255
183 212 255
100 120 151
62 77 99
70 86 110
60 76 99
66 82 106
65 82 108
65 79 100
64 78 100
67 81 103
62 77 98
62 77 100
61 74 94
66 81 104
66 81 104
64 79 102
63 78 100
68 83 106
63 78 101
64 79 101
59 74 97
63 77 99
64 79 102
62 76 98
64 79 101
62 77 99
64 81 105
64 78 100
61 75 97
65 79 100
59 74 96
64 79 103
66 82 106
67 83 106
62 77 99
64 78 100
63 78 100
69 84 107
64 80 103
63 78 100
65 81 104
64 80 104
69 84 106
59 73 95
59 74 97
61 75 97
62 77 100
65 81 105
65 80 103
64 79 101
63 76 97
65 81 105
59 73 95
63 77 99
64 79 101
62 76 97
63 78 100
62 77 100
65 80 101
65 80 102
61 75 97
64 78 100
65 81 105
58 72 93
63 79 102
66 82 105
66 82 105
66 82 105
65 81 105
62 77 100
64 79 101
64 79 102
69 86 111
61 75 97
61 76 99
63 78 100
59 74 96
66 82 106
61 76 98
59 73 94
64 79 101
63 79 103
62 76 98
68 83 105
62 77 99
66 81 103
70 85 108
64 79 101
66 81 104
61 76 97
61 75 97
62 77 99
61 76 97
58 72 94
66 81 103
62 77 99
63 77 99
65 80 103
57 72 94
61 76 97
64 78 100
64 79 101
64 79 102
64 79 103
67 82 106
67 82 104
62 76 97
66 82 106
61 76 98
64 79 102
63 79 102
64 79 101
61 75 96
60 75 96
67 82 105
63 78 99
61 75 96
64 78 100
67 82 105
65 80 102
66 82 106
65 80 102
65 80 102
63 79 101
64 80 104
64 80 103
94 112 140
183 212 255
183 212 255
183 212 255
183 212 255
183 212 255
183 212 255
183 212 255
183 212 255
183 212 255
183 212 255
183 212 255
183 212 255
184 212 255
184 212 255
184 212 255
184 212 255
184 212 255
184 212 255
184 212 255
184 212 255
184 212 255
184 212 255
184 213 255
184 213 255
184 213 255
184 213 255
184 213 255
184 213 255
184 213 255
184 213 255
184 213 255
184 213 255
184 213 255
184 213 255
184 213 255
184 213 255
184 213 255
184 213 255
184 213 255
184 213 255
184 213 255
184 213 255
184 213 255
185 213 255
185 213 255
185 213 255
185 213 255
185 213 255
185 213 255
185 213 255
185 213 255
185 213 255
185 213 255
185 213 255
185 213 255
185 213 255
185 213 255
185 213 255
185 213 255
185 213 255
185 213 255
185 213 255
185 213 255
185 213 255
185 213 255
185 213 255
185 213 255
185 213 255
185 213 255
185 213 255
185 213 255
185 213 255
185 213 255
185 213 255
185 213 255
185 213 255
185 213 255
185 213 255
186 214 255
186 214 255
186 214 255
186 214 255
186 214 255
186 214 255
186 214 255
186 214 255
186 214 255
186 214 255
186 214 255
186 214 255
186 214 255
186 214 255
186 214 255
186 214 255
186 214 255
186 214 255
186 214 255
186 214 255
186 214 255
186 214 255
186 214 255
186 214 255
186 214 255
186 214 255
186 214 255
186 214 255
186 214 255
186 214 255
186 214 255
186 214 255
186 214 255
186 214 255
186 214 255
186 214 255
186 214 255
186 214 255
186 214 255
186 214 255
186 214 255
186 214 255
186 214 255
186 214 255
187 214 255
187 214 255
187 214 255
187 214 255
187 214 255
187 214 255
187 214 255
187 214 255
187 214 255
187 214 255
187 214 255
187 214 255
187 214 255
187 214 255
187 214 255
187 214 255
187 214 255
187 214 255
187 214 255
187 214 255
187 214 255
187 214 255
187 214 255
187 214 255
187 214 255
187 214 255
187 214 255
187 214 255
187 214 255
187 214 255
187 214 255
187 214 255
187 214 255
187 214 255
187 214 255
187 214 255
187 214 255
187 214 255
187 214 255
187 214 255
187 214 255
187 214 255
187 214 255
187 214 255
187 214 255
186 214 255
186 214 255
186 214 255
186 214 255
186 214 255
186 214 255
186 214 255
186 214 255
186 214 255
186 214 255
186 214 255
186 214 255
186 214 255
186 214 255
186 214 255
186 214 255
186 214 255
186 214 255
186 214 255
186 214 255
186 214 255
186 214 255
186 214 255
186 214 255
186 214 255
186 214 255
186 214 255
186 214 255
186 214 255
186 214 255
186 214 255
186 214 255
186 214 255
186 214 255
186 214 255
186 214 255
186 214 255
186 214 255
186 214 255
186 214 255
186 214 255
186 214 255
186 214 255
186 214 255
185 213 255
185 213 255
185 213 255
185 213 255
185 213 255
185 213 255
185 213 255
185 213 255
185 213 255
185 213 255
185 213 255
185 213 255
185 213 255
185 213 255
185 213 255
185 213 255
185 213 255
185 213 255
185 213 255
185 213 255
185 213 255
185 213 255
185 213 255
185 213 255
185 213 255
185 213 255
185 213 255
185 213 255
185 213 255
185 213 255
185 213 255
185 213 255
185 213 255
185 213 255
184 213 255
184 213 255
184 213 255
184 213 255
184 213 255
184 213 255
184 213 255
184 213 255
184 213 255
184 213 255
184 213 255
184 213 255
184 213 255
184 213 255
184 213 255
184 213 255
184 213 255
184 213 255
184 213 255
184 213 255
184 213 255
184 213 255
184 212 255
184 212 255
184 212 255
184 212 255
184 212 255
184 212 255
183 211 254
72 88 112
62 77 99
64 79 102
64 78 100
62 76 99
66 81 104
63 77 98
63 78 100
62 77 99
59 73 94
65 80 102
62 76 98
62 78 101
63 79 102
62 77 100
65 80 102
64 79 102
62 76 97
68 83 107
61 76 98
67 82 104
63 78 101
59 73 93
68 83 106
61 75 97
63 78 100
67 82 105
61 75 97
64 80 104
58 72 92
64 78 100
62 77 99
64 79 101
65 81 104
64 78 100
62 76 98
62 77 99
63 78 101
63 78 100
64 77 98
63 78 100
67 83 107
60 75 97
66 81 105
65 80 103
62 77 99
60 75 97
62 78 101
66 81 105
60 76 99
63 79 102
63 77 98
61 75 96
64 79 102
63 78 99
63 78 101
63 80 104
64 80 104
61 74 94
66 80 102
60 74 96
64 79 103
62 77 99
63 78 101
64 80 103
63 77 99
67 82 105
63 79 102
60 75 97
63 77 98
66 80 101
64 79 101
62 77 100
63 79 102
60 75 97
60 75 97
65 79 102
64 79 102
61 76 98
64 79 102
64 79 100
63 77 99
70 85 109
67 82 105
63 78 100
65 79 101
67 82 104
63 78 101
61 75 96
62 75 95
64 79 101
59 73 94
61 75 96
67 83 106
63 78 101
65 81 104
66 82 106
66 81 104
65 80 103
63 78 100
63 78 99
64 80 103
61 76 98
58 73 96
65 80 103
66 81 103
61 75 97
57 71 90
65 80 103
66 81 104
61 75 95
62 78 100
63 78 100
63 78 101
63 79 102
64 79 102
64 79 103
68 84 108
62 76 98
67 82 104
60 75 96
61 77 99
64 79 102
67 81 104
64 79 103
75 91 116
183 211 254
184 212 255
184 212 255
184 212 255
184 212 255
184 212 255
184 212 255
184 213 255
184 213 255
184 213 255
184 213 255
184 213 255
184 213 255
184 213 255
184 213 255
184 213 255
184 213 255
184 213 255
184 213 255
184 213 255
184 213 255
184 213 255
184 213 255
184 213 255
184 213 255
184 213 255
184 213 255
184 213 255
184 213 255
185 213 255
185 213 255
185 213 255
185 213 255
185 213 255
185 213 255
185 213 255
185 213 255
185 213 255
185 213 255
185 213 255
185 213 255
185 213 255
185 213 255
185 213 255
185 213 255
185 213 255
185 213 255
185 213 255
185 213 255
185 213 255
185 213 255
185 213 255
185 213 255
185 213 255
185 213 255
185 213 255
185 213 255
185 213 255
185 213 255
185 213 255
185 213 255
185 213 255
185 213 255
185 213 255
186 214 255
186 214 255
186 214 255
186 214 255
186 214 255
186 214 255
186 214 255
186 214 255
186 214 255
186 214 255
186 214 255
186 214 255
186 214 255
186 214 255
186 214 255
186 214 255
186 214 255
186 214 255
186 214 255
186 214 255
186 214 255
186 214 255
186 214 255
186 214 255
186 214 255
186 214 255
186 214 255
186 214 255
186 214 255
186 214 255
186 214 255
186 214 255
186 214 255
186 214 255
186 214 255
186 214 255
186 214 255
186 214 255
186 214 255
186 214 255
186 214 255
186 214 255
186 214 255
187 214 255
187 214 255
187 214 255
187 214 255
187 214 255
187 214 255
187 214 255
187 214 255
187 214 255
187 214 255
187 214 255
187 214 255
187 214 255
187 214 255
187 214 255
187 214 255
187 214 255
187 214 255
187 214 255
187 214 255
187 214 255
187 214 255
187 214 255
187 214 255
187 214 255
187 214 255
187 214 255
187 214 255
187 214 255
187 214 255
187 215 255
187 215 255
187 215 255
187 215 255
187 215 255
187 215 255
187 215 255
187 215 255
187 215 255
187 214 255
187 214 255
187 214 255
187 214 255
187 214 255
187 214 255
187 214 255
187 214 255
187 214 255
187 214 255
187 214 255
187 214 255
187 214 255
187 214 255
187 214 255
187 214 255
187 214 255
187 214 255
187 214 255
187 214 255
187 214 255
187 214 255
187 214 255
187 214 255
187 214 255
187 214 255
187 214 255
187 214 255
187 214 255
187 214 255
187 214 255
187 214 255
187 214 255
187 214 255
187 214 255
187 214 255
186 214 255
186 214 255
186 214 255
186 214 255
186 214 255
186 214 255
186 214 255
186 214 255
186 214 255
186 214 255
186 214 255
186 214 255
186 214 255
186 214 255
186 214 255
186 214 255
186 214 255
186 214 255
186 214 255
186 214 255
186 214 255
186 214 255
186 214 255
186 214 255
186 214 255
186 214 255
186 214 255
186 214 255
186 214 255
186 214 255
186 214 255
186 214 255
186 214 255
186 214 255
186 214 255
186 214 255
186 214 255
186 214 255
186 214 255
186 214 255
186 214 255
186 214 255
185 213 255
185 213 255
185 213 255
185 213 255
185 213 255
185 213 255
185 213 255
185 213 255
185 213 255
185 213 255
185 213 255
185 213 255
185 213 255
185 213 255
185 213 255
185 213 255
185 213 255
185 213 255
185 213 255
185 213 255
185 213 255
185 213 255
185 213 255
185 213 255
185 213 255
185 213 255
185 213 255
185 213 255
185 213 255
185 213 255
185 213 255
185 213 255
185 213 255
185 213 255
185 213 255
185 213 255
185 213 255
184 213 255
184 213 255
184 213 255
184 213 255
184 213 255
184 213 255
184 213 255
184 213 255
184 213 255
184 213 255
184 213 255
184 213 255
159 184 222
67 82 105
60 73 93
63 77 98
64 80 103
65 81 104
68 83 106
66 81 103
61 76 98
64 80 104
65 80 102
62 76 97
62 77 99
63 78 101
65 79 101
66 81 104
58 72 93
63 78 99
68 84 109
62 78 102
62 78 101
64 79 103
61 76 98
60 73 93
66 81 105
63 78 101
62 76 98
62 77 99
59 73 94
63 77 100
65 80 102
63 78 101
64 78 98
65 82 107
66 80 102
64 79 102
64 79 102
64 79 102
63 80 104
66 82 105
65 81 104
63 78 101
64 79 101
63 78 99
61 77 100
61 76 97
65 80 103
63 78 100
64 79 101
64 78 100
66 82 106
62 76 98
66 82 106
62 77 100
63 79 102
61 76 98
66 82 106
63 78 100
64 79 102
64 78 100
62 76 97
61 76 99
61 75 96
61 75 96
61 75 96
66 81 103
67 83 107
66 82 105
64 79 100
62 76 97
67 82 106
67 83 106
64 79 101
66 83 107
65 81 104
64 79 103
62 77 99
59 74 96
65 81 104
60 76 100
63 79 101
66 82 107
62 77 98
61 76 99
64 79 102
64 79 103
64 80 103
63 77 99
61 76 99
69 84 107
59 73 93
61 76 99
60 74 96
60 76 99
62 77 99
63 78 101
62 77 98
65 80 103
62 76 98
63 78 100
60 75 97
63 78 101
62 76 98
65 80 102
67 83 107
63 77 100
60 74 96
61 75 95
66 82 106
66 82 105
66 82 105
64 79 103
63 78 100
67 83 107
66 81 104
65 80 103
62 77 98
64 77 98
64 78 100
64 79 103
60 74 94
64 78 101
65 81 105
62 76 98
65 80 102
64 78 100
63 79 103
161 186 225
184 213 255
184 213 255
184 213 255
184 213 255
184 213 255
184 213 255
184 213 255
184 213 255
184 213 255
184 213 255
184 213 255
184 213 255
185 213 255
185 213 255
185 213 255
185 213 255
185 213 255
185 213 255
185 213 255
185 213 255
185 213 255
185 213 255
185 213 255
185 213 255
185 213 255
185 213 255
185 213 255
185 213 255
185 213 255
185 213 255
185 213 255
185 213 255
185 213 255
185 213 255
185 213 255
185 213 255
185 213 255
185 213 255
185 213 255
185 213 255
185 213 255
185 213 255
185 213 255
185 213 255
185 213 255
185 213 255
185 213 255
185 213 255
185 213 255
186 214 255
186 214 255
186 214 255
186 214 255
186 214 255
186 214 255
186 214 255
186 214 255
186 214 255
186 214 255
186 214 255
186 214 255
186 214 255
186 214 255
186 214 255
186 214 255
186 214 255
186 214 255
186 214 255
186 214 255
186 214 255
186 214 255
186 214 255
186 214 255
186 214 255
186 214 255
186 214 255
186 214 255
186 214 255
186 214 255
186 214 255
186 214 255
186 214 255
186 214 255
186 214 255
186 214 255
186 214 255
186 214 255
186 214 255
186 214 255
186 214 255
186 214 255
187 214 255
187 214 255
187 214 255
187 214 255
187 214 255
187 214 255
187 214 255
187 214 255
187 214 255
187 214 255
187 214 255
187 214 255
187 214 255
187 214 255
187 214 255
187 214 255
187 214 255
187 214 255
187 214 255
187 214 255
187 214 255
187 214 255
187 214 255
187 214 255
187 214 255
187 214 255
187 214 255
187 214 255
187 214 255
187 214 255
187 214 255
187 214 255
187 214 255
187 214 255
187 214 255
187 215 255
187 215 255
187 215 255
187 215 255
187 215 255
187 215 255
187 215 255
187 215 255
187 215 255
187 215 255
188 215 255
188 215 255
188 215 255
188 215 255
188 215 255
188 215 255
187 215 255
187 215 255
187 215 255
187 215 255
187 215 255
187 215 255
187 215 255
187 215 255
187 215 255
187 215 255
187 215 255
187 215 255
187 215 255
187 215 255
187 215 255
187 215 255
187 215 255
187 215 255
187 215 255
187 215 255
187 215 255
187 214 255
187 214 255
187 214 255
187 214 255
187 214 255
187 214 255
187 214 255
187 214 255
187 214 255
187 214 255
187 214 255
187 214 255
187 214 255
187 214 255
187 214 255
187 214 255
187 214 255
187 214 255
187 214 255
187 214 255
187 214 255
187 214 255
187 214 255
187 214 255
187 214 255
187 214 255
187 214 255
187 214 255
187 214 255
187 214 255
187 214 255
187 214 255
187 214 255
187 214 255
186 214 255
186 214 255
186 214 255
186 214 255
186 214 255
186 214 255
186 214 255
186 214 255
186 214 255
186 214 255
186 214 255
186 214 255
186 214 255
186 214 255
186 214 255
186 214 255
186 214 255
186 214 255
186 214 255
186 214 255
186 214 255
186 214 255
186 214 255
186 214 255
186 214 255
186 214 255
186 214 255
186 214 255
186 214 255
186 214 255
186 214 255
186 214 255
186 214 255
186 214 255
186 214 255
186 214 255
186 214 255
186 214 255
186 214 255
186 214 255
186 214 255
186 214 255
185 213 255
185 213 255
185 213 255
185 213 255
185 213 255
185 213 255
185 213 255
185 213 255
185 213 255
185 213 255
185 213 255
185 213 255
185 213 255
185 213 255
185 213 255
185 213 255
185 213 255
185 213 255
185 213 255
185 213 255
185 213 255
185 213 255
185 213 255
185 213 255
185 213 255
185 213 255
185 213 255
185 213 255
185 213 255
185 213 255
185 213 255
185 213 255
185 213 255
137 160 195
66 82 105
66 82 105
64 80 104
66 81 103
64 79 102
63 77 99
62 77 99
62 77 100
65 80 103
64 80 104
65 80 104
70 86 110
58 72 94
66 81 103
64 79 101
60 75 97
64 78 101
60 74 95
63 78 100
63 78 100
64 80 104
62 77 99
61 75 97
62 77 100
66 82 105
63 78 101
62 76 98
64 79 101
64 79 101
59 73 95
63 78 100
59 73 94
62 76 98
61 76 99
67 82 104
63 78 99
63 78 100
64 78 101
64 79 102
60 74 96
70 86 109
65 79 101
62 77 99
66 81 104
63 78 100
61 75 96
63 79 102
64 80 102
65 80 103
64 80 103
68 84 107
63 78 101
66 82 106
64 78 100
62 77 100
62 78 100
63 78 100
64 80 103
62 77 100
62 78 101
59 73 95
66 82 105
63 78 99
63 77 97
62 76 98
61 76 98
60 74 97
64 78 100
64 79 102
59 74 96
65 80 103
62 76 98
66 81 104
61 76 97
59 73 94
66 83 108
62 76 98
60 74 95
62 78 102
66 81 104
60 75 97
64 78 100
61 75 98
67 82 104
61 75 96
61 75 96
64 80 103
61 75 96
64 80 104
64 80 103
62 76 98
61 75 96
62 77 100
57 72 93
60 74 95
62 77 99
57 72 93
60 76 99
64 79 102
62 76 98
62 77 99
63 77 99
64 78 99
65 80 102
63 77 99
63 78 101
57 71 92
61 75 97
62 76 98
66 81 104
59 74 96
61 75 96
64 79 102
62 77 99
63 78 101
65 80 103
66 81 104
62 78 101
62 77 101
65 81 104
67 82 105
66 82 105
60 74 97
60 76 98
61 75 96
65 80 102
145 169 204
185 213 255
185 213 255
185 213 255
185 213 255
185 213 255
185 213 255
185 213 255
185 213 255
185 213 255
185 213 255
185 213 255
185 213 255
185 213 255
185 213 255
185 213 255
185 213 255
185 213 255
185 213 255
185 213 255
185 213 255
185 213 255
185 213 255
185 213 255
185 213 255
185 213 255
185 213 255
185 213 255
185 213 255
185 213 255
185 213 255
185 213 255
185 213 255
185 213 255
186 214 255
186 214 255
186 214 255
186 214 255
186 214 255
186 214 255
186 214 255
186 214 255
186 214 255
186 214 255
186 214 255
186 214 255
186 214 255
186 214 255
186 214 255
186 214 255
186 214 255
186 214 255
186 214 255
186 214 255
186 214 255
186 214 255
186 214 255
186 214 255
186 214 255
186 214 255
186 214 255
186 214 255
186 214 255
186 214 255
186 214 255
186 214 255
186 214 255
186 214 255
186 214 255
186 214 255
186 214 255
186 214 255
186 214 255
186 214 255
186 214 255
186 214 255
187 214 255
187 214 255
187 214 255
187 214 255
187 214 255
187 214 255
187 214 255
187 214 255
187 214 255
187 214 255
187 214 255
187 214 255
187 214 255
187 214 255
187 214 255
187 214 255
187 214 255
187 214 255
187 214 255
187 214 255
187 214 255
187 214 255
187 214 255
187 214 255
187 214 255
187 214 255
187 214 255
187 214 255
187 214 255
187 214 255
187 214 255
187 214 255
187 214 255
187 214 255
187 215 255
187 215 255
187 215 255
187 215 255
187 215 255
187 215 255
187 215 255
187 215 255
187 215 255
187 215 255
187 215 255
187 215 255
187 215 255
187 215 255
187 215 255
187 215 255
187 215 255
187 215 255
187 215 255
187 215 255
188 215 255
188 215 255
188 215 255
188 215 255
188 215 255
188 215 255
188 215 255
188 215 255
188 215 255
188 215 255
188 215 255
188 215 255
188 215 255
188 215 255
188 215 255
188 215 255
188 215 255
188 215 255
188 215 255
188 215 255
188 215 255
188 215 255
188 215 255
188 215 255
188 215 255
188 215 255
188 215 255
188 215 255
188 215 255
188 215 255
188 215 255
188 215 255
188 215 255
187 215 255
187 215 255
187 215 255
187 215 255
187 215 255
187 215 255
187 215 255
187 215 255
187 215 255
187 215 255
187 215 255
187 215 255
187 215 255
187 215 255
187 215 255
187 215 255
187 215 255
187 215 255
187 215 255
187 214 255
187 214 255
187 214 255
187 214 255
187 214 255
187 214 255
187 214 255
187 214 255
187 214 255
187 214 255
187 214 255
187 214 255
187 214 255
187 214 255
187 214 255
187 214 255
187 214 255
187 214 255
187 214 255
187 214 255
187 214 255
187 214 255
187 214 255
187 214 255
187 214 255
187 214 255
187 214 255
187 214 255
187 214 255
187 214 255
187 214 255
187 214 255
187 214 255
186 214 255
186 214 255
186 214 255
186 214 255
186 214 255
186 214 255
186 214 255
186 214 255
186 214 255
186 214 255
186 214 255
186 214 255
186 214 255
186 214 255
186 214 255
186 214 255
186 214 255
186 214 255
186 214 255
186 214 255
186 214 255
186 214 255
186 214 255
186 214 255
186 214 255
186 214 255
186 214 255
186 214 255
186 214 255
186 214 255
186 214 255
186 214 255
186 214 255
186 214 255
186 214 255
186 214 255
186 214 255
186 214 255
186 214 255
186 214 255
186 214 255
186 214 255
185 213 255
185 213 255
185 213 255
185 213 255
185 213 255
185 213 255
185 213 255
185 213 255
185 213 255
185 213 255
185 213 255
185 213 255
185 213 255
185 213 255
185 213 255
185 213 255
108 128 158
61 76 97
64 80 104
65 80 102
66 82 106
67 82 106
62 77 99
64 79 101
61 76 98
63 78 99
64 80 103
61 75 96
60 75 96
62 77 99
63 79 102
64 80 103
61 75 97
62 77 101
63 77 99
63 77 99
67 83 106
61 76 97
63 77 98
63 78 101
64 80 103
58 72 94
66 80 101
67 83 106
61 75 96
63 78 102
64 79 102
60 75 97
63 78 101
66 81 104
66 81 103
63 78 101
64 80 103
61 76 99
62 77 100
62 76 97
61 75 97
60 75 97
63 78 100
64 80 103
62 77 99
64 78 100
61 77 100
65 80 104
61 75 96
63 78 101
63 78 101
62 78 101
64 79 101
62 77 100
60 74 94
66 82 106
58 73 95
62 77 99
64 80 103
62 76 98
66 81 104
62 78 100
65 79 101
66 81 103
65 80 103
64 78 100
61 77 100
65 80 103
65 80 103
63 78 100
64 79 101
59 73 95
65 80 101
64 80 103
60 75 96
65 80 102
61 75 96
64 79 101
63 77 98
60 74 96
59 73 95
62 77 100
63 79 102
65 80 102
60 75 97
64 79 101
65 81 104
64 79 101
59 73 94
63 77 98
61 76 98
63 79 103
65 80 103
65 80 103
67 83 108
62 76 97
63 78 99
59 73 93
62 77 99
64 79 102
61 75 96
67 83 107
65 81 104
62 77 99
57 71 91
63 79 101
61 75 96
61 75 96
62 76 96
60 75 97
64 78 101
60 74 94
62 76 97
63 77 99
67 82 105
67 83 106
63 77 100
63 78 100
63 79 102
63 78 101
64 80 103
62 77 101
65 80 101
62 76 98
66 81 103
67 84 109
63 78 99
118 138 169
185 213 255
185 213 255
185 213 255
185 213 255
185 213 255
185 213 255
185 213 255
185 213 255
185 213 255
185 213 255
185 213 255
185 213 255
185 213 255
185 213 255
185 213 255
185 213 255
186 214 255
186 214 255
186 214 255
186 214 255
186 214 255
186 214 255
186 214 255
186 214 255
186 214 255
186 214 255
186 214 255
186 214 255
186 214 255
186 214 255
186 214 255
186 214 255
186 214 255
186 214 255
186 214 255
186 214 255
186 214 255
186 214 255
186 214 255
186 214 255
186 214 255
186 214 255
186 214 255
186 214 255
186 214 255
186 214 255
186 214 255
186 214 255
186 214 255
186 214 255
186 214 255
186 214 255
186 214 255
186 214 255
186 214 255
186 214 255
186 214 255
186 214 255
187 214 255
187 214 255
187 214 255
187 214 255
187 214 255
187 214 255
187 214 255
187 214 255
187 214 255
187 214 255
187 214 255
187 214 255
187 214 255
187 214 255
187 214 255
187 214 255
187 214 255
187 214 255
187 214 255
187 214 255
187 214 255
187 214 255
187 214 255
187 214 255
187 214 255
187 214 255
187 214 255
187 214 255
187 214 255
187 214 255
187 214 255
187 214 255
187 214 255
187 215 255
187 215 255
187 215 255
187 215 255
187 215 255
187 215 255
187 215 255
187 215 255
187 215 255
187 215 255
187 215 255
187 215 255
187 215 255
187 215 255
187 215 255
187 215 255
187 215 255
187 215 255
187 215 255
187 215 255
188 215 255
188 215 255
188 215 255
188 215 255
188 215 255
188 215 255
188 215 255
188 215 255
188 215 255
188 215 255
188 215 255
188 215 255
188 215 255
188 215 255
188 215 255
188 215 255
188 215 255
188 215 255
188 215 255
188 215 255
188 215 255
188 215 255
188 215 255
188 215 255
188 215 255
188 215 255
188 215 255
188 215 255
188 215 255
188 215 255
188 215 255
188 215 255
188 215 255
188 215 255
188 215 255
188 215 255
188 215 255
188 215 255
188 215 255
188 215 255
188 215 255
188 215 255
188 215 255
188 215 255
188 215 255
188 215 255
188 215 255
188 215 255
188 215 255
188 215 255
188 215 255
188 215 255
188 215 255
188 215 255
188 215 255
188 215 255
188 215 255
188 215 255
188 215 255
188 215 255
188 215 255
188 215 255
188 215 255
188 215 255
188 215 255
188 215 255
188 215 255
188 215 255
188 215 255
187 215 255
187 215 255
187 215 255
187 215 255
187 215 255
187 215 255
187 215 255
187 215 255
187 215 255
187 215 255
187 215 255
187 215 255
187 215 255
187 215 255
187 215 255
187 215 255
187 215 255
187 215 255
187 215 255
187 215 255
187 214 255
187 214 255
187 214 255
187 214 255
187 214 255
187 214 255
187 214 255
187 214 255
187 214 255
187 214 255
187 214 255
187 214 255
187 214 255
187 214 255
187 214 255
187 214 255
187 214 255
187 214 255
187 214 255
187 214 255
187 214 255
187 214 255
187 214 255
187 214 255
187 214 255
187 214 255
187 214 255
187 214 255
187 214 255
187 214 255
187 214 255
187 214 255
187 214 255
186 214 255
186 214 255
186 214 255
186 214 255
186 214 255
186 214 255
186 214 255
186 214 255
186 214 255
186 214 255
186 214 255
186 214 255
186 214 255
186 214 255
186 214 255
186 214 255
186 214 255
186 214 255
186 214 255
186 214 255
186 214 255
186 214 255
186 214 255
186 214 255
186 214 255
186 214 255
186 214 255
186 214 255
186 214 255
186 214 255
186 214 255
186 214 255
186 214 255
186 214 255
186 214 255
186 214 255
186 214 255
186 214 255
186 214 255
88 105 131
63 78 101
66 80 102
63 77 99
61 75 97
64 79 102
65 81 104
62 76 96
68 82 104
62 77 99
61 76 98
58 72 94
65 80 102
62 76 99
59 73 94
64 80 103
63 77 98
62 77 99
60 75 97
62 76 99
58 72 92
62 77 99
64 78 99
65 81 105
66 82 105
60 76 99
63 78 100
62 78 101
64 79 100
67 82 104
62 76 98
62 76 98
61 76 97
64 80 103
59 73 94
61 76 98
60 74 96
61 76 98
65 80 103
61 76 99
64 78 100
66 81 104
66 81 104
63 78 100
65 80 102
64 80 103
67 83 106
62 76 98
63 77 98
63 78 101
61 75 96
64 79 101
60 74 95
63 78 101
64 79 101
63 78 101
62 77 100
62 77 99
66 81 103
63 78 100
66 82 106
64 79 100
60 75 97
63 77 99
63 78 100
61 75 97
60 74 96
61 76 97
60 73 94
63 77 98
64 78 98
62 77 99
66 81 104
59 73 95
60 74 94
66 81 104
60 75 97
62 77 98
66 82 106
67 83 107
64 79 102
58 73 95
60 74 97
62 78 102
60 74 94
59 73 93
61 76 98
64 79 101
65 79 101
70 86 110
62 76 98
63 78 100
62 77 99
62 77 100
66 81 104
59 73 95
64 80 103
61 75 96
64 79 101
61 76 98
61 76 98
61 76 97
62 76 96
66 82 105
65 81 105
64 79 102
62 76 98
60 74 95
65 80 103
63 79 102
64 78 100
62 77 99
64 80 103
62 77 99
60 74 96
60 74 96
61 76 98
64 80 104
60 75 97
62 77 100
62 76 98
62 77 99
68 84 109
60 75 96
65 80 103
65 80 103
65 80 103
87 104 130
186 214 255
186 214 255
186 214 255
186 214 255
186 214 255
186 214 255
186 214 255
186 214 255
186 214 255
186 214 255
186 214 255
186 214 255
186 214 255
186 214 255
186 214 255
186 214 255
186 214 255
186 214 255
186 214 255
186 214 255
186 214 255
186 214 255
186 214 255
186 214 255
186 214 255
186 214 255
186 214 255
186 214 255
186 214 255
186 214 255
186 214 255
186 214 255
186 214 255
186 214 255
186 214 255
186 214 255
186 214 255
186 214 255
186 214 255
186 214 255
187 214 255
187 214 255
187 214 255
187 214 255
187 214 255
187 214 255
187 214 255
187 214 255
187 214 255
187 214 255
187 214 255
187 214 255
187 214 255
187 214 255
187 214 255
187 214 255
187 214 255
187 214 255
187 214 255
187 214 255
187 214 255
187 214 255
187 214 255
187 214 255
187 214 255
187 214 255
187 214 255
187 214 255
187 214 255
187 214 255
187 214 255
187 214 255
187 214 255
187 215 255
187 215 255
187 215 255
187 215 255
187 215 255
187 215 255
187 215 255
187 215 255
187 215 255
187 215 255
187 215 255
187 215 255
187 215 255
187 215 255
187 215 255
187 215 255
187 215 255
187 215 255
188 215 255
188 215 255
188 215 255
188 215 255
188 215 255
188 215 255
188 215 255
188 215 255
188 215 255
188 215 255
188 215 255
188 215 255
188 215 255
188 215 255
188 215 255
188 215 255
188 215 255
188 215 255
188 215 255
188 215 255
188 215 255
188 215 255
188 215 255
188 215 255
188 215 255
188 215 255
188 215 255
188 215 255
188 215 255
188 215 255
188 215 255
188 215 255
188 215 255
188 215 255
188 215 255
188 215 255
188 215 255
188 215 255
188 215 255
188 215 255
188 215 255
188 215 255
188 215 255
188 215 255
188 215 255
188 215 255
188 215 255
188 215 255
188 215 255
188 215 255
188 215 255
188 215 255
188 215 255
188 215 255
188 215 255
188 215 255
188 215 255
188 215 255
188 215 255
188 215 255
188 215 255
188 215 255
188 215 255
188 215 255
188 215 255
188 215 255
188 215 255
188 215 255
188 215 255
188 215 255
188 215 255
188 215 255
188 215 255
188 215 255
188 215 255
188 215 255
188 215 255
188 215 255
188 215 255
188 215 255
188 215 255
188 215 255
188 215 255
188 215 255
188 215 255
188 215 255
188 215 255
188 215 255
188 215 255
188 215 255
188 215 255
188 215 255
188 215 255
188 215 255
188 215 255
188 215 255
188 215 255
188 215 255
188 215 255
188 215 255
188 215 255
188 215 255
188 215 255
188 215 255
188 215 255
188 215 255
188 215 255
188 215 255
188 215 255
188 215 255
187 215 255
187 215 255
187 215 255
187 215 255
187 215 255
187 215 255
187 215 255
187 215 255
187 215 255
187 215 255
187 215 255
187 215 255
187 215 255
187 215 255
187 215 255
187 215 255
187 215 255
187 215 255
187 215 255
187 214 255
187 214 255
187 214 255
187 214 255
187 214 255
187 214 255
187 214 255
187 214 255
187 214 255
187 214 255
187 214 255
187 214 255
187 214 255
187 214 255
187 214 255
187 214 255
187 214 255
187 214 255
187 214 255
187 214 255
187 214 255
187 214 255
187 214 255
187 214 255
187 214 255
187 214 255
187 214 255
187 214 255
187 214 255
187 214 255
187 214 255
187 214 255
187 214 255
186 214 255
186 214 255
186 214 255
186 214 255
186 214 255
186 214 255
186 214 255
186 214 255
186 214 255
186 214 255
186 214 255
186 214 255
186 214 255
186 214 255
186 214 255
186 214 255
186 214 255
186 214 255
184 212 253
65 80 102
65 80 102
63 79 102
65 79 101
64 79 101
61 75 95
65 80 102
62 76 96
65 81 105
62 76 97
58 73 94
62 78 100
64 78 100
66 81 104
63 77 99
64 79 101
60 75 97
64 78 100
65 80 103
62 76 97
64 79 101
64 79 101
65 79 101
65 80 102
61 76 98
60 74 95
62 77 99
57 71 92
61 75 97
63 78 99
64 79 102
67 82 105
62 76 97
60 74 95
62 77 100
64 80 103
65 80 104
62 77 99
62 76 97
61 75 96
62 77 100
66 81 104
65 81 104
64 79 101
70 86 110
64 79 102
66 82 106
63 77 98
63 78 100
62 77 98
65 80 102
64 80 104
64 78 100
64 79 101
61 75 97
66 80 102
65 81 104
63 77 99
65 80 104
66 81 103
63 77 99
64 79 101
65 80 104
62 78 100
56 70 90
60 75 97
64 79 102
64 79 103
64 81 105
64 79 102
67 82 105
63 78 101
60 76 99
62 77 100
61 76 98
65 80 101
62 77 99
65 80 102
60 74 94
61 75 97
62 76 96
63 78 100
62 76 96
58 73 95
59 74 96
60 74 96
62 77 99
62 77 99
63 78 100
63 78 101
62 77 100
62 77 99
63 78 100
60 76 98
63 78 100
62 77 99
60 74 95
64 79 101
62 77 101
59 73 94
62 76 97
62 76 98
63 78 100
59 74 95
63 78 100
67 83 108
66 81 103
67 81 103
62 77 100
64 79 101
63 78 101
60 75 97
62 77 99
64 79 102
63 78 100
60 75 97
58 72 93
61 75 97
62 77 99
65 81 104
63 78 99
65 81 104
61 76 98
62 77 99
65 80 102
64 80 103
62 76 98
62 77 100
184 211 252
186 214 255
186 214 255
186 214 255
186 214 255
186 214 255
186 214 255
186 214 255
186 214 255
186 214 255
186 214 255
186 214 255
186 214 255
186 214 255
186 214 255
186 214 255
186 214 255
186 214 255
186 214 255
186 214 255
186 214 255
187 214 255
187 214 255
187 214 255
187 214 255
187 214 255
187 214 255
187 214 255
187 214 255
187 214 255
187 214 255
187 214 255
187 214 255
187 214 255
187 214 255
187 214 255
187 214 255
187 214 255
187 214 255
187 214 255
187 214 255
187 214 255
187 214 255
187 214 255
187 214 255
187 214 255
187 214 255
187 214 255
187 214 255
187 214 255
187 214 255
187 215 255
187 214 255
187 214 255
187 215 255
187 215 255
187 215 255
187 215 255
187 215 255
187 215 255
187 215 255
187 215 255
187 215 255
187 215 255
187 215 255
187 215 255
187 215 255
187 215 255
187 215 255
187 215 255
187 215 255
187 215 255
188 215 255
188 215 255
188 215 255
188 215 255
188 215 255
188 215 255
188 215 255
188 215 255
188 215 255
188 215 255
188 215 255
188 215 255
188 215 255
188 215 255
188 215 255
188 215 255
188 215 255
188 215 255
188 215 255
188 215 255
188 215 255
188 215 255
188 215 255
188 215 255
188 215 255
188 215 255
188 215 255
188 215 255
188 215 255
188 215 255
188 215 255
188 215 255
188 215 255
188 215 255
188 215 255
188 215 255
188 215 255
188 215 255
188 215 255
188 215 255
188 215 255
188 215 255
188 215 255
188 215 255
188 215 255
188 215 255
188 215 255
188 215 255
188 215 255
188 215 255
188 215 255
188 215 255
188 215 255
188 215 255
188 215 255
188 215 255
188 215 255
188 215 255
188 215 255
188 215 255
188 215 255
188 215 255
188 215 255
188 215 255
189 215 255
189 215 255
189 215 255
189 215 255
189 215 255
189 215 255
189 215 255
189 215 255
189 215 255
189 215 255
189 215 255
189 215 255
189 215 255
189 215 255
189 215 255
189 215 255
189 215 255
189 215 255
188 215 255
188 215 255
188 215 255
188 215 255
188 215 255
188 215 255
188 215 255
188 215 255
188 215 255
188 215 255
188 215 255
188 215 255
188 215 255
188 215 255
188 215 255
188 215 255
188 215 255
188 215 255
188 215 255
188 215 255
188 215 255
188 215 255
188 215 255
188 215 255
188 215 255
188 215 255
188 215 255
188 215 255
188 215 255
188 215 255
188 215 255
188 215 255
188 215 255
188 215 255
188 215 255
188 215 255
188 215 255
188 215 255
188 215 255
188 215 255
188 215 255
188 215 255
188 215 255
188 215 255
188 215 255
188 215 255
188 215 255
188 215 255
188 215 255
188 215 255
188 215 255
188 215 255
188 215 255
188 215 255
188 215 255
188 215 255
188 215 255
188 215 255
188 215 255
188 215 255
188 215 255
188 215 255
188 215 255
188 215 255
188 215 255
188 215 255
188 215 255
188 215 255
188 215 255
187 215 255
187 215 255
187 215 255
187 215 255
187 215 255
187 215 255
187 215 255
187 215 255
187 215 255
187 215 255
187 215 255
187 215 255
187 215 255
187 215 255
187 215 255
187 215 255
187 215 255
187 215 255
187 214 255
187 214 255
187 214 255
187 214 255
187 214 255
187 214 255
187 214 255
187 214 255
187 214 255
187 214 255
187 214 255
187 214 255
187 214 255
187 214 255
187 214 255
187 214 255
187 214 255
187 214 255
187 214 255
187 214 255
187 214 255
187 214 255
187 214 255
187 214 255
187 214 255
187 214 255
187 214 255
187 214 255
187 214 255
187 214 255
163 188 226
65 80 104
63 78 101
61 76 100
64 79 102
61 75 96
61 75 96
66 80 101
60 74 95
62 75 95
65 81 105
63 78 100
63 78 101
62 78 102
59 73 94
68 82 104
63 78 101
62 77 99
63 78 100
64 78 99
61 75 96
64 78 100
62 77 99
63 78 100
61 75 97
63 79 102
64 79 102
61 76 98
61 76 99
62 77 100
59 73 93
59 73 94
62 77 99
61 75 96
61 75 96
62 77 100
61 75 97
65 79 101
64 79 101
64 80 103
59 74 96
61 76 98
64 79 102
62 76 98
60 75 97
62 76 98
59 73 93
61 75 96
58 72 92
65 81 105
66 81 103
62 75 96
67 81 103
60 74 96
62 78 102
61 75 96
62 76 97
65 79 101
62 77 98
63 78 100
63 77 99
63 77 98
61 75 96
63 78 101
66 80 103
67 84 108
64 79 100
61 75 96
62 77 99
66 81 103
61 76 98
65 80 102
61 76 97
58 72 93
62 77 99
64 79 101
62 77 99
60 74 94
60 75 97
59 73 94
66 83 108
64 78 100
63 79 103
65 81 104
63 77 98
65 80 102
64 78 100
66 82 106
63 77 99
63 78 99
65 80 102
61 75 96
61 75 98
61 74 95
62 75 96
63 78 99
60 75 98
63 77 99
64 79 102
62 77 98
64 78 100
58 72 93
65 79 101
61 76 99
66 80 101
63 77 99
64 79 102
60 75 96
63 78 100
64 80 103
63 79 103
66 80 102
66 82 106
63 77 100
62 78 101
59 73 93
65 80 102
61 75 97
61 77 100
66 82 106
59 73 95
66 81 104
63 78 100
61 76 99
66 81 103
64 79 101
67 82 104
65 81 104
65 81 104
174 200 240
187 214 255
187 214 255
187 214 255
187 214 255
187 214 255
187 214 255
187 214 255
187 214 255
187 214 255
187 214 255
187 214 255
187 214 255
187 214 255
187 214 255
187 214 255
187 214 255
187 214 255
187 214 255
187 214 255
187 214 255
187 214 255
187 214 255
187 214 255
187 214 255
187 214 255
187 214 255
187 214 255
187 214 255
187 214 255
187 214 255
187 215 255
187 215 255
187 215 255
187 215 255
187 215 255
187 215 255
187 215 255
187 215 255
187 215 255
187 215 255
187 215 255
187 215 255
187 215 255
187 215 255
187 215 255
187 215 255
187 215 255
187 215 255
187 215 255
188 215 255
188 215 255
188 215 255
188 215 255
188 215 255
188 215 255
188 215 255
188 215 255
188 215 255
188 215 255
188 215 255
188 215 255
188 215 255
188 215 255
188 215 255
188 215 255
188 215 255
188 215 255
188 215 255
188 215 255
188 215 255
188 215 255
188 215 255
188 215 255
188 215 255
188 215 255
188 215 255
188 215 255
188 215 255
188 215 255
188 215 255
188 215 255
188 215 255
188 215 255
188 215 255
188 215 255
188 215 255
188 215 255
188 215 255
188 215 255
188 215 255
188 215 255
188 215 255
188 215 255
188 215 255
188 215 255
188 215 255
188 215 255
188 215 255
188 215 255
188 215 255
188 215 255
188 215 255
188 215 255
188 215 255
188 215 255
188 215 255
188 215 255
188 215 255
188 215 255
188 215 255
188 215 255
188 215 255
188 215 255
188 215 255
188 215 255
188 215 255
189 215 255
189 215 255
189 215 255
189 215 255
189 215 255
189 215 255
189 215 255
189 215 255
189 215 255
189 215 255
189 215 255
189 215 255
189 215 255
189 215 255
189 215 255
189 215 255
189 215 255
189 215 255
189 215 255
189 216 255
189 216 255
189 216 255
189 216 255
189 216 255
189 216 255
189 216 255
189 216 255
189 216 255
189 216 255
189 216 255
189 216 255
189 216 255
189 216 255
189 216 255
189 215 255
189 215 255
189 215 255
189 215 255
189 215 255
189 215 255
189 215 255
189 215 255
189 215 255
189 215 255
189 215 255
189 215 255
189 215 255
189 215 255
189 215 255
189 215 255
189 215 255
189 215 255
189 215 255
189 215 255
189 215 255
189 215 255
189 215 255
189 215 255
189 215 255
189 215 255
189 215 255
189 215 255
189 215 255
188 215 255
188 215 255
188 215 255
188 215 255
188 215 255
188 215 255
188 215 255
188 215 255
188 215 255
188 215 255
188 215 255
188 215 255
188 215 255
188 215 255
188 215 255
188 215 255
188 215 255
188 215 255
188 215 255
188 215 255
188 215 255
188 215 255
188 215 255
188 215 255
188 215 255
188 215 255
188 215 255
188 215 255
188 215 255
188 215 255
188 215 255
188 215 255
188 215 255
188 215 255
188 215 255
188 215 255
188 215 255
188 215 255
188 215 255
188 215 255
188 215 255
188 215 255
188 215 255
188 215 255
188 215 255
188 215 255
188 215 255
188 215 255
188 215 255
188 215 255
188 215 255
188 215 255
188 215 255
188 215 255
188 215 255
188 215 255
188 215 255
188 215 255
188 215 255
188 215 255
188 215 255
188 215 255
188 215 255
188 215 255
188 215 255
187 215 255
187 215 255
187 215 255
187 215 255
187 215 255
187 215 255
187 215 255
187 215 255
187 215 255
187 215 255
187 215 255
187 215 255
187 215 255
187 215 255
187 215 255
187 215 255
187 215 255
187 215 255
187 215 255
187 215 255
187 215 255
187 214 255
187 214 255
187 214 255
187 214 255
187 214 255
143 166 201
63 78 100
59 74 97
64 79 101
59 73 94
65 81 105
62 77 98
65 82 106
66 81 104
65 80 103
63 78 101
64 79 101
63 78 99
64 79 101
62 76 98
61 75 96
63 77 99
61 76 97
61 76 98
64 79 102
63 79 101
61 75 96
64 79 102
67 81 103
66 82 105
63 77 98
64 78 100
61 75 96
63 78 100
66 81 104
61 75 97
62 76 98
62 77 100
61 77 100
61 76 98
62 76 98
60 75 97
63 76 97
66 80 102
63 78 99
68 84 108
65 79 100
64 78 100
66 81 103
63 77 99
62 77 99
61 75 97
59 74 95
62 77 99
65 81 104
67 83 106
60 75 96
59 73 94
57 71 92
57 71 92
63 78 101
64 79 101
63 78 100
65 80 104
61 76 98
69 85 108
63 78 99
63 78 100
64 78 100
62 77 98
60 74 94
65 81 104
59 74 95
62 77 100
63 78 100
60 74 94
65 79 101
61 76 99
65 80 103
67 82 105
65 80 102
65 80 102
61 76 98
60 73 93
65 80 102
61 76 97
60 75 97
68 83 107
66 81 103
63 78 101
63 77 99
65 80 104
63 77 99
59 74 96
62 77 98
61 75 96
65 79 102
57 71 91
62 77 99
63 78 102
65 80 102
60 74 96
62 77 99
66 81 103
63 77 98
58 71 91
61 75 96
64 79 101
62 78 100
58 72 94
61 74 95
62 76 97
61 76 99
61 76 99
67 82 104
62 78 102
59 73 94
60 75 98
64 79 102
59 73 94
64 78 100
61 76 97
59 73 94
65 80 101
61 75 96
65 80 104
64 78 99
59 73 93
65 80 103
62 76 98
60 75 96
65 81 103
62 77 100
66 80 102
148 171 206
187 214 255
187 214 255
187 214 255
187 214 255
187 214 255
187 215 255
187 215 255
187 215 255
187 215 255
187 215 255
187 215 255
187 215 255
187 215 255
187 215 255
187 215 255
187 215 255
187 215 255
187 215 255
187 215 255
187 215 255
187 215 255
187 215 255
187 215 255
188 215 255
187 215 255
188 215 255
188 215 255
188 215 255
188 215 255
188 215 255
188 215 255
188 215 255
188 215 255
188 215 255
188 215 255
188 215 255
188 215 255
188 215 255
188 215 255
188 215 255
188 215 255
188 215 255
188 215 255
188 215 255
188 215 255
188 215 255
188 215 255
188 215 255
188 215 255
188 215 255
188 215 255
188 215 255
188 215 255
188 215 255
188 215 255
188 215 255
188 215 255
188 215 255
188 215 255
188 215 255
188 215 255
188 215 255
188 215 255
188 215 255
188 215 255
188 215 255
188 215 255
188 215 255
188 215 255
188 215 255
188 215 255
188 215 255
188 215 255
188 215 255
188 215 255
188 215 255
188 215 255
188 215 255
188 215 255
188 215 255
188 215 255
188 215 255
188 215 255
188 215 255
188 215 255
188 215 255
188 215 255
188 215 255
188 215 255
188 215 255
189 215 255
189 215 255
189 215 255
189 215 255
189 215 255
189 215 255
189 215 255
189 215 255
189 215 255
189 215 255
189 215 255
189 215 255
189 215 255
189 215 255
189 215 255
189 215 255
189 215 255
189 215 255
189 215 255
189 215 255
189 215 255
189 215 255
189 215 255
189 215 255
189 215 255
189 215 255
189 215 255
189 215 255
189 215 255
189 216 255
189 216 255
189 216 255
189 216 255
189 216 255
189 216 255
189 216 255
189 216 255
189 216 255
189 216 255
189 216 255
189 216 255
189 216 255
189 216 255
189 216 255
189 216 255
189 216 255
189 216 255
189 216 255
189 216 255
189 216 255
189 216 255
189 216 255
189 216 255
189 216 255
189 216 255
189 216 255
189 216 255
189 216 255
189 216 255
189 216 255
189 216 255
189 216 255
189 216 255
189 216 255
189 216 255
189 216 255
189 216 255
189 216 255
189 216 255
189 216 255
189 216 255
189 216 255
189 216 255
189 216 255
189 216 255
189 216 255
189 216 255
189 216 255
189 216 255
189 216 255
189 216 255
189 216 255
189 216 255
189 216 255
189 216 255
189 216 255
189 216 255
189 216 255
189 216 255
189 216 255
189 215 255
189 215 255
189 215 255
189 215 255
189 215 255
189 215 255
189 215 255
189 215 255
189 215 255
189 215 255
189 215 255
189 215 255
189 215 255
189 215 255
189 215 255
189 215 255
189 215 255
189 215 255
189 215 255
189 215 255
189 215 255
189 215 255
189 215 255
189 215 255
189 215 255
189 215 255
189 215 255
188 215 255
188 215 255
188 215 255
188 215 255
188 215 255
188 215 255
188 215 255
188 215 255
188 215 255
188 215 255
188 215 255
188 215 255
188 215 255
188 215 255
188 215 255
188 215 255
188 215 255
188 215 255
188 215 255
188 215 255
188 215 255
188 215 255
188 215 255
188 215 255
188 215 255
188 215 255
188 215 255
188 215 255
188 215 255
188 215 255
188 215 255
188 215 255
188 215 255
188 215 255
188 215 255
188 215 255
188 215 255
188 215 255
188 215 255
188 215 255
188 215 255
188 215 255
188 215 255
188 215 255
188 215 255
188 215 255
188 215 255
188 215 255
188 215 255
188 215 255
188 215 255
188 215 255
188 215 255
188 215 255
188 215 255
188 215 255
188 215 255
188 215 255
188 215 255
188 215 255
188 215 255
188 215 255
188 215 255
139 162 196
63 79 102
62 77 100
64 80 104
63 78 100
57 70 90
61 75 97
60 75 98
59 73 94
60 73 94
64 80 104
60 75 97
60 74 94
66 81 105
61 76 99
66 81 105
64 80 103
68 83 106
65 80 102
61 75 95
65 80 102
66 81 104
60 74 95
60 75 97
61 76 97
64 78 100
65 80 103
64 80 103
62 76 98
61 75 97
62 77 99
59 73 94
62 77 99
62 77 99
61 75 96
61 75 96
61 75 96
64 79 101
63 78 101
66 81 103
65 80 103
63 77 99
62 77 98
60 74 95
65 81 106
58 71 91
64 79 101
61 75 97
64 79 101
62 76 98
62 77 100
62 77 99
64 78 100
59 72 93
59 73 93
63 77 98
58 73 95
62 75 96
59 72 93
61 75 96
60 74 94
56 70 90
64 80 103
62 76 98
57 70 90
58 73 96
60 75 96
63 77 99
59 73 94
62 77 98
64 79 101
59 73 94
61 74 94
61 76 98
62 77 99
64 79 100
64 80 104
65 80 103
62 78 101
62 77 100
64 79 101
63 79 102
63 77 99
66 82 105
61 76 98
63 79 102
61 75 96
65 80 103
62 76 97
57 70 91
63 77 99
64 79 102
63 78 100
64 79 101
60 74 96
61 75 97
65 80 102
64 79 102
59 74 95
63 78 100
60 74 95
60 75 97
63 79 103
63 77 100
59 72 92
58 72 94
65 81 104
60 74 96
59 72 92
63 78 99
63 76 97
62 76 98
63 79 102
64 79 102
61 76 99
66 81 103
64 80 103
58 73 96
60 74 96
62 77 100
63 77 98
60 74 96
59 73 93
62 76 97
61 76 98
64 78 100
62 77 99
60 74 94
60 74 96
140 162 195
188 215 255
188 215 255
188 215 255
188 215 255
188 215 255
188 215 255
188 215 255
188 215 255
188 215 255
188 215 255
188 215 255
188 215 255
188 215 255
188 215 255
188 215 255
188 215 255
188 215 255
188 215 255
188 215 255
188 215 255
188 215 255
188 215 255
188 215 255
188 215 255
188 215 255
188 215 255
188 215 255
188 215 255
188 215 255
188 215 255
188 215 255
188 215 255
188 215 255
188 215 255
188 215 255
188 215 255
188 215 255
188 215 255
188 215 255
188 215 255
188 215 255
188 215 255
188 215 255
188 215 255
188 215 255
188 215 255
188 215 255
188 215 255
188 215 255
188 215 255
188 215 255
188 215 255
188 215 255
188 215 255
188 215 255
188 215 255
188 215 255
188 215 255
188 215 255
188 215 255
188 215 255
188 215 255
188 215 255
189 215 255
189 215 255
189 215 255
189 215 255
189 215 255
189 215 255
189 215 255
189 215 255
189 215 255
189 215 255
189 215 255
189 215 255
189 215 255
189 215 255
189 215 255
189 215 255
189 215 255
189 215 255
189 215 255
189 215 255
189 215 255
189 215 255
189 215 255
189 215 255
189 215 255
189 215 255
189 215 255
189 215 255
189 216 255
189 216 255
189 216 255
189 216 255
189 216 255
189 216 255
189 216 255
189 216 255
189 216 255
189 216 255
189 216 255
189 216 255
189 216 255
189 216 255
189 216 255
189 216 255
189 216 255
189 216 255
189 216 255
189 216 255
189 216 255
189 216 255
189 216 255
189 216 255
189 216 255
189 216 255
189 216 255
189 216 255
189 216 255
189 216 255
189 216 255
189 216 255
189 216 255
189 216 255
189 216 255
189 216 255
189 216 255
189 216 255
189 216 255
189 216 255
189 216 255
189 216 255
189 216 255
189 216 255
190 216 255
190 216 255
190 216 255
190 216 255
190 216 255
189 216 255
190 216 255
189 216 255
189 216 255
189 216 255
189 216 255
189 216 255
189 216 255
189 216 255
189 216 255
189 216 255
189 216 255
189 216 255
189 216 255
189 216 255
189 216 255
189 216 255
189 216 255
189 216 255
189 216 255
189 216 255
189 216 255
189 216 255
189 216 255
189 216 255
189 216 255
189 216 255
189 216 255
189 216 255
189 216 255
189 216 255
189 216 255
189 216 255
189 216 255
189 216 255
189 216 255
189 216 255
189 216 255
189 216 255
189 216 255
189 216 255
189 216 255
189 216 255
189 216 255
189 216 255
189 216 255
189 216 255
189 216 255
189 216 255
189 216 255
189 216 255
189 216 255
189 216 255
189 216 255
189 216 255
189 216 255
189 216 255
189 216 255
189 216 255
189 216 255
189 216 255
189 216 255
189 216 255
189 216 255
189 216 255
189 216 255
189 216 255
189 216 255
189 216 255
189 216 255
189 216 255
189 216 255
189 215 255
189 215 255
189 215 255
189 215 255
189 215 255
189 215 255
189 215 255
189 215 255
189 215 255
189 215 255
189 215 255
189 215 255
189 215 255
189 215 255
189 215 255
189 215 255
189 215 255
189 215 255
189 215 255
189 215 255
189 215 255
189 215 255
189 215 255
189 215 255
189 215 255
188 215 255
188 215 255
188 215 255
188 215 255
188 215 255
188 215 255
188 215 255
188 215 255
188 215 255
188 215 255
188 215 255
188 215 255
188 215 255
188 215 255
188 215 255
188 215 255
188 215 255
188 215 255
188 215 255
188 215 255
188 215 255
188 215 255
188 215 255
188 215 255
188 215 255
188 215 255
188 215 255
188 215 255
188 215 255
188 215 255
188 215 255
188 215 255
188 215 255
108 127 155
62 76 98
63 78 100
60 73 94
61 77 100
64 78 100
62 76 98
66 81 104
60 74 96
62 77 100
59 73 96
61 75 96
63 76 96
61 76 97
63 78 100
61 75 97
66 82 105
61 76 97
60 75 96
64 80 102
58 72 92
60 73 94
59 72 93
60 76 99
59 72 93
62 76 99
66 81 105
59 73 94
61 76 98
64 78 100
64 78 100
62 77 99
64 80 103
62 77 100
65 81 104
64 78 101
60 74 95
62 76 98
59 73 95
60 74 95
62 77 99
64 78 100
58 71 92
65 80 102
64 79 101
61 76 98
66 81 104
61 75 96
60 75 96
65 80 102
61 76 98
62 78 101
64 80 105
60 73 94
63 78 100
64 78 100
61 76 98
67 83 106
61 75 97
64 79 101
62 76 97
60 75 97
62 77 98
56 70 89
60 74 96
65 80 102
64 79 101
62 77 99
60 74 95
60 74 95
59 74 95
61 75 96
62 76 96
66 80 102
63 78 101
63 79 101
65 79 101
64 80 103
65 80 102
63 77 98
62 76 98
62 77 100
59 74 95
58 72 92
61 75 97
64 80 102
63 77 99
61 75 97
62 77 99
63 78 101
67 82 104
65 79 101
58 72 93
66 81 104
63 78 100
64 79 101
61 75 97
62 76 98
65 80 102
61 77 100
61 76 98
64 77 98
60 75 98
65 80 103
60 74 95
63 78 101
65 80 102
60 73 94
61 76 98
62 77 100
58 72 93
61 76 99
67 83 106
65 80 102
65 79 100
64 78 100
63 77 99
61 75 97
60 73 94
62 77 100
61 76 97
60 74 95
65 80 103
63 78 100
67 82 105
61 76 99
62 78 101
65 79 101
63 77 97
111 131 161
188 215 255
188 215 255
188 215 255
188 215 255
188 215 255
188 215 255
188 215 255
188 215 255
188 215 255
188 215 255
188 215 255
188 215 255
188 215 255
188 215 255
188 215 255
188 215 255
188 215 255
188 215 255
188 215 255
188 215 255
188 215 255
188 215 255
188 215 255
188 215 255
188 215 255
188 215 255
188 215 255
188 215 255
188 215 255
188 215 255
188 215 255
188 215 255
189 215 255
188 215 255
189 215 255
189 215 255
189 215 255
189 215 255
189 215 255
189 215 255
189 215 255
189 215 255
189 215 255
189 215 255
189 215 255
189 215 255
189 215 255
189 215 255
189 215 255
189 215 255
189 215 255
189 215 255
189 215 255
189 215 255
189 215 255
189 215 255
189 215 255
189 215 255
189 215 255
189 215 255
189 216 255
189 216 255
189 216 255
189 216 255
189 216 255
189 216 255
189 216 255
189 216 255
189 216 255
189 216 255
189 216 255
189 216 255
189 216 255
189 216 255
189 216 255
189 216 255
189 216 255
189 216 255
189 216 255
189 216 255
189 216 255
189 216 255
189 216 255
189 216 255
189 216 255
189 216 255
189 216 255
189 216 255
189 216 255
189 216 255
189 216 255
189 216 255
189 216 255
189 216 255
189 216 255
189 216 255
189 216 255
189 216 255
189 216 255
189 216 255
189 216 255
189 216 255
189 216 255
189 216 255
189 216 255
189 216 255
189 216 255
189 216 255
189 216 255
189 216 255
189 216 255
189 216 255
189 216 255
189 216 255
189 216 255
189 216 255
189 216 255
189 216 255
189 216 255
189 216 255
189 216 255
189 216 255
189 216 255
189 216 255
189 216 255
189 216 255
189 216 255
189 216 255
189 216 255
189 216 255
190 216 255
190 216 255
190 216 255
190 216 255
190 216 255
190 216 255
190 216 255
190 216 255
190 216 255
190 216 255
190 216 255
190 216 255
190 216 255
190 216 255
190 216 255
190 216 255
190 216 255
190 216 255
190 216 255
190 216 255
190 216 255
190 216 255
190 216 255
190 216 255
190 216 255
190 216 255
190 216 255
190 216 255
190 216 255
190 216 255
190 216 255
190 216 255
190 216 255
190 216 255
190 216 255
190 216 255
190 216 255
190 216 255
190 216 255
190 216 255
190 216 255
190 216 255
190 216 255
190 216 255
190 216 255
190 216 255
190 216 255
190 216 255
190 216 255
190 216 255
189 216 255
189 216 255
189 216 255
189 216 255
189 216 255
189 216 255
189 216 255
189 216 255
189 216 255
189 216 255
189 216 255
189 216 255
189 216 255
189 216 255
189 216 255
189 216 255
189 216 255
189 216 255
189 216 255
189 216 255
189 216 255
189 216 255
189 216 255
189 216 255
189 216 255
189 216 255
189 216 255
189 216 255
189 216 255
189 216 255
189 216 255
189 216 255
189 216 255
189 216 255
189 216 255
189 216 255
189 216 255
189 216 255
189 216 255
189 216 255
189 216 255
189 216 255
189 216 255
189 216 255
189 216 255
189 216 255
189 216 255
189 216 255
189 216 255
189 216 255
189 216 255
189 216 255
189 216 255
189 216 255
189 216 255
189 216 255
189 216 255
189 216 255
189 216 255
189 216 255
189 216 255
189 216 255
189 216 255
189 216 255
189 216 255
189 215 255
189 215 255
189 215 255
189 215 255
189 215 255
189 215 255
189 215 255
189 215 255
189 215 255
189 215 255
189 215 255
189 215 255
189 215 255
189 215 255
189 215 255
189 215 255
189 215 255
189 215 255
189 215 255
189 215 255
189 215 255
189 215 255
189 215 255
189 215 255
189 215 255
107 126 155
67 83 107
62 76 98
63 78 100
61 75 97
62 76 97
63 77 99
62 77 99
62 77 99
59 73 94
61 75 96
63 78 99
60 75 97
59 73 94
62 77 99
62 76 97
59 73 94
62 76 98
64 79 102
60 73 94
62 77 100
64 78 100
60 74 96
62 77 98
61 76 98
65 80 102
62 77 99
63 78 100
62 77 99
58 72 93
59 74 95
64 79 101
63 78 100
60 74 96
65 81 104
63 77 100
62 77 99
63 78 101
64 78 99
63 77 100
62 77 99
59 72 93
63 77 99
63 78 101
67 82 105
61 75 97
67 82 104
63 77 99
62 77 99
62 77 99
59 73 93
55 70 91
58 72 92
65 79 101
63 77 100
61 77 100
64 80 103
65 80 102
58 72 93
59 73 95
59 74 95
63 78 101
59 73 94
64 79 101
62 77 99
63 78 100
67 82 104
63 78 100
66 81 104
63 78 100
59 73 93
63 79 103
60 75 97
64 79 102
62 77 98
59 73 95
57 70 91
62 76 96
60 74 94
61 75 97
62 76 97
60 75 98
62 78 101
63 78 100
64 79 101
58 72 93
67 82 105
61 75 96
58 72 92
65 79 100
64 79 101
61 75 97
63 78 101
64 79 100
65 79 101
60 74 96
65 80 102
59 73 93
61 75 96
60 74 95
63 78 99
63 78 101
61 75 96
60 74 95
59 74 95
61 75 96
64 79 101
62 77 99
62 77 99
64 78 101
62 77 98
66 81 105
62 76 98
61 76 97
59 72 92
61 75 96
60 75 98
66 80 102
63 78 100
63 77 99
65 80 102
61 76 98
62 77 100
64 79 100
66 81 104
63 78 101
68 83 105
61 76 98
63 78 101
100 119 147
189 215 255
189 215 255
189 215 255
189 215 255
189 215 255
189 215 255
189 215 255
189 215 255
189 215 255
189 215 255
189 215 255
189 215 255
189 215 255
189 215 255
189 215 255
189 215 255
189 215 255
189 215 255
189 215 255
189 215 255
189 215 255
189 215 255
189 215 255
189 215 255
189 215 255
189 216 255
189 216 255
189 216 255
189 216 255
189 216 255
189 216 255
189 216 255
189 216 255
189 216 255
189 216 255
189 216 255
189 216 255
189 216 255
189 216 255
189 216 255
189 216 255
189 216 255
189 216 255
189 216 255
189 216 255
189 216 255
189 216 255
189 216 255
189 216 255
189 216 255
189 216 255
189 216 255
189 216 255
189 216 255
189 216 255
189 216 255
189 216 255
189 216 255
189 216 255
189 216 255
189 216 255
189 216 255
189 216 255
189 216 255
189 216 255
189 216 255
189 216 255
189 216 255
189 216 255
189 216 255
189 216 255
189 216 255
189 216 255
189 216 255
189 216 255
189 216 255
189 216 255
189 216 255
189 216 255
189 216 255
189 216 255
189 216 255
189 216 255
189 216 255
189 216 255
189 216 255
189 216 255
189 216 255
189 216 255
189 216 255
189 216 255
189 216 255
190 216 255
190 216 255
190 216 255
190 216 255
190 216 255
190 216 255
190 216 255
190 216 255
190 216 255
190 216 255
190 216 255
190 216 255
190 216 255
190 216 255
190 216 255
190 216 255
190 216 255
190 216 255
190 216 255
190 216 255
190 216 255
190 216 255
190 216 255
190 216 255
190 216 255
190 216 255
190 216 255
190 216 255
190 216 255
190 216 255
190 216 255
190 216 255
190 216 255
190 216 255
190 216 255
190 216 255
190 216 255
190 216 255
190 216 255
190 216 255
190 216 255
190 216 255
190 216 255
190 216 255
190 216 255
190 216 255
190 216 255
190 216 255
190 216 255
190 216 255
190 216 255
190 216 255
190 216 255
190 216 255
190 216 255
190 216 255
190 216 255
190 216 255
190 216 255
190 216 255
190 216 255
190 216 255
190 216 255
190 216 255
190 216 255
190 216 255
190 216 255
190 216 255
190 216 255
190 216 255
190 216 255
190 216 255
190 216 255
190 216 255
190 216 255
190 216 255
190 216 255
190 216 255
190 216 255
190 216 255
190 216 255
190 216 255
190 216 255
190 216 255
190 216 255
190 216 255
190 216 255
190 216 255
190 216 255
190 216 255
190 216 255
190 216 255
190 216 255
190 216 255
190 216 255
190 216 255
190 216 255
190 216 255
190 216 255
190 216 255
190 216 255
190 216 255
190 216 255
190 216 255
190 216 255
190 216 255
190 216 255
190 216 255
190 216 255
190 216 255
190 216 255
190 216 255
190 216 255
190 216 255
190 216 255
190 216 255
190 216 255
190 216 255
190 216 255
190 216 255
190 216 255
190 216 255
190 216 255
190 216 255
190 216 255
190 216 255
190 216 255
190 216 255
189 216 255
190 216 255
189 216 255
189 216 255
189 216 255
189 216 255
189 216 255
189 216 255
189 216 255
189 216 255
189 216 255
189 216 255
189 216 255
189 216 255
189 216 255
189 216 255
189 216 255
189 216 255
189 216 255
189 216 255
189 216 255
189 216 255
189 216 255
189 216 255
189 216 255
189 216 255
189 216 255
189 216 255
189 216 255
189 216 255
189 216 255
189 216 255
189 216 255
189 216 255
189 216 255
189 216 255
189 216 255
189 216 255
189 216 255
189 216 255
189 216 255
189 216 255
189 216 255
189 216 255
189 216 255
189 216 255
189 216 255
189 216 255
189 216 255
189 216 255
94 112 138
60 75 97
60 74 94
57 71 92
65 80 101
64 79 100
61 75 96
61 76 98
62 77 100
61 75 97
65 80 101
60 74 96
62 76 98
61 76 98
64 79 101
58 72 92
62 75 96
57 70 89
59 73 94
64 79 101
67 83 107
65 79 101
64 78 100
63 77 99
61 76 98
66 81 104
66 80 102
65 80 102
61 75 97
65 80 103
60 74 95
60 75 97
64 79 101
64 80 103
65 80 101
60 74 95
60 74 95
60 74 96
64 78 100
65 80 102
61 76 99
66 80 101
63 78 100
59 73 94
64 78 99
58 71 92
59 73 93
62 76 97
65 79 101
64 79 101
60 74 95
62 76 97
63 78 101
60 75 96
63 77 98
55 69 89
66 80 102
64 78 100
63 77 100
64 78 99
60 74 94
59 73 96
56 70 90
59 73 94
66 80 102
63 78 100
60 73 93
60 73 93
63 79 102
61 76 98
66 82 105
59 74 96
64 79 100
64 78 100
62 76 97
59 73 93
67 82 105
59 73 94
62 76 97
61 75 97
61 75 96
66 80 102
64 80 103
62 77 99
64 80 103
60 74 94
63 78 100
65 79 100
60 74 96
60 73 93
59 73 95
64 78 101
64 79 101
62 77 100
59 73 95
63 77 99
60 75 96
60 75 97
57 71 92
59 74 96
63 78 100
65 80 101
60 73 93
65 81 104
63 78 100
63 77 99
60 75 97
65 81 103
63 77 100
56 70 90
62 77 99
64 78 100
59 73 94
60 75 98
64 79 102
62 77 99
63 77 98
65 81 103
63 77 99
64 79 102
63 78 100
62 77 99
61 76 97
63 77 99
59 73 94
59 73 94
62 77 98
62 77 98
63 76 96
92 108 133
189 216 255
189 216 255
189 216 255
189 216 255
189 216 255
189 216 255
189 216 255
189 216 255
189 216 255
189 216 255
189 216 255
189 216 255
189 216 255
189 216 255
189 216 255
189 216 255
189 216 255
189 216 255
189 216 255
189 216 255
189 216 255
189 216 255
189 216 255
189 216 255
189 216 255
189 216 255
189 216 255
189 216 255
189 216 255
189 216 255
189 216 255
189 216 255
189 216 255
189 216 255
189 216 255
189 216 255
189 216 255
189 216 255
189 216 255
189 216 255
189 216 255
189 216 255
189 216 255
189 216 255
189 216 255
189 216 255
189 216 255
189 216 255
189 216 255
190 216 255
190 216 255
190 216 255
190 216 255
190 216 255
190 216 255
190 216 255
190 216 255
190 216 255
190 216 255
190 216 255
190 216 255
190 216 255
190 216 255
190 216 255
190 216 255
190 216 255
190 216 255
190 216 255
190 216 255
190 216 255
190 216 255
190 216 255
190 216 255
190 216 255
190 216 255
190 216 255
190 216 255
190 216 255
190 216 255
190 216 255
190 216 255
190 216 255
190 216 255
190 216 255
190 216 255
190 216 255
190 216 255
190 216 255
190 216 255
190 216 255
190 216 255
190 216 255
190 216 255
190 216 255
190 216 255
190 216 255
190 216 255
190 216 255
190 216 255
190 216 255
190 216 255
190 216 255
190 216 255
190 216 255
190 216 255
190 216 255
190 216 255
190 216 255
190 216 255
190 216 255
190 216 255
190 216 255
190 216 255
190 216 255
190 216 255
190 216 255
190 216 255
190 216 255
190 216 255
190 216 255
190 216 255
190 216 255
190 216 255
190 216 255
190 216 255
190 216 255
190 216 255
190 216 255
190 216 255
190 216 255
190 216 255
190 216 255
190 216 255
190 216 255
190 216 255
190 216 255
190 216 255
190 216 255
190 216 255
190 216 255
190 216 255
190 216 255
190 216 255
190 216 255
190 216 255
190 216 255
190 216 255
190 216 255
190 216 255
190 216 255
190 216 255
190 216 255
190 216 255
190 216 255
190 216 255
190 216 255
190 216 255
190 216 255
190 216 255
190 216 255
190 216 255
190 216 255
190 216 255
190 216 255
190 216 255
190 216 255
190 216 255
190 216 255
190 216 255
190 216 255
190 216 255
190 216 255
190 216 255
190 216 255
190 216 255
190 216 255
190 216 255
190 216 255
190 216 255
190 216 255
190 216 255
190 216 255
190 216 255
190 216 255
190 216 255
190 216 255
190 216 255
190 216 255
190 216 255
190 216 255
190 216 255
190 216 255
190 216 255
190 216 255
190 216 255
190 216 255
190 216 255
190 216 255
190 216 255
190 216 255
190 216 255
190 216 255
190 216 255
190 216 255
190 216 255
190 216 255
190 216 255
190 216 255
190 216 255
190 216 255
190 216 255
190 216 255
190 216 255
190 216 255
190 216 255
190 216 255
190 216 255
190 216 255
190 216 255
190 216 255
190 216 255
190 216 255
190 216 255
190 216 255
190 216 255
190 216 255
190 216 255
190 216 255
190 216 255
190 216 255
190 216 255
190 216 255
190 216 255
190 216 255
190 216 255
190 216 255
190 216 255
190 216 255
190 216 255
190 216 255
190 216 255
190 216 255
190 216 255
190 216 255
190 216 255
190 216 255
190 216 255
190 216 255
190 216 255
190 216 255
190 216 255
190 216 255
190 216 255
190 216 255
190 216 255
190 216 255
190 216 255
190 216 255
190 216 255
190 216 255
190 216 255
190 216 255
190 216 255
190 216 255
190 216 255
190 216 255
190 216 255
190 216 255
190 216 255
190 216 255
79 95 119
59 73 95
62 76 98
62 77 99
60 74 95
58 72 93
60 74 96
63 79 101
61 75 97
65 79 101
61 76 97
62 76 98
64 79 102
64 79 102
59 74 96
63 78 100
61 75 96
64 79 102
61 77 100
61 76 98
60 74 95
60 75 96
60 74 96
61 75 95
59 73 95
62 76 97
62 76 98
61 75 95
63 77 97
64 78 100
58 72 93
64 78 100
64 79 101
59 73 94
60 74 96
63 78 100
65 80 101
63 77 98
58 71 91
60 74 96
63 77 99
63 78 101
66 80 101
61 75 96
63 78 100
62 76 97
58 71 91
63 77 99
63 78 100
63 77 99
58 73 95
61 76 99
63 77 99
66 81 103
63 77 98
66 81 104
63 77 98
61 76 99
59 73 94
61 75 95
55 68 88
60 74 95
62 78 100
60 74 95
64 78 100
62 77 99
58 72 93
64 79 101
61 75 97
64 79 101
60 74 95
59 73 95
60 75 96
60 74 95
61 75 97
61 75 97
62 76 98
60 74 96
64 79 101
62 76 97
64 80 102
62 76 97
62 78 101
60 73 94
64 80 103
62 77 99
62 77 99
61 76 99
61 75 95
63 78 101
65 79 102
61 76 98
60 75 97
63 78 99
63 78 99
67 82 105
59 74 95
60 73 94
60 74 95
61 76 97
58 73 95
62 76 96
62 76 98
63 78 100
63 77 98
60 74 96
62 76 98
61 76 99
59 73 94
59 73 95
63 79 103
65 79 101
61 75 96
63 78 101
65 80 102
65 80 103
60 73 93
62 77 100
59 72 92
64 78 100
59 73 94
64 79 101
63 77 99
62 76 97
61 75 96
64 79 101
58 72 93
62 76 98
61 76 98
82 99 123
190 216 255
190 216 255
190 216 255
190 216 255
190 216 255
190 216 255
190 216 255
190 216 255
190 216 255
190 216 255
190 216 255
190 216 255
190 216 255
190 216 255
190 216 255
190 216 255
190 216 255
190 216 255
190 216 255
190 216 255
190 216 255
190 216 255
190 216 255
190 216 255
190 216 255
190 216 255
190 216 255
190 216 255
190 216 255
190 216 255
190 216 255
190 216 255
190 216 255
190 216 255
190 216 255
190 216 255
190 216 255
190 216 255
190 216 255
190 216 255
190 216 255
190 216 255
190 216 255
190 216 255
190 216 255
190 216 255
190 216 255
190 216 255
190 216 255
190 216 255
190 216 255
190 216 255
190 216 255
190 216 255
190 216 255
190 216 255
190 216 255
190 216 255
190 216 255
190 216 255
190 216 255
190 216 255
190 216 255
190 216 255
190 216 255
190 216 255
190 216 255
190 216 255
190 216 255
190 216 255
190 216 255
190 216 255
190 216 255
190 216 255
190 216 255
190 216 255
190 216 255
190 216 255
190 216 255
190 216 255
190 216 255
190 216 255
190 216 255
190 216 255
190 216 255
190 216 255
190 216 255
190 216 255
190 216 255
190 216 255
190 216 255
190 216 255
190 216 255
190 216 255
190 216 255
190 216 255
190 216 255
190 216 255
190 216 255
190 216 255
190 216 255
190 216 255
190 216 255
190 216 255
190 216 255
190 216 255
190 216 255
190 216 255
190 216 255
190 216 255
190 216 255
190 216 255
190 216 255
190 216 255
190 216 255
190 216 255
190 216 255
190 216 255
190 216 255
190 216 255
190 216 255
190 216 255
190 216 255
190 216 255
190 216 255
190 216 255
190 216 255
190 216 255
190 216 255
190 216 255
190 216 255
190 216 255
190 216 255
190 216 255
190 216 255
191 217 255
191 217 255
191 217 255
191 217 255
191 217 255
191 217 255
191 217 255
191 217 255
191 217 255
191 217 255
191 217 255
191 217 255
191 217 255
191 217 255
191 217 255
191 217 255
191 217 255
191 217 255
191 217 255
191 217 255
191 217 255
191 217 255
191 217 255
191 217 255
191 217 255
191 217 255
191 217 255
191 217 255
191 217 255
191 217 255
191 217 255
191 217 255
191 217 255
191 217 255
191 217 255
191 217 255
191 217 255
191 217 255
191 217 255
191 217 255
191 217 255
191 217 255
190 216 255
191 217 255
190 216 255
191 217 255
190 216 255
190 216 255
190 216 255
190 216 255
190 216 255
190 216 255
190 216 255
190 216 255
190 216 255
190 216 255
190 216 255
190 216 255
190 216 255
190 216 255
190 216 255
190 216 255
190 216 255
190 216 255
190 216 255
190 216 255
190 216 255
190 216 255
190 216 255
190 216 255
190 216 255
190 216 255
190 216 255
190 216 255
190 216 255
190 216 255
190 216 255
190 216 255
190 216 255
190 216 255
190 216 255
190 216 255
190 216 255
190 216 255
190 216 255
190 216 255
190 216 255
190 216 255
190 216 255
190 216 255
190 216 255
190 216 255
190 216 255
190 216 255
190 216 255
190 216 255
190 216 255
190 216 255
190 216 255
190 216 255
190 216 255
190 216 255
190 216 255
190 216 255
190 216 255
190 216 255
190 216 255
190 216 255
190 216 255
190 216 255
190 216 255
190 216 255
190 216 255
190 216 255
190 216 255
190 216 255
190 216 255
190 216 255
190 216 255
190 216 255
190 216 255
190 216 255
190 216 255
190 216 255
190 216 255
190 216 255
190 216 255
190 216 255
190 216 255
190 216 255
190 216 255
190 216 255
190 216 255
190 216 255
190 216 255
75 90 112
63 78 100
62 76 98
62 77 99
60 74 95
59 73 94
64 80 103
59 73 92
63 78 100
63 78 101
63 78 100
60 75 97
59 74 97
58 73 95
64 79 102
63 78 100
64 79 101
64 80 102
62 76 96
65 80 102
62 78 101
64 78 101
61 75 97
60 74 95
59 73 95
60 74 95
64 79 102
64 78 99
59 73 94
58 71 90
61 75 96
61 75 97
61 75 96
63 77 98
63 77 98
61 76 98
61 75 97
64 79 102
56 69 90
61 76 97
61 75 95
61 75 96
59 73 94
63 78 100
59 73 93
58 72 93
63 78 101
63 77 98
59 73 95
57 71 91
63 77 97
61 76 97
61 75 96
59 72 93
63 78 100
65 79 100
58 72 92
59 73 94
64 80 103
63 78 99
60 74 96
65 80 102
60 74 94
60 73 94
66 82 105
61 74 94
62 76 98
62 76 98
58 72 93
61 76 98
60 74 95
63 78 100
57 70 90
62 76 97
60 73 94
61 75 96
62 77 99
62 77 99
65 79 101
59 72 92
59 74 96
64 80 103
62 76 97
61 76 98
63 77 98
59 74 96
66 81 104
58 72 92
61 76 99
61 76 98
63 78 101
62 76 97
66 80 101
60 74 96
63 78 101
64 79 101
59 72 93
63 77 97
64 79 101
59 73 94
62 76 97
64 79 101
64 78 100
58 72 95
62 77 100
64 78 99
66 82 105
61 76 98
64 79 101
63 78 99
65 79 100
62 76 97
60 74 96
63 78 100
57 70 90
59 73 95
63 77 99
61 75 97
61 75 96
66 80 103
59 72 92
63 77 98
65 79 101
62 77 98
62 76 98
62 76 97
67 82 104
64 78 100
60 74 96
76 91 115
190 216 255
190 216 255
190 216 255
190 216 255
190 216 255
190 216 255
190 216 255
190 216 255
190 216 255
190 216 255
190 216 255
190 216 255
190 216 255
190 216 255
190 216 255
190 216 255
190 216 255
190 216 255
190 216 255
190 216 255
190 216 255
190 216 255
190 216 255
190 216 255
190 216 255
190 216 255
190 216 255
190 216 255
190 216 255
190 216 255
190 216 255
190 216 255
190 216 255
190 216 255
190 216 255
190 216 255
190 216 255
190 216 255
190 216 255
190 216 255
190 216 255
190 216 255
190 216 255
190 216 255
190 216 255
190 216 255
190 216 255
190 216 255
190 216 255
190 216 255
190 216 255
190 216 255
190 216 255
190 216 255
190 216 255
190 216 255
190 216 255
190 216 255
190 216 255
190 216 255
190 216 255
190 216 255
190 216 255
190 216 255
190 216 255
190 216 255
190 216 255
190 216 255
190 216 255
190 216 255
190 216 255
190 216 255
190 216 255
190 216 255
190 216 255
190 216 255
190 216 255
190 216 255
190 216 255
190 216 255
190 216 255
190 216 255
190 216 255
190 216 255
190 216 255
190 216 255
190 216 255
190 216 255
190 216 255
190 216 255
190 216 255
190 216 255
190 216 255
191 217 255
191 217 255
191 217 255
191 217 255
191 217 255
191 217 255
191 217 255
191 217 255
191 217 255
191 217 255
191 217 255
191 217 255
191 217 255
191 217 255
191 217 255
191 217 255
191 217 255
191 217 255
191 217 255
191 217 255
191 217 255
191 217 255
191 217 255
191 217 255
191 217 255
191 217 255
191 217 255
191 217 255
191 217 255
191 217 255
191 217 255
191 217 255
191 217 255
191 217 255
191 217 255
191 217 255
191 217 255
191 217 255
191 217 255
191 217 255
191 217 255
191 217 255
191 217 255
191 217 255
191 217 255
191 217 255
191 217 255
191 217 255
191 217 255
191 217 255
191 217 255
191 217 255
191 217 255
191 217 255
191 217 255
191 217 255
191 217 255
191 217 255
191 217 255
191 217 255
191 217 255
191 217 255
191 217 255
191 217 255
191 217 255
191 217 255
191 217 255
191 217 255
191 217 255
191 217 255
191 217 255
191 217 255
191 217 255
191 217 255
191 217 255
191 217 255
191 217 255
191 217 255
191 217 255
191 217 255
191 217 255
191 217 255
191 217 255
191 217 255
191 217 255
191 217 255
191 217 255
191 217 255
191 217 255
191 217 255
191 217 255
191 217 255
191 217 255
191 217 255
191 217 255
191 217 255
191 217 255
191 217 255
191 217 255
191 217 255
191 217 255
191 217 255
191 217 255
191 217 255
191 217 255
191 217 255
191 217 255
191 217 255
191 217 255
191 217 255
191 217 255
191 217 255
191 217 255
191 217 255
191 217 255
191 217 255
191 217 255
191 217 255
191 217 255
191 217 255
191 217 255
191 217 255
191 217 255
191 217 255
191 217 255
191 217 255
191 217 255
191 217 255
191 217 255
191 217 255
191 217 255
191 217 255
191 217 255
191 217 255
191 217 255
191 217 255
191 217 255
191 217 255
191 217 255
191 217 255
191 217 255
191 217 255
191 217 255
191 217 255
191 217 255
191 217 255
191 217 255
191 217 255
191 217 255
191 217 255
191 217 255
191 217 255
191 217 255
191 217 255
191 217 255
191 217 255
191 217 255
191 217 255
191 217 255
191 217 255
191 217 255
191 217 255
191 217 255
191 217 255
191 217 255
191 217 255
191 217 255
191 217 255
191 217 255
191 217 255
191 217 255
191 217 255
191 217 255
191 217 255
191 217 255
191 217 255
191 217 255
72 87 110
61 76 97
65 80 102
65 79 101
57 71 92
62 76 97
61 76 99
63 78 100
59 73 94
56 69 89
59 73 94
60 74 94
61 74 95
59 73 94
59 73 94
57 70 90
59 73 94
62 76 96
61 75 97
62 76 97
63 78 99
62 76 97
66 81 103
58 73 96
65 79 100
62 77 99
56 71 92
63 76 97
62 77 100
63 78 100
61 76 97
60 75 97
66 81 104
65 80 103
61 74 93
59 74 98
60 74 94
62 77 99
62 76 97
66 81 104
62 78 101
57 71 92
57 70 89
60 75 97
64 78 100
60 74 95
61 76 99
62 77 99
58 72 93
63 78 101
65 80 102
61 74 95
61 75 95
63 78 100
57 72 93
57 71 91
61 75 96
61 76 99
61 75 97
63 78 100
60 73 94
60 73 94
60 73 94
63 77 99
59 74 95
59 72 93
61 75 96
64 79 101
63 78 100
61 76 98
62 77 98
60 75 98
62 76 97
61 74 94
63 78 100
62 77 99
59 73 94
59 74 96
68 82 104
61 74 94
61 75 97
62 76 98
61 74 94
58 71 92
62 75 95
59 73 94
64 78 101
63 78 101
60 75 96
62 77 100
59 73 95
60 74 95
61 75 97
59 74 96
62 77 99
62 77 98
62 77 100
58 73 94
59 73 94
60 73 93
64 78 99
61 75 97
60 73 93
60 74 96
65 79 100
64 78 100
63 77 98
66 80 102
63 78 101
64 78 99
61 76 99
60 75 97
61 76 99
58 72 92
58 72 93
61 75 96
60 74 95
62 77 99
60 74 96
60 74 94
56 70 89
64 78 100
63 78 100
60 74 94
63 77 99
61 76 98
60 75 98
65 80 102
61 77 100
74 90 115
191 217 255
191 217 255
190 216 255
191 217 255
191 217 255
191 217 255
191 217 255
191 217 255
191 217 255
191 217 255
191 217 255
191 217 255
191 217 255
191 217 255
191 217 255
191 217 255
191 217 255
191 217 255
191 217 255
191 217 255
191 217 255
191 217 255
191 217 255
191 217 255
191 217 255
191 217 255
191 217 255
191 217 255
191 217 255
191 217 255
191 217 255
191 217 255
191 217 255
191 217 255
191 217 255
191 217 255
191 217 255
191 217 255
191 217 255
191 217 255
191 217 255
191 217 255
191 217 255
191 217 255
191 217 255
191 217 255
191 217 255
191 217 255
191 217 255
191 217 255
191 217 255
191 217 255
191 217 255
191 217 255
191 217 255
191 217 255
191 217 255
191 217 255
191 217 255
191 217 255
191 217 255
191 217 255
191 217 255
191 217 255
191 217 255
191 217 255
191 217 255
191 217 255
191 217 255
191 217 255
191 217 255
191 217 255
191 217 255
191 217 255
191 217 255
191 217 255
191 217 255
191 217 255
191 217 255
191 217 255
191 217 255
191 217 255
191 217 255
191 217 255
191 217 255
191 217 255
191 217 255
191 217 255
191 217 255
191 217 255
191 217 255
191 217 255
191 217 255
191 217 255
191 217 255
191 217 255
191 217 255
191 217 255
191 217 255
191 217 255
191 217 255
191 217 255
191 217 255
191 217 255
191 217 255
191 217 255
191 217 255
191 217 255
191 217 255
191 217 255
191 217 255
191 217 255
191 217 255
191 217 255
191 217 255
191 217 255
191 217 255
191 217 255
191 217 255
191 217 255
191 217 255
191 217 255
191 217 255
191 217 255
191 217 255
191 217 255
191 217 255
191 217 255
191 217 255
191 217 255
191 217 255
191 217 255
191 217 255
191 217 255
191 217 255
191 217 255
191 217 255
191 217 255
191 217 255
191 217 255
191 217 255
191 217 255
191 217 255
191 217 255
191 217 255
191 217 255
191 217 255
191 217 255
191 217 255
191 217 255
191 217 255
191 217 255
191 217 255
191 217 255
191 217 255
191 217 255
191 217 255
191 217 255
191 217 255
191 217 255
191 217 255
191 217 255
191 217 255
191 217 255
191 217 255
191 217 255
191 217 255
191 217 255
191 217 255
191 217 255
191 217 255
191 217 255
191 217 255
191 217 255
191 217 255
191 217 255
191 217 255
191 217 255
191 217 255
191 217 255
191 217 255
191 217 255
191 217 255
191 217 255
191 217 255
191 217 255
191 217 255
191 217 255
191 217 255
191 217 255
191 217 255
191 217 255
191 217 255
191 217 255
191 217 255
191 217 255
191 217 255
191 217 255
191 217 255
191 217 255
191 217 255
191 217 255
191 217 255
191 217 255
191 217 255
191 217 255
191 217 255
191 217 255
191 217 255
191 217 255
191 217 255
191 217 255
191 217 255
191 217 255
191 217 255
191 217 255
191 217 255
191 217 255
191 217 255
191 217 255
191 217 255
191 217 255
191 217 255
191 217 255
191 217 255
191 217 255
191 217 255
191 217 255
191 217 255
191 217 255
191 217 255
191 217 255
191 217 255
191 217 255
191 217 255
191 217 255
191 217 255
191 217 255
191 217 255
191 217 255
191 217 255
191 217 255
191 217 255
191 217 255
191 217 255
191 217 255
191 217 255
191 217 255
191 217 255
191 217 255
191 217 255
191 217 255
191 217 255
191 217 255
191 217 255
191 217 255
191 217 255
191 217 255
191 217 255
191 217 255
191 217 255
191 217 255
191 217 255
191 217 255
191 217 255
191 217 255
191 217 255
191 217 255
191 217 255
191 217 255
70 86 109
63 78 99
55 68 87
64 78 100
56 70 89
66 80 101
60 75 96
59 73 94
60 74 95
59 72 91
59 73 93
69 84 107
66 81 102
66 82 106
59 73 94
61 74 94
61 75 95
65 80 103
64 78 100
60 74 96
61 76 98
61 75 96
65 79 100
58 73 94
61 75 97
63 77 98
59 73 95
63 77 99
62 76 97
58 71 91
63 78 100
60 74 95
60 75 96
59 73 93
65 81 104
57 70 90
61 75 95
63 78 100
63 78 100
61 75 97
62 75 96
62 77 99
61 76 99
62 76 98
60 74 95
66 82 105
62 76 97
58 71 91
60 74 96
65 80 103
62 75 96
62 78 101
61 75 97
60 73 94
67 82 105
66 82 105
63 77 98
62 77 100
63 77 98
64 78 100
60 75 96
57 71 92
62 75 96
60 74 96
67 82 104
60 75 97
58 72 93
59 73 94
60 75 96
61 75 97
56 70 90
59 73 94
62 77 100
62 77 98
62 76 98
62 76 98
62 76 98
62 76 98
63 77 98
57 71 92
57 71 91
62 78 100
65 80 104
61 74 95
57 70 90
60 74 96
62 76 98
62 76 98
62 77 99
61 75 96
62 77 99
61 75 97
61 74 94
58 72 93
62 75 96
63 77 99
60 74 94
63 76 97
62 76 97
57 70 90
62 76 97
63 77 97
61 75 96
58 71 92
61 76 97
61 76 97
61 76 99
65 80 103
62 76 97
62 76 97
65 79 101
60 74 96
64 78 100
64 79 100
65 80 102
63 78 100
61 75 96
59 74 95
57 71 91
64 78 99
64 79 101
62 76 97
64 78 99
60 74 95
60 75 96
68 83 107
60 75 98
60 74 96
63 78 101
69 84 106
191 217 255
191 217 255
191 217 255
191 217 255
191 217 255
191 217 255
191 217 255
191 217 255
191 217 255
191 217 255
191 217 255
191 217 255
191 217 255
191 217 255
191 217 255
191 217 255
191 217 255
191 217 255
191 217 255
191 217 255
191 217 255
191 217 255
191 217 255
191 217 255
191 217 255
191 217 255
191 217 255
191 217 255
191 217 255
191 217 255
191 217 255
191 217 255
191 217 255
191 217 255
191 217 255
191 217 255
191 217 255
191 217 255
191 217 255
191 217 255
191 217 255
191 217 255
191 217 255
191 217 255
191 217 255
191 217 255
191 217 255
191 217 255
191 217 255
191 217 255
191 217 255
191 217 255
191 217 255
191 217 255
191 217 255
191 217 255
191 217 255
191 217 255
191 217 255
191 217 255
191 217 255
191 217 255
191 217 255
191 217 255
191 217 255
191 217 255
191 217 255
191 217 255
191 217 255
191 217 255
191 217 255
191 217 255
191 217 255
191 217 255
191 217 255
191 217 255
191 217 255
191 217 255
191 217 255
191 217 255
191 217 255
191 217 255
191 217 255
191 217 255
191 217 255
191 217 255
191 217 255
191 217 255
191 217 255
191 217 255
191 217 255
191 217 255
191 217 255
191 217 255
191 217 255
191 217 255
191 217 255
191 217 255
191 217 255
191 217 255
191 217 255
191 217 255
191 217 255
191 217 255
191 217 255
191 217 255
191 217 255
191 217 255
191 217 255
191 217 255
191 217 255
191 217 255
191 217 255
191 217 255
191 217 255
191 217 255
191 217 255
191 217 255
191 217 255
191 217 255
191 217 255
191 217 255
191 217 255
191 217 255
191 217 255
191 217 255
191 217 255
191 217 255
191 217 255
191 217 255
191 217 255
191 217 255
191 217 255
191 217 255
191 217 255
192 217 255
192 217 255
191 217 255
192 217 255
191 217 255
192 217 255
191 217 255
191 217 255
191 217 255
192 217 255
191 217 255
191 217 255
191 217 255
192 217 255
192 217 255
191 217 255
192 217 255
191 217 255
191 217 255
191 217 255
191 217 255
192 217 255
192 217 255
192 217 255
192 217 255
192 217 255
192 217 255
191 217 255
191 217 255
191 217 255
192 217 255
192 217 255
192 217 255
191 217 255
191 217 255
191 217 255
191 217 255
191 217 255
191 217 255
191 217 255
192 217 255
191 217 255
192 217 255
191 217 255
191 217 255
192 217 255
192 217 255
191 217 255
191 217 255
191 217 255
192 217 255
192 217 255
191 217 255
192 217 255
192 217 255
192 217 255
191 217 255
191 217 255
192 217 255
191 217 255
192 217 255
192 217 255
191 217 255
191 217 255
191 217 255
192 217 255
191 217 255
192 217 255
192 217 255
191 217 255
192 217 255
192 217 255
191 217 255
192 217 255
192 217 255
191 217 255
192 217 255
192 217 255
192 217 255
192 217 255
192 217 255
192 217 255
191 217 255
191 217 255
192 217 255
191 217 255
191 217 255
192 217 255
191 217 255
192 217 255
192 217 255
192 217 255
192 217 255
192 217 255
191 217 255
192 217 255
192 217 255
191 217 255
192 217 255
192 217 255
191 217 255
191 217 255
191 217 255
191 217 255
192 217 255
191 217 255
192 217 255
192 217 255
191 217 255
191 217 255
191 217 255
192 217 255
191 217 255
191 217 255
191 217 255
192 217 255
192 217 255
191 217 255
191 217 255
192 217 255
191 217 255
191 217 255
191 217 255
192 217 255
191 217 255
192 217 255
191 217 255
191 217 255
191 217 255
192 217 255
192 217 255
192 217 255
191 217 255
192 217 255
191 217 255
67 83 105
63 79 103
61 75 96
55 69 90
62 77 100
62 76 97
63 77 99
65 79 101
64 78 99
56 69 89
60 74 95
62 76 98
63 77 99
64 79 101
62 76 97
60 74 94
65 80 103
56 69 88
61 75 97
62 77 100
61 77 100
64 79 101
60 73 93
62 76 98
59 73 94
62 75 96
59 74 96
59 73 92
66 81 104
66 82 105
64 78 101
60 75 97
65 81 104
64 79 101
59 74 95
65 80 103
60 75 97
57 70 90
62 78 100
61 76 98
57 71 92
61 75 97
60 73 93
63 78 100
63 77 98
63 77 99
63 77 98
58 72 94
61 75 96
59 73 94
64 79 103
64 79 101
60 74 95
59 73 94
64 78 98
58 71 91
63 77 99
62 76 97
64 78 100
64 79 101
60 75 96
60 74 94
62 77 99
60 75 96
63 78 99
59 72 93
61 76 98
61 75 97
64 78 99
56 69 89
60 74 96
57 70 91
61 75 96
61 76 97
64 79 102
61 75 96
57 71 92
63 78 100
61 75 95
60 74 95
63 76 97
62 77 100
61 76 97
62 76 98
58 72 93
62 77 100
62 76 98
63 78 99
59 73 94
59 74 95
60 74 95
62 76 97
57 71 92
64 79 102
63 77 98
66 82 105
60 73 93
57 71 91
61 75 98
63 77 99
60 73 94
63 78 101
63 78 100
60 74 96
60 74 96
61 76 97
65 79 101
61 75 95
60 74 96
61 75 96
67 82 106
61 76 97
64 79 101
61 77 99
60 74 95
60 73 92
61 75 97
59 72 92
60 74 94
61 75 96
65 81 104
61 76 97
57 70 91
60 75 97
61 75 96
61 76 98
63 77 98
66 82 104
61 75 96
69 84 106
192 217 255
191 217 255
192 217 255
191 217 255
192 217 255
191 217 255
191 217 255
192 217 255
192 217 255
192 217 255
192 217 255
191 217 255
192 217 255
192 217 255
192 217 255
191 217 255
192 217 255
192 217 255
191 217 255
191 217 255
192 217 255
191 217 255
191 217 255
192 217 255
191 217 255
192 217 255
191 217 255
192 217 255
191 217 255
191 217 255
191 217 255
191 217 255
191 217 255
192 217 255
191 217 255
191 217 255
191 217 255
192 217 255
192 217 255
191 217 255
191 217 255
191 217 255
192 217 255
192 217 255
192 217 255
192 217 255
192 217 255
191 217 255
191 217 255
191 217 255
191 217 255
192 217 255
191 217 255
191 217 255
191 217 255
191 217 255
192 217 255
191 217 255
191 217 255
192 217 255
191 217 255
192 217 255
191 217 255
191 217 255
191 217 255
191 217 255
191 217 255
192 217 255
191 217 255
191 217 255
191 217 255
192 217 255
192 217 255
192 217 255
191 217 255
191 217 255
191 217 255
191 217 255
192 217 255
192 217 255
192 217 255
192 217 255
191 217 255
192 217 255
191 217 255
192 217 255
191 217 255
192 217 255
192 217 255
191 217 255
192 217 255
192 217 255
192 217 255
192 217 255
191 217 255
192 217 255
191 217 255
191 217 255
192 217 255
191 217 255
191 217 255
191 217 255
191 217 255
192 217 255
191 217 255
191 217 255
191 217 255
191 217 255
191 217 255
192 217 255
192 217 255
192 217 255
192 217 255
192 217 255
191 217 255
191 217 255
192 217 255
191 217 255
191 217 255
191 217 255
191 217 255
191 217 255
192 217 255
192 217 255
192 217 255
191 217 255
192 217 255
191 217 255
192 217 255
192 217 255
192 217 255
192 217 255
191 217 255
191 217 255
191 217 255
192 217 255
192 217 255
192 217 255
192 217 255
192 217 255
192 217 255
192 217 255
192 217 255
192 217 255
192 217 255
192 217 255
192 217 255
192 217 255
192 217 255
192 217 255
192 217 255
192 217 255
192 217 255
192 217 255
192 217 255
192 217 255
192 217 255
192 217 255
192 217 255
192 217 255
192 217 255
192 217 255
192 217 255
192 217 255
192 217 255
192 217 255
192 217 255
192 217 255
192 217 255
192 217 255
192 217 255
192 217 255
192 217 255
192 217 255
192 217 255
192 217 255
192 217 255
192 217 255
192 217 255
192 217 255
192 217 255
192 217 255
192 217 255
192 217 255
192 217 255
192 217 255
192 217 255
192 217 255
192 217 255
192 217 255
192 217 255
192 217 255
192 217 255
192 217 255
192 217 255
192 217 255
192 217 255
192 217 255
192 217 255
192 217 255
192 217 255
192 217 255
192 217 255
192 217 255
192 217 255
192 217 255
192 217 255
192 217 255
192 217 255
192 217 255
192 217 255
192 217 255
192 217 255
192 217 255
192 217 255
192 217 255
192 217 255
192 217 255
192 217 255
192 217 255
192 217 255
192 217 255
192 217 255
192 217 255
192 217 255
192 217 255
192 217 255
192 217 255
192 217 255
192 217 255
192 217 255
192 217 255
192 217 255
192 217 255
192 217 255
192 217 255
192 217 255
192 217 255
192 217 255
192 217 255
192 217 255
192 217 255
192 217 255
192 217 255
192 217 255
192 217 255
192 217 255
192 217 255
192 217 255
192 217 255
192 217 255
192 217 255
192 217 255
192 217 255
192 217 255
192 217 255
192 217 255
192 217 255
192 217 255
192 217 255
192 217 255
192 217 255
192 217 255
192 217 255
192 217 255
192 217 255
192 217 255
192 217 255
192 217 255
192 217 255
66 81 103
62 76 98
59 73 95
61 75 97
65 80 102
61 75 97
60 74 95
64 79 102
62 77 100
60 74 95
61 76 98
59 73 94
63 77 99
60 74 95
59 72 92
62 76 98
60 74 96
61 75 96
60 74 95
61 74 95
60 74 93
55 68 89
61 75 97
53 66 85
62 77 100
59 74 95
63 77 99
59 73 93
62 77 98
58 72 92
58 72 93
59 73 95
62 76 97
59 72 92
58 72 94
64 79 101
61 76 98
62 75 96
63 77 98
60 73 94
62 76 97
60 74 94
62 76 97
62 77 99
59 74 95
59 74 96
60 74 95
60 75 97
63 77 98
64 79 101
59 73 94
61 75 96
57 72 94
58 72 93
64 78 100
60 74 96
59 72 93
63 77 100
59 72 92
60 75 97
59 73 95
62 77 99
63 78 100
61 76 97
65 80 103
61 75 96
62 77 101
63 78 100
63 77 97
68 83 106
67 83 105
64 78 99
65 79 101
61 75 96
61 74 94
57 70 89
60 74 95
60 74 96
59 72 92
59 73 94
62 76 98
62 76 98
61 75 97
65 79 101
59 73 93
58 72 92
60 75 98
56 68 88
58 72 93
57 70 90
65 80 103
59 73 93
60 74 94
61 76 97
59 73 94
58 72 92
65 80 103
58 72 92
64 78 99
59 73 94
58 72 93
62 76 97
61 76 97
64 78 100
65 80 102
60 74 95
62 76 99
62 76 98
61 76 99
61 76 97
57 71 92
62 77 98
64 78 100
61 75 96
59 72 92
61 75 96
63 78 100
57 71 91
64 79 102
58 71 92
63 77 99
56 70 90
63 77 98
60 74 96
61 74 94
62 76 98
59 72 93
63 78 100
61 76 97
68 82 103
192 217 255
192 217 255
192 217 255
192 217 255
192 217 255
192 217 255
192 217 255
192 217 255
192 217 255
192 217 255
192 217 255
192 217 255
192 217 255
192 217 255
192 217 255
192 217 255
192 217 255
192 217 255
192 217 255
192 217 255
192 217 255
192 217 255
192 217 255
192 217 255
192 217 255
192 217 255
192 217 255
192 217 255
192 217 255
192 217 255
192 217 255
192 217 255
192 217 255
192 217 255
192 217 255
192 217 255
192 217 255
192 217 255
192 217 255
192 217 255
192 217 255
192 217 255
192 217 255
192 217 255
192 217 255
192 217 255
192 217 255
192 217 255
192 217 255
192 217 255
192 217 255
192 217 255
192 217 255
192 217 255
192 217 255
192 217 255
192 217 255
192 217 255
192 217 255
192 217 255
192 217 255
192 217 255
192 217 255
192 217 255
192 217 255
192 217 255
192 217 255
192 217 255
192 217 255
192 217 255
192 217 255
192 217 255
192 217 255
192 217 255
192 217 255
192 217 255
192 217 255
192 217 255
192 217 255
192 217 255
192 217 255
192 217 255
192 217 255
192 217 255
192 217 255
192 217 255
192 217 255
192 217 255
192 217 255
192 217 255
192 217 255
192 217 255
192 217 255
192 217 255
192 217 255
192 217 255
192 217 255
192 217 255
192 217 255
192 217 255
192 217 255
192 217 255
192 217 255
192 217 255
192 217 255
192 217 255
192 217 255
192 217 255
192 217 255
192 217 255
192 217 255
192 217 255
192 217 255
192 217 255
192 217 255
192 217 255
192 217 255
192 217 255
192 217 255
192 217 255
192 217 255
192 217 255
192 217 255
192 217 255
192 217 255
192 217 255
192 217 255
192 217 255
192 217 255
192 217 255
192 217 255
192 217 255
192 217 255
192 217 255
192 217 255
192 217 255
192 217 255
192 217 255
192 217 255
192 217 255
192 217 255
192 217 255
192 217 255
192 217 255
192 217 255
192 217 255
192 217 255
192 217 255
192 217 255
192 217 255
192 217 255
192 217 255
192 217 255
192 217 255
192 217 255
192 217 255
192 217 255
192 217 255
192 217 255
192 217 255
192 217 255
192 217 255
192 217 255
192 217 255
192 217 255
192 217 255
192 217 255
192 217 255
192 217 255
192 217 255
192 217 255
192 217 255
192 217 255
192 217 255
192 217 255
192 217 255
192 217 255
192 217 255
192 217 255
192 218 255
192 218 255
192 218 255
192 217 255
192 218 255
192 218 255
192 218 255
192 218 255
192 218 255
192 218 255
192 218 255
192 218 255
192 218 255
192 218 255
192 218 255
192 218 255
192 218 255
192 218 255
192 218 255
192 218 255
192 218 255
192 218 255
192 218 255
192 218 255
192 218 255
192 218 255
192 218 255
192 218 255
192 218 255
192 218 255
192 218 255
192 218 255
192 218 255
192 218 255
192 218 255
192 218 255
192 218 255
192 218 255
192 218 255
192 218 255
192 218 255
192 218 255
192 218 255
192 218 255
192 218 255
192 218 255
192 218 255
192 218 255
192 218 255
192 218 255
192 218 255
192 218 255
192 218 255
192 218 255
192 218 255
192 218 255
192 218 255
192 218 255
192 218 255
192 218 255
192 218 255
192 218 255
192 218 255
192 218 255
192 218 255
192 218 255
192 218 255
192 218 255
192 218 255
192 218 255
192 218 255
192 218 255
192 218 255
192 218 255
192 218 255
192 218 255
192 218 255
192 218 255
192 218 255
192 218 255
192 218 255
192 218 255
192 218 255
192 218 255
192 218 255
192 218 255
192 218 255
192 218 255
192 218 255
192 218 255
192 218 255
74 90 114
66 81 103
65 80 102
66 81 103
61 76 98
60 74 94
63 77 99
60 74 96
58 71 91
60 74 95
64 78 100
60 74 95
65 80 102
64 78 100
59 72 93
64 79 102
63 78 100
60 73 93
61 76 98
61 74 95
60 74 94
62 76 97
57 70 90
60 74 94
59 73 94
58 72 93
63 78 102
61 75 97
63 77 100
55 68 88
62 77 98
59 73 93
62 76 98
60 74 94
53 65 84
65 79 100
64 79 101
61 75 96
59 73 94
65 80 101
63 77 97
61 76 97
62 76 96
62 77 98
64 79 101
57 71 90
60 74 95
65 80 102
64 77 98
65 80 102
62 77 99
59 72 92
61 76 98
63 78 100
62 76 97
64 78 100
62 76 97
64 79 101
64 78 101
59 73 94
63 77 99
59 72 92
60 76 98
62 76 98
61 75 97
61 75 97
59 73 93
65 80 102
66 81 104
57 72 94
56 69 89
58 73 95
61 74 94
60 73 93
59 72 90
61 75 96
57 70 91
62 76 98
61 76 98
63 77 98
58 72 93
63 78 99
60 73 94
61 76 97
62 78 103
57 71 92
60 73 93
59 73 94
61 76 98
58 71 91
61 75 95
61 76 97
62 76 98
62 77 99
60 74 94
60 75 97
60 75 96
59 73 93
64 80 103
60 72 92
62 77 100
61 75 95
64 80 102
58 72 92
58 71 92
65 79 101
64 79 102
60 75 97
61 75 96
60 74 94
60 75 96
63 77 98
67 83 105
61 75 97
67 83 106
55 69 89
63 78 101
61 76 98
64 79 102
61 74 94
61 75 98
64 79 102
59 73 95
59 73 95
61 75 96
61 75 96
61 75 95
60 74 96
62 76 97
79 95 118
193 218 255
192 218 255
192 218 255
192 218 255
192 218 255
192 218 255
192 218 255
192 218 255
192 218 255
192 218 255
192 218 255
192 218 255
192 218 255
192 218 255
192 218 255
192 218 255
192 218 255
192 218 255
192 218 255
192 218 255
192 218 255
192 218 255
192 218 255
192 218 255
192 218 255
192 218 255
192 218 255
192 218 255
192 218 255
192 218 255
192 218 255
192 218 255
192 218 255
192 218 255
192 218 255
192 218 255
192 218 255
192 218 255
192 218 255
192 218 255
192 218 255
192 218 255
192 218 255
192 218 255
192 218 255
192 218 255
192 218 255
192 218 255
192 218 255
192 218 255
192 218 255
192 218 255
192 218 255
192 218 255
192 218 255
192 218 255
192 218 255
192 218 255
192 218 255
192 218 255
192 218 255
192 218 255
192 218 255
192 218 255
192 218 255
192 218 255
192 218 255
192 218 255
192 218 255
192 218 255
192 218 255
192 218 255
192 218 255
192 218 255
192 218 255
192 218 255
192 218 255
192 218 255
192 218 255
192 218 255
192 218 255
192 218 255
192 218 255
192 218 255
192 218 255
192 218 255
192 218 255
192 218 255
192 218 255
192 217 255
192 217 255
192 217 255
192 218 255
192 217 255
192 217 255
192 217 255
192 217 255
192 217 255
192 217 255
192 217 255
192 217 255
192 217 255
192 217 255
192 217 255
192 217 255
192 217 255
192 217 255
192 217 255
192 217 255
192 217 255
192 217 255
192 217 255
192 217 255
192 217 255
192 217 255
192 217 255
192 217 255
192 217 255
192 217 255
192 217 255
192 217 255
192 217 255
192 217 255
192 217 255
192 217 255
192 217 255
192 217 255
192 217 255
192 217 255
192 217 255
192 217 255
192 217 255
192 217 255
192 217 255
192 217 255
192 218 255
192 218 255
192 218 255
192 218 255
192 218 255
192 218 255
192 218 255
192 218 255
192 218 255
192 218 255
192 218 255
192 218 255
192 218 255
192 218 255
192 218 255
192 218 255
192 218 255
192 218 255
192 218 255
192 218 255
192 218 255
192 218 255
192 218 255
192 218 255
192 218 255
192 218 255
192 218 255
192 218 255
192 218 255
192 218 255
192 218 255
192 218 255
192 218 255
192 218 255
192 218 255
192 218 255
192 218 255
192 218 255
192 218 255
192 218 255
192 218 255
192 218 255
192 218 255
192 218 255
192 218 255
193 218 255
192 218 255
193 218 255
193 218 255
193 218 255
193 218 255
193 218 255
193 218 255
193 218 255
193 218 255
193 218 255
193 218 255
193 218 255
193 218 255
193 218 255
193 218 255
193 218 255
193 218 255
193 218 255
193 218 255
193 218 255
193 218 255
193 218 255
193 218 255
193 218 255
193 218 255
193 218 255
193 218 255
193 218 255
193 218 255
193 218 255
193 218 255
193 218 255
193 218 255
193 218 255
193 218 255
193 218 255
193 218 255
193 218 255
193 218 255
193 218 255
193 218 255
193 218 255
193 218 255
193 218 255
193 218 255
193 218 255
193 218 255
193 218 255
193 218 255
193 218 255
193 218 255
193 218 255
193 218 255
193 218 255
193 218 255
193 218 255
193 218 255
193 218 255
193 218 255
193 218 255
193 218 255
193 218 255
193 218 255
193 218 255
193 218 255
193 218 255
193 218 255
193 218 255
193 218 255
193 218 255
193 218 255
193 218 255
193 218 255
193 218 255
193 218 255
193 218 255
193 218 255
193 218 255
193 218 255
193 218 255
193 218 255
193 218 255
193 218 255
193 218 255
193 218 255
193 218 255
193 218 255
193 218 255
193 218 255
82 97 121
59 73 94
64 78 100
63 78 100
60 74 95
63 77 96
58 72 93
62 76 97
63 77 98
66 81 104
57 71 91
55 68 88
64 78 98
61 75 96
62 75 96
63 78 100
66 81 103
55 68 87
61 74 94
58 71 91
59 74 97
62 77 99
63 77 98
64 79 101
66 81 104
58 71 91
65 80 103
63 77 100
61 75 97
59 73 94
61 74 93
62 77 99
64 78 99
62 75 96
61 75 97
59 73 93
61 75 95
57 70 89
60 74 96
61 75 95
60 74 96
64 78 99
61 76 98
60 74 95
60 74 94
60 75 96
61 75 95
63 77 98
61 75 96
65 80 102
61 75 96
65 80 103
57 71 92
63 77 98
60 73 93
61 75 97
62 77 99
63 77 97
63 77 99
62 76 98
60 74 94
63 77 98
63 77 98
60 74 95
60 75 96
66 81 104
62 76 98
61 74 94
60 74 95
59 73 94
63 77 99
61 75 95
56 70 91
58 72 93
61 75 97
61 75 95
59 74 97
63 77 99
61 76 98
63 77 98
56 70 90
62 76 98
66 80 102
60 73 94
62 76 98
54 68 88
60 74 95
59 73 93
63 77 99
64 78 99
62 76 98
59 73 94
56 69 89
63 78 101
64 78 100
59 73 93
60 74 96
60 75 96
57 71 91
62 76 98
60 74 94
63 77 98
61 75 97
61 75 95
60 74 96
60 75 97
62 76 98
59 73 95
61 76 98
61 75 96
54 67 88
60 75 96
57 70 90
65 81 105
59 74 95
58 71 92
62 75 95
62 77 100
61 76 97
61 76 97
59 73 95
54 67 87
61 75 96
57 70 89
60 74 96
63 77 98
61 74 95
60 75 96
55 68 88
75 90 113
193 218 255
193 218 255
193 218 255
193 218 255
193 218 255
193 218 255
193 218 255
193 218 255
193 218 255
193 218 255
193 218 255
193 218 255
193 218 255
193 218 255
193 218 255
193 218 255
193 218 255
193 218 255
193 218 255
193 218 255
193 218 255
193 218 255
193 218 255
193 218 255
193 218 255
193 218 255
193 218 255
193 218 255
193 218 255
193 218 255
193 218 255
193 218 255
193 218 255
193 218 255
193 218 255
193 218 255
193 218 255
193 218 255
193 218 255
193 218 255
193 218 255
193 218 255
193 218 255
193 218 255
193 218 255
193 218 255
193 218 255
193 218 255
193 218 255
193 218 255
193 218 255
193 218 255
193 218 255
193 218 255
193 218 255
193 218 255
193 218 255
193 218 255
193 218 255
193 218 255
193 218 255
193 218 255
193 218 255
193 218 255
193 218 255
193 218 255
193 218 255
193 218 255
193 218 255
193 218 255
193 218 255
193 218 255
193 218 255
193 218 255
193 218 255
193 218 255
193 218 255
193 218 255
193 218 255
193 218 255
193 218 255
193 218 255
193 218 255
193 218 255
193 218 255
193 218 255
193 218 255
193 218 255
192 218 255
193 218 255
193 218 255
193 218 255
192 218 255
192 218 255
192 218 255
192 218 255
192 218 255
192 218 255
192 218 255
192 218 255
192 218 255
192 218 255
192 218 255
192 218 255
192 218 255
192 218 255
192 218 255
192 218 255
192 218 255
192 218 255
192 218 255
192 218 255
192 218 255
192 218 255
192 218 255
192 218 255
192 218 255
192 218 255
192 218 255
192 218 255
192 218 255
192 218 255
192 218 255
192 218 255
192 218 255
192 218 255
192 218 255
192 218 255
192 218 255
192 218 255
192 218 255
192 218 255
192 218 255
192 218 255
192 218 255
193 218 255
193 218 255
193 218 255
193 218 255
193 218 255
193 218 255
193 218 255
193 218 255
193 218 255
193 218 255
193 218 255
193 218 255
193 218 255
193 218 255
193 218 255
193 218 255
193 218 255
193 218 255
193 218 255
193 218 255
193 218 255
193 218 255
193 218 255
193 218 255
193 218 255
193 218 255
193 218 255
193 218 255
193 218 255
193 218 255
193 218 255
193 218 255
193 218 255
193 218 255
193 218 255
193 218 255
193 218 255
193 218 255
193 218 255
193 218 255
193 218 255
193 218 255
193 218 255
193 218 255
193 218 255
193 218 255
193 218 255
193 218 255
193 218 255
193 218 255
193 218 255
193 218 255
193 218 255
193 218 255
193 218 255
193 218 255
193 218 255
193 218 255
193 218 255
193 218 255
193 218 255
193 218 255
193 218 255
193 218 255
193 218 255
193 218 255
193 218 255
193 218 255
193 218 255
193 218 255
193 218 255
193 218 255
193 218 255
193 218 255
193 218 255
193 218 255
193 218 255
193 218 255
193 218 255
193 218 255
193 218 255
193 218 255
193 218 255
193 218 255
193 218 255
193 218 255
193 218 255
193 218 255
193 218 255
193 218 255
193 218 255
193 218 255
193 218 255
193 218 255
193 218 255
193 218 255
193 218 255
193 218 255
193 218 255
193 218 255
193 218 255
193 218 255
193 218 255
193 218 255
193 218 255
193 218 255
193 218 255
193 218 255
193 218 255
193 218 255
193 218 255
193 218 255
193 218 255
193 218 255
193 218 255
193 218 255
193 218 255
193 218 255
193 218 255
193 218 255
193 218 255
193 218 255
193 218 255
193 218 255
193 218 255
193 218 255
193 218 255
193 218 255
193 218 255
193 218 255
193 218 255
193 218 255
193 218 255
193 218 255
193 218 255
80 94 115
60 75 97
63 78 100
65 80 102
60 74 95
61 74 95
60 73 93
63 77 98
58 72 93
61 75 95
58 71 91
62 77 98
64 77 98
60 74 95
61 76 98
59 72 93
62 76 98
55 68 88
60 74 95
56 69 89
65 80 102
57 71 90
67 82 104
59 73 94
59 73 93
61 73 93
61 76 98
61 75 96
59 73 95
57 71 90
61 76 98
56 69 89
62 76 97
62 75 96
60 75 97
62 76 96
57 71 90
58 72 93
59 73 93
65 81 104
62 76 97
60 74 95
59 73 94
62 76 99
62 76 97
62 76 97
59 73 94
64 78 100
61 75 96
59 73 94
58 72 92
62 76 96
64 79 103
64 80 102
64 78 100
60 73 93
61 75 96
59 72 93
60 74 94
59 72 93
57 71 92
60 73 94
65 78 99
59 73 94
58 72 93
62 77 99
60 74 96
61 75 97
62 76 98
58 73 96
60 74 95
62 77 98
60 74 95
59 73 95
59 73 94
63 76 96
58 73 96
58 72 93
55 69 89
60 74 95
64 78 100
64 79 102
64 79 100
58 72 93
61 74 95
60 73 94
60 74 96
64 77 97
60 75 96
60 74 95
60 74 96
60 74 94
62 76 98
60 74 94
62 76 97
63 77 98
61 74 95
57 70 89
61 75 96
61 74 95
60 74 95
61 75 96
64 79 101
61 75 96
63 78 101
63 77 99
65 81 103
66 81 104
56 70 91
61 75 95
68 84 107
59 72 92
59 74 95
60 74 94
60 74 95
59 72 92
60 74 94
62 76 97
64 79 100
58 71 92
55 69 91
65 79 100
61 74 94
60 74 95
58 72 93
61 75 97
58 72 94
62 75 95
61 75 97
87 102 125
193 218 255
193 218 255
193 218 255
193 218 255
193 218 255
193 218 255
193 218 255
193 218 255
193 218 255
193 218 255
193 218 255
193 218 255
193 218 255
193 218 255
193 218 255
193 218 255
193 218 255
193 218 255
193 218 255
193 218 255
193 218 255
193 218 255
193 218 255
193 218 255
193 218 255
193 218 255
193 218 255
193 218 255
193 218 255
193 218 255
193 218 255
193 218 255
193 218 255
193 218 255
193 218 255
193 218 255
193 218 255
193 218 255
193 218 255
193 218 255
193 218 255
193 218 255
193 218 255
193 218 255
193 218 255
193 218 255
193 218 255
193 218 255
193 218 255
193 218 255
193 218 255
193 218 255
193 218 255
193 218 255
193 218 255
193 218 255
193 218 255
193 218 255
193 218 255
193 218 255
193 218 255
193 218 255
193 218 255
193 218 255
193 218 255
193 218 255
193 218 255
193 218 255
193 218 255
193 218 255
193 218 255
193 218 255
193 218 255
193 218 255
193 218 255
193 218 255
193 218 255
193 218 255
193 218 255
193 218 255
193 218 255
193 218 255
193 218 255
193 218 255
193 218 255
193 218 255
193 218 255
193 218 255
193 218 255
193 218 255
193 218 255
193 218 255
193 218 255
193 218 255
193 218 255
193 218 255
193 218 255
193 218 255
193 218 255
193 218 255
193 218 255
193 218 255
193 218 255
193 218 255
193 218 255
193 218 255
193 218 255
193 218 255
193 218 255
193 218 255
193 218 255
193 218 255
193 218 255
193 218 255
193 218 255
193 218 255
193 218 255
193 218 255
193 218 255
193 218 255
193 218 255
193 218 255
193 218 255
193 218 255
193 218 255
193 218 255
193 218 255
193 218 255
193 218 255
193 218 255
193 218 255
193 218 255
193 218 255
193 218 255
193 218 255
193 218 255
193 218 255
193 218 255
193 218 255
193 218 255
193 218 255
193 218 255
193 218 255
193 218 255
193 218 255
193 218 255
193 218 255
193 218 255
193 218 255
193 218 255
193 218 255
193 218 255
193 218 255
193 218 255
193 218 255
193 218 255
193 218 255
193 218 255
193 218 255
193 218 255
193 218 255
193 218 255
193 218 255
193 218 255
193 218 255
193 218 255
193 218 255
193 218 255
193 218 255
193 218 255
193 218 255
193 218 255
193 218 255
193 218 255
193 218 255
193 218 255
193 218 255
193 218 255
193 218 255
193 218 255
193 218 255
193 218 255
193 218 255
193 218 255
193 218 255
193 218 255
193 218 255
193 218 255
193 218 255
193 218 255
193 218 255
193 218 255
193 218 255
193 218 255
193 218 255
193 218 255
193 218 255
193 218 255
193 218 255
193 218 255
193 218 255
193 218 255
193 218 255
193 218 255
193 218 255
193 218 255
193 218 255
193 218 255
193 218 255
193 218 255
193 218 255
193 218 255
193 218 255
193 218 255
193 218 255
193 218 255
193 218 255
193 218 255
193 218 255
193 218 255
193 218 255
193 218 255
194 218 255
194 218 255
194 218 255
194 218 255
194 218 255
194 218 255
194 218 255
194 218 255
194 218 255
194 218 255
194 218 255
194 218 255
194 218 255
194 218 255
194 218 255
194 218 255
194 218 255
194 218 255
194 218 255
194 218 255
194 218 255
194 218 255
194 218 255
194 218 255
194 218 255
194 218 255
194 218 255
194 218 255
194 218 255
194 218 255
194 218 255
194 218 255
194 218 255
194 218 255
194 218 255
194 219 255
194 219 255
194 219 255
194 219 255
194 219 255
194 219 255
194 219 255
194 219 255
194 219 255
194 219 255
194 219 255
194 219 255
194 219 255
92 108 133
63 77 98
58 72 92
60 73 93
58 72 92
60 74 95
58 71 90
60 74 95
55 68 87
61 75 95
59 72 92
63 77 97
61 75 96
64 78 99
59 72 91
62 76 97
58 73 95
62 77 98
59 74 95
61 74 95
61 75 96
61 75 96
61 75 97
61 75 97
59 73 94
60 73 93
60 75 97
63 77 99
63 78 101
53 66 86
63 77 98
62 75 96
60 74 94
61 76 97
67 81 103
63 76 96
59 73 95
59 72 92
57 70 89
63 78 100
56 70 90
63 78 100
63 78 101
64 79 100
57 71 92
58 70 89
61 74 95
59 73 93
63 77 99
62 76 97
59 72 92
59 73 94
60 74 94
64 78 99
66 80 101
60 74 95
57 71 91
60 73 93
64 79 100
61 76 98
59 73 93
59 73 94
59 73 94
58 73 94
65 79 100
58 71 90
61 75 96
59 72 93
60 75 96
63 78 100
58 72 92
64 79 101
58 71 91
58 72 93
62 76 98
62 75 94
56 71 92
60 74 94
62 77 99
66 80 102
64 77 98
63 77 97
58 72 93
63 78 100
68 83 105
60 75 97
61 75 97
61 74 94
59 72 92
58 71 91
60 73 94
61 76 97
59 73 93
61 75 95
60 74 94
59 74 97
60 74 94
59 73 94
62 77 99
64 79 100
56 69 88
67 82 104
57 71 91
59 72 92
58 71 90
62 77 99
61 75 96
58 72 92
63 77 99
57 70 90
61 75 96
64 78 99
61 74 94
57 70 89
61 76 97
60 75 97
59 73 94
61 76 97
57 70 90
59 73 94
63 77 98
61 75 95
60 74 95
60 75 96
59 73 93
58 71 91
59 73 94
60 73 94
63 77 98
93 110 135
194 219 255
194 219 255
194 219 255
194 219 255
194 219 255
194 219 255
194 219 255
194 219 255
194 219 255
194 219 255
194 219 255
194 219 255
194 219 255
194 219 255
194 218 255
194 218 255
194 218 255
194 218 255
194 218 255
194 218 255
194 218 255
194 218 255
194 218 255
194 218 255
194 218 255
194 218 255
194 218 255
194 218 255
194 218 255
194 218 255
194 218 255
194 218 255
194 218 255
194 218 255
194 218 255
194 218 255
194 218 255
194 218 255
194 218 255
194 218 255
194 218 255
194 218 255
194 218 255
194 218 255
194 218 255
194 218 255
194 218 255
194 218 255
194 218 255
193 218 255
193 218 255
193 218 255
193 218 255
193 218 255
193 218 255
193 218 255
193 218 255
193 218 255
193 218 255
193 218 255
193 218 255
193 218 255
193 218 255
193 218 255
193 218 255
193 218 255
193 218 255
193 218 255
193 218 255
193 218 255
193 218 255
193 218 255
193 218 255
193 218 255
193 218 255
193 218 255
193 218 255
193 218 255
193 218 255
193 218 255
193 218 255
193 218 255
193 218 255
193 218 255
193 218 255
193 218 255
193 218 255
193 218 255
193 218 255
193 218 255
193 218 255
193 218 255
193 218 255
193 218 255
193 218 255
193 218 255
193 218 255
193 218 255
193 218 255
193 218 255
193 218 255
193 218 255
193 218 255
193 218 255
193 218 255
193 218 255
193 218 255
193 218 255
193 218 255
193 218 255
193 218 255
193 218 255
193 218 255
193 218 255
193 218 255
193 218 255
193 218 255
193 218 255
193 218 255
193 218 255
193 218 255
193 218 255
193 218 255
193 218 255
193 218 255
193 218 255
193 218 255
193 218 255
193 218 255
193 218 255
193 218 255
193 218 255
193 218 255
193 218 255
193 218 255
193 218 255
193 218 255
193 218 255
193 218 255
193 218 255
193 218 255
193 218 255
193 218 255
193 218 255
193 218 255
193 218 255
193 218 255
193 218 255
193 218 255
193 218 255
193 218 255
193 218 255
193 218 255
193 218 255
193 218 255
193 218 255
193 218 255
193 218 255
193 218 255
193 218 255
193 218 255
193 218 255
193 218 255
193 218 255
193 218 255
193 218 255
193 218 255
193 218 255
193 218 255
193 218 255
193 218 255
193 218 255
193 218 255
193 218 255
193 218 255
193 218 255
193 218 255
193 218 255
193 218 255
194 218 255
194 218 255
194 218 255
194 218 255
194 218 255
194 218 255
194 218 255
194 218 255
194 218 255
194 218 255
194 218 255
194 218 255
194 218 255
194 218 255
194 218 255
194 218 255
194 218 255
194 218 255
194 218 255
194 218 255
194 218 255
194 218 255
194 218 255
194 218 255
194 218 255
194 218 255
194 218 255
194 218 255
194 218 255
194 218 255
194 218 255
194 218 255
194 218 255
194 218 255
194 218 255
194 218 255
194 219 255
194 219 255
194 219 255
194 219 255
194 219 255
194 219 255
194 219 255
194 219 255
194 219 255
194 219 255
194 219 255
194 219 255
194 219 255
194 219 255
194 219 255
194 219 255
194 219 255
194 219 255
194 219 255
194 219 255
194 219 255
194 219 255
194 219 255
194 219 255
194 219 255
194 219 255
194 219 255
194 219 255
194 219 255
194 219 255
194 219 255
194 219 255
194 219 255
194 219 255
194 219 255
194 219 255
194 219 255
194 219 255
194 219 255
194 219 255
194 219 255
194 219 255
194 219 255
194 219 255
194 219 255
194 219 255
194 219 255
194 219 255
194 219 255
194 219 255
194 219 255
194 219 255
194 219 255
194 219 255
194 219 255
108 126 152
57 70 90
56 70 91
62 76 98
66 80 102
65 81 104
59 74 96
60 74 94
63 78 100
61 75 96
61 74 94
61 74 94
65 79 101
60 73 93
61 75 96
64 79 102
65 81 104
60 74 95
55 69 89
64 78 100
60 73 93
60 74 96
64 78 99
59 73 93
58 71 91
58 73 94
58 71 90
59 73 94
59 73 93
63 77 97
58 71 91
61 74 94
63 78 100
62 77 98
59 73 94
57 71 91
55 68 87
62 76 97
57 71 92
58 72 93
59 73 93
57 70 89
53 65 84
63 77 97
61 75 97
62 76 98
62 77 99
58 72 92
60 75 97
60 74 95
64 79 102
55 68 88
61 75 96
58 72 92
60 74 94
59 72 92
60 74 94
61 75 95
62 76 97
61 76 98
54 68 88
58 71 91
61 74 95
63 77 99
58 71 91
59 73 94
59 73 94
59 73 93
57 70 89
60 74 96
58 73 94
65 79 102
58 71 91
65 79 101
59 74 96
58 71 92
62 76 98
60 74 95
60 75 97
59 72 92
62 76 98
64 79 101
64 79 101
62 76 96
58 71 90
62 77 98
57 70 89
59 73 94
58 72 92
59 73 94
64 78 99
62 77 98
61 75 96
64 79 101
59 72 92
58 72 93
58 72 93
60 73 93
63 76 96
56 68 88
58 72 91
63 78 101
61 75 97
61 75 96
61 75 96
63 77 99
59 73 94
60 74 95
59 73 94
64 79 100
56 69 89
59 72 91
60 74 95
60 75 98
56 69 89
64 79 102
61 75 96
62 77 99
61 75 96
57 70 89
64 79 101
61 75 96
59 73 93
59 73 95
57 71 92
61 75 96
62 76 96
61 75 97
61 74 95
110 128 155
194 219 255
194 219 255
194 219 255
194 219 255
194 219 255
194 219 255
194 219 255
194 219 255
194 219 255
194 219 255
194 219 255
194 219 255
194 219 255
194 219 255
194 219 255
194 219 255
194 219 255
194 219 255
194 219 255
194 219 255
194 219 255
194 219 255
194 219 255
194 219 255
194 219 255
194 219 255
194 219 255
194 219 255
194 219 255
194 219 255
194 219 255
194 219 255
194 219 255
194 219 255
194 219 255
194 219 255
194 219 255
194 219 255
194 219 255
194 219 255
194 219 255
194 219 255
194 219 255
194 219 255
194 219 255
194 219 255
194 219 255
194 219 255
194 219 255
194 219 255
194 219 255
194 219 255
194 219 255
194 219 255
194 219 255
194 218 255
194 218 255
194 218 255
194 218 255
194 218 255
194 218 255
194 218 255
194 218 255
194 218 255
194 218 255
194 218 255
194 218 255
194 218 255
194 218 255
194 218 255
194 218 255
194 218 255
194 218 255
194 218 255
194 218 255
194 218 255
194 218 255
194 218 255
194 218 255
194 218 255
194 218 255
194 218 255
194 218 255
194 218 255
194 218 255
194 218 255
194 218 255
194 218 255
194 218 255
194 218 255
194 218 255
193 218 255
193 218 255
193 218 255
193 218 255
193 218 255
193 218 255
193 218 255
193 218 255
193 218 255
193 218 255
193 218 255
193 218 255
193 218 255
193 218 255
193 218 255
193 218 255
193 218 255
193 218 255
193 218 255
193 218 255
193 218 255
193 218 255
193 218 255
193 218 255
193 218 255
193 218 255
193 218 255
193 218 255
193 218 255
193 218 255
193 218 255
193 218 255
193 218 255
193 218 255
193 218 255
193 218 255
193 218 255
193 218 255
193 218 255
193 218 255
193 218 255
193 218 255
193 218 255
193 218 255
193 218 255
193 218 255
193 218 255
193 218 255
193 218 255
193 218 255
193 218 255
194 218 255
194 218 255
194 218 255
194 218 255
194 218 255
194 218 255
194 218 255
194 218 255
194 218 255
194 218 255
194 218 255
194 218 255
194 218 255
194 218 255
194 218 255
194 218 255
194 218 255
194 218 255
194 218 255
194 218 255
194 218 255
194 218 255
194 218 255
194 218 255
194 218 255
194 218 255
194 218 255
194 218 255
194 218 255
194 218 255
194 218 255
194 218 255
194 218 255
194 218 255
194 218 255
194 218 255
194 218 255
194 219 255
194 219 255
194 219 255
194 219 255
194 219 255
194 219 255
194 219 255
194 219 255
194 219 255
194 219 255
194 219 255
194 219 255
194 219 255
194 219 255
194 219 255
194 219 255
194 219 255
194 219 255
194 219 255
194 219 255
194 219 255
194 219 255
194 219 255
194 219 255
194 219 255
194 219 255
194 219 255
194 219 255
194 219 255
194 219 255
194 219 255
194 219 255
194 219 255
194 219 255
194 219 255
194 219 255
194 219 255
194 219 255
194 219 255
194 219 255
194 219 255
194 219 255
194 219 255
194 219 255
194 219 255
194 219 255
194 219 255
194 219 255
194 219 255
194 219 255
194 219 255
194 219 255
194 219 255
194 219 255
194 219 255
194 219 255
194 219 255
195 219 255
195 219 255
195 219 255
195 219 255
195 219 255
195 219 255
195 219 255
195 219 255
195 219 255
195 219 255
195 219 255
195 219 255
195 219 255
195 219 255
195 219 255
195 219 255
195 219 255
195 219 255
195 219 255
195 219 255
195 219 255
195 219 255
195 219 255
195 219 255
195 219 255
195 219 255
195 219 255
195 219 255
195 219 255
195 219 255
195 219 255
195 219 255
195 219 255
195 219 255
117 136 164
59 72 93
64 79 102
56 69 88
59 73 94
59 73 94
63 77 100
59 71 90
60 74 94
60 74 94
55 68 88
62 76 96
58 71 91
64 78 98
63 77 97
59 72 93
61 75 96
61 75 97
59 73 94
60 74 94
59 74 96
58 71 90
60 74 96
58 71 91
64 78 99
64 79 100
60 74 95
64 79 100
60 74 95
55 68 88
56 68 87
58 72 93
62 77 99
59 72 93
63 77 98
58 72 91
60 74 95
65 80 102
60 74 96
59 73 94
57 70 91
54 67 85
62 77 99
60 74 95
56 69 89
64 78 99
62 76 98
59 72 93
62 77 100
60 73 92
63 78 99
61 75 96
59 73 93
61 75 95
63 77 99
59 73 94
59 73 93
60 74 95
57 70 91
55 68 88
61 74 95
61 76 98
62 75 96
65 79 101
60 73 93
63 76 96
59 72 92
59 73 95
65 80 101
62 76 97
60 73 93
59 73 93
63 77 99
61 75 96
63 78 100
60 74 95
62 77 100
61 76 99
57 70 89
63 77 99
63 78 99
58 71 92
61 75 97
58 72 93
61 75 96
61 75 97
58 71 92
60 74 95
59 74 96
61 75 95
65 79 99
58 72 92
64 78 100
59 73 95
58 72 92
62 76 98
60 73 93
61 75 96
60 74 94
59 73 95
62 76 98
63 77 100
57 70 90
61 75 95
56 70 90
60 74 94
58 72 93
66 80 102
63 78 99
57 71 90
59 73 94
56 69 89
60 74 95
59 72 92
59 73 93
56 70 90
58 72 93
61 75 96
64 78 100
62 77 100
59 72 93
61 74 94
54 67 86
59 73 94
62 75 95
61 74 95
59 73 94
59 72 91
60 74 95
125 144 172
195 219 255
195 219 255
195 219 255
195 219 255
195 219 255
195 219 255
195 219 255
195 219 255
195 219 255
195 219 255
195 219 255
195 219 255
195 219 255
195 219 255
195 219 255
195 219 255
195 219 255
195 219 255
195 219 255
195 219 255
195 219 255
195 219 255
195 219 255
195 219 255
195 219 255
195 219 255
195 219 255
195 219 255
195 219 255
195 219 255
195 219 255
195 219 255
195 219 255
195 219 255
194 219 255
194 219 255
194 219 255
194 219 255
194 219 255
194 219 255
194 219 255
194 219 255
194 219 255
194 219 255
194 219 255
194 219 255
194 219 255
194 219 255
194 219 255
194 219 255
194 219 255
194 219 255
194 219 255
194 219 255
194 219 255
194 219 255
194 219 255
194 219 255
194 219 255
194 219 255
194 219 255
194 219 255
194 219 255
194 219 255
194 219 255
194 219 255
194 219 255
194 219 255
194 219 255
194 219 255
194 219 255
194 219 255
194 219 255
194 219 255
194 219 255
194 219 255
194 219 255
194 219 255
194 219 255
194 219 255
194 219 255
194 219 255
194 219 255
194 219 255
194 219 255
194 219 255
194 219 255
194 219 255
194 219 255
194 219 255
194 218 255
194 218 255
194 218 255
194 218 255
194 218 255
194 218 255
194 218 255
194 218 255
194 218 255
194 218 255
194 218 255
194 218 255
194 218 255
194 218 255
194 218 255
194 218 255
194 218 255
194 218 255
194 218 255
194 218 255
194 218 255
194 218 255
194 218 255
194 218 255
194 218 255
194 218 255
194 218 255
194 218 255
194 218 255
194 218 255
194 218 255
194 218 255
194 218 255
194 218 255
194 218 255
194 218 255
194 218 255
194 218 255
193 218 255
193 218 255
193 218 255
193 218 255
193 218 255
193 218 255
193 218 255
194 218 255
194 218 255
194 218 255
194 218 255
194 218 255
194 218 255
194 218 255
194 218 255
194 218 255
194 218 255
194 218 255
194 218 255
194 219 255
194 219 255
194 219 255
194 219 255
194 219 255
194 219 255
194 219 255
194 219 255
194 219 255
194 219 255
194 219 255
194 219 255
194 219 255
194 219 255
194 219 255
194 219 255
194 219 255
194 219 255
194 219 255
194 219 255
194 219 255
194 219 255
194 219 255
194 219 255
194 219 255
194 219 255
194 219 255
194 219 255
194 219 255
194 219 255
194 219 255
194 219 255
194 219 255
194 219 255
194 219 255
194 219 255
194 219 255
194 219 255
194 219 255
194 219 255
194 219 255
194 219 255
194 219 255
194 219 255
194 219 255
194 219 255
194 219 255
194 219 255
194 219 255
194 219 255
194 219 255
194 219 255
194 219 255
194 219 255
194 219 255
194 219 255
194 219 255
194 219 255
194 219 255
194 219 255
194 219 255
195 219 255
195 219 255
195 219 255
195 219 255
195 219 255
195 219 255
195 219 255
195 219 255
195 219 255
195 219 255
195 219 255
195 219 255
195 219 255
195 219 255
195 219 255
195 219 255
195 219 255
195 219 255
195 219 255
195 219 255
195 219 255
195 219 255
195 219 255
195 219 255
195 219 255
195 219 255
195 219 255
195 219 255
195 219 255
195 219 255
195 219 255
195 219 255
195 219 255
195 219 255
195 219 255
195 219 255
195 219 255
195 219 255
195 219 255
195 219 255
195 219 255
195 219 255
195 219 255
195 219 255
195 219 255
195 219 255
195 219 255
195 219 255
195 219 255
195 219 255
195 219 255
195 219 255
195 219 255
195 219 255
195 219 255
195 219 255
195 219 255
195 219 255
195 219 255
195 219 255
195 219 255
195 219 255
130 150 179
59 73 94
65 80 103
60 73 92
62 76 98
57 71 91
57 71 91
59 72 93
62 75 96
63 77 98
60 73 94
58 71 92
59 74 95
61 75 96
60 75 97
61 74 94
63 77 99
59 72 93
59 73 93
57 71 91
63 76 97
60 74 96
59 72 92
59 73 94
57 71 91
63 77 99
58 71 91
57 71 92
62 75 95
61 74 95
63 76 97
59 73 94
62 76 97
57 70 90
61 75 97
61 75 96
60 74 95
57 70 90
66 80 102
59 72 92
57 71 91
58 73 94
61 75 97
60 74 94
59 74 96
59 73 93
60 75 96
61 75 96
60 74 96
55 68 88
65 80 102
61 75 94
65 80 103
60 73 94
60 73 94
61 75 97
56 70 91
62 77 98
60 74 95
63 77 98
60 74 95
62 76 98
59 73 93
62 76 98
59 73 93
59 73 94
62 77 98
61 74 93
59 74 95
58 72 92
59 73 93
58 72 92
58 71 91
60 73 93
60 74 95
58 72 93
55 67 87
61 74 95
60 74 95
61 75 96
58 72 93
64 79 101
63 76 97
58 71 91
61 75 96
62 77 98
58 71 91
59 73 93
61 75 96
61 75 97
61 75 95
63 78 100
58 70 88
62 76 97
64 78 99
61 76 98
60 74 95
62 76 97
62 76 99
61 76 97
58 70 90
59 72 93
62 76 97
55 68 87
60 72 92
59 72 93
58 71 90
59 72 93
60 74 95
60 74 96
61 75 96
60 73 92
61 76 98
60 75 96
61 75 95
61 75 96
57 71 91
61 76 97
62 76 96
63 77 99
58 72 92
62 76 98
57 70 90
54 68 89
63 77 99
60 74 95
64 79 100
59 73 93
60 74 95
113 132 159
195 219 255
195 219 255
195 219 255
195 219 255
195 219 255
195 219 255
195 219 255
195 219 255
195 219 255
195 219 255
195 219 255
195 219 255
195 219 255
195 219 255
195 219 255
195 219 255
195 219 255
195 219 255
195 219 255
195 219 255
195 219 255
195 219 255
195 219 255
195 219 255
195 219 255
195 219 255
195 219 255
195 219 255
195 219 255
195 219 255
195 219 255
195 219 255
195 219 255
195 219 255
195 219 255
195 219 255
195 219 255
195 219 255
195 219 255
195 219 255
195 219 255
195 219 255
195 219 255
195 219 255
195 219 255
195 219 255
195 219 255
195 219 255
195 219 255
195 219 255
195 219 255
195 219 255
195 219 255
195 219 255
195 219 255
195 219 255
195 219 255
195 219 255
195 219 255
195 219 255
195 219 255
195 219 255
194 219 255
194 219 255
194 219 255
194 219 255
194 219 255
194 219 255
194 219 255
194 219 255
194 219 255
194 219 255
194 219 255
194 219 255
194 219 255
194 219 255
194 219 255
194 219 255
194 219 255
194 219 255
194 219 255
194 219 255
194 219 255
194 219 255
194 219 255
194 219 255
194 219 255
194 219 255
194 219 255
194 219 255
194 219 255
194 219 255
194 219 255
194 219 255
194 219 255
194 219 255
194 219 255
194 219 255
194 219 255
194 219 255
194 219 255
194 219 255
194 219 255
194 219 255
194 219 255
194 219 255
194 219 255
194 219 255
194 219 255
194 219 255
194 219 255
194 219 255
194 219 255
194 219 255
194 219 255
194 219 255
194 219 255
194 219 255
194 219 255
194 219 255
194 219 255
194 219 255
194 219 255
194 218 255
194 219 255
194 218 255
194 218 255
194 218 255
194 218 255
194 218 255
194 218 255
194 218 255
194 218 255
194 218 255
194 218 255
194 219 255
194 219 255
194 219 255
194 219 255
194 219 255
194 219 255
194 219 255
194 219 255
194 219 255
194 219 255
194 219 255
194 219 255
194 219 255
194 219 255
194 219 255
194 219 255
194 219 255
194 219 255
194 219 255
194 219 255
194 219 255
194 219 255
194 219 255
194 219 255
194 219 255
194 219 255
194 219 255
194 219 255
194 219 255
194 219 255
194 219 255
194 219 255
194 219 255
194 219 255
194 219 255
194 219 255
194 219 255
194 219 255
194 219 255
194 219 255
194 219 255
194 219 255
194 219 255
194 219 255
195 219 255
195 219 255
195 219 255
195 219 255
195 219 255
195 219 255
195 219 255
195 219 255
195 219 255
195 219 255
195 219 255
195 219 255
195 219 255
195 219 255
195 219 255
195 219 255
195 219 255
195 219 255
195 219 255
195 219 255
195 219 255
195 219 255
195 219 255
195 219 255
195 219 255
195 219 255
195 219 255
195 219 255
195 219 255
195 219 255
195 219 255
195 219 255
195 219 255
195 219 255
195 219 255
195 219 255
195 219 255
195 219 255
195 219 255
195 219 255
195 219 255
195 219 255
195 219 255
195 219 255
195 219 255
195 219 255
195 219 255
195 219 255
195 219 255
195 219 255
195 219 255
195 219 255
195 219 255
195 219 255
195 219 255
195 219 255
195 219 255
195 219 255
195 219 255
195 219 255
195 219 255
195 219 255
195 219 255
195 219 255
195 219 255
195 219 255
195 219 255
196 220 255
196 220 255
196 220 255
196 220 255
196 220 255
196 220 255
196 220 255
196 220 255
196 220 255
196 220 255
196 220 255
196 220 255
196 220 255
196 220 255
196 220 255
196 220 255
196 220 255
196 220 255
196 220 255
196 220 255
196 220 255
196 220 255
196 220 255
196 220 255
157 178 209
58 71 91
59 72 92
60 73 94
63 78 99
56 70 90
62 75 96
60 74 95
61 75 95
60 74 94
59 73 93
62 76 97
60 75 97
61 75 97
65 79 99
57 71 92
61 76 97
62 75 96
62 76 98
62 76 98
53 66 84
57 71 92
60 73 93
59 73 94
56 68 87
61 74 95
61 74 93
61 74 94
62 77 98
64 79 101
60 74 95
59 72 92
61 75 96
63 77 99
59 72 92
61 75 97
60 74 94
59 72 92
59 73 93
58 71 91
63 76 96
58 71 92
58 72 92
62 76 98
58 72 93
63 78 99
53 66 85
59 72 92
58 71 91
63 78 100
63 76 96
62 76 98
60 74 95
65 80 101
58 72 92
59 72 91
59 72 93
61 75 96
62 77 99
60 73 94
59 72 91
58 72 92
58 72 92
57 70 90
58 72 93
59 73 95
60 74 94
62 76 98
59 72 92
59 73 94
57 71 91
61 75 95
63 77 98
60 74 95
62 77 98
59 72 93
59 73 93
58 71 92
54 68 88
59 73 94
62 76 97
59 73 94
61 74 94
62 77 99
63 77 99
62 75 95
60 74 94
61 75 96
60 75 96
63 77 98
63 78 100
59 72 92
64 79 101
59 72 91
61 74 95
58 72 92
61 75 97
64 78 100
60 73 94
57 70 89
64 79 101
59 73 94
63 78 99
63 78 99
60 74 96
62 76 97
64 79 101
64 79 100
57 71 92
64 79 101
59 72 93
59 72 91
62 76 97
58 72 92
59 72 92
57 70 90
58 72 93
62 76 96
62 76 97
58 72 92
61 74 94
59 74 95
60 75 97
61 75 95
60 74 95
58 72 93
62 76 98
64 78 99
60 73 94
155 176 207
196 220 255
196 220 255
196 220 255
196 220 255
196 220 255
196 220 255
196 220 255
196 220 255
196 220 255
196 220 255
196 220 255
196 220 255
196 220 255
196 220 255
196 220 255
196 220 255
196 220 255
196 220 255
196 220 255
196 220 255
196 220 255
196 220 255
196 220 255
195 219 255
195 219 255
195 219 255
195 219 255
195 219 255
195 219 255
195 219 255
195 219 255
195 219 255
195 219 255
195 219 255
195 219 255
195 219 255
195 219 255
195 219 255
195 219 255
195 219 255
195 219 255
195 219 255
195 219 255
195 219 255
195 219 255
195 219 255
195 219 255
195 219 255
195 219 255
195 219 255
195 219 255
195 219 255
195 219 255
195 219 255
195 219 255
195 219 255
195 219 255
195 219 255
195 219 255
195 219 255
195 219 255
195 219 255
195 219 255
195 219 255
195 219 255
195 219 255
195 219 255
195 219 255
195 219 255
195 219 255
195 219 255
195 219 255
195 219 255
195 219 255
195 219 255
195 219 255
195 219 255
195 219 255
195 219 255
195 219 255
195 219 255
195 219 255
195 219 255
195 219 255
195 219 255
195 219 255
195 219 255
195 219 255
195 219 255
195 219 255
194 219 255
194 219 255
194 219 255
194 219 255
194 219 255
194 219 255
194 219 255
194 219 255
194 219 255
194 219 255
194 219 255
194 219 255
194 219 255
194 219 255
194 219 255
194 219 255
194 219 255
194 219 255
194 219 255
194 219 255
194 219 255
194 219 255
194 219 255
194 219 255
194 219 255
194 219 255
194 219 255
194 219 255
194 219 255
194 219 255
194 219 255
194 219 255
194 219 255
194 219 255
194 219 255
194 219 255
194 219 255
194 219 255
194 219 255
194 219 255
194 219 255
194 219 255
194 219 255
194 219 255
194 219 255
194 219 255
194 219 255
194 219 255
194 219 255
194 219 255
194 219 255
194 219 255
194 219 255
194 219 255
194 219 255
194 219 255
194 219 255
194 219 255
194 219 255
194 219 255
194 219 255
194 219 255
194 219 255
194 219 255
195 219 255
195 219 255
195 219 255
195 219 255
195 219 255
195 219 255
195 219 255
195 219 255
195 219 255
195 219 255
195 219 255
195 219 255
195 219 255
195 219 255
195 219 255
195 219 255
195 219 255
195 219 255
195 219 255
195 219 255
195 219 255
195 219 255
195 219 255
195 219 255
195 219 255
195 219 255
195 219 255
195 219 255
195 219 255
195 219 255
195 219 255
195 219 255
195 219 255
195 219 255
195 219 255
195 219 255
195 219 255
195 219 255
195 219 255
195 219 255
195 219 255
195 219 255
195 219 255
195 219 255
195 219 255
195 219 255
195 219 255
195 219 255
195 219 255
195 219 255
195 219 255
195 219 255
195 219 255
195 219 255
195 219 255
195 219 255
195 219 255
195 219 255
195 219 255
195 219 255
195 219 255
195 219 255
195 219 255
195 219 255
195 219 255
195 219 255
195 219 255
195 219 255
196 220 255
196 220 255
196 220 255
196 220 255
196 220 255
196 220 255
196 220 255
196 220 255
196 220 255
196 220 255
196 220 255
196 220 255
196 220 255
196 220 255
196 220 255
196 220 255
196 220 255
196 220 255
196 220 255
196 220 255
196 220 255
196 220 255
196 220 255
196 220 255
196 220 255
196 220 255
196 220 255
196 220 255
196 220 255
196 220 255
196 220 255
196 220 255
196 220 255
196 220 255
196 220 255
196 220 255
196 220 255
196 220 255
196 220 255
196 220 255
196 220 255
196 220 255
196 220 255
196 220 255
196 220 255
196 220 255
196 220 255
196 220 255
167 188 221
58 72 92
60 73 93
56 70 90
62 76 97
64 79 102
63 77 98
57 70 89
64 79 100
61 76 97
61 74 94
60 74 94
57 71 92
58 72 92
61 76 97
57 70 91
59 72 93
61 74 94
57 71 91
60 74 95
57 71 92
57 71 92
60 74 95
59 73 94
57 70 89
60 74 94
61 75 96
63 76 97
57 70 89
62 76 97
64 78 100
58 72 93
62 75 95
57 71 91
60 74 94
55 69 89
56 69 89
57 71 92
60 74 95
57 71 91
62 76 97
62 77 99
65 80 102
60 74 95
59 73 94
61 76 98
60 73 93
61 74 95
57 71 91
58 71 91
60 73 93
60 74 95
55 67 86
62 76 96
61 75 96
59 73 93
60 74 95
60 74 94
58 72 92
61 74 93
58 71 91
62 77 99
63 76 96
59 74 95
61 75 96
60 74 94
62 76 96
58 72 92
62 76 97
57 70 90
61 75 95
61 74 94
58 72 92
56 69 89
59 73 94
60 74 95
63 77 99
62 76 98
60 75 96
59 72 92
58 73 94
61 75 96
59 72 91
61 75 96
65 80 101
60 74 94
63 77 99
58 71 89
58 71 91
56 70 90
59 73 94
60 73 92
58 71 91
60 74 96
59 74 95
60 73 94
63 77 98
60 73 93
61 74 95
65 79 101
60 74 95
55 68 88
58 70 89
61 74 95
61 76 97
62 77 98
58 71 91
59 73 94
60 75 96
63 78 99
63 77 98
61 75 96
61 75 96
62 75 96
63 78 100
58 71 91
60 74 95
62 76 97
60 75 97
67 82 105
64 78 100
59 72 93
58 72 93
62 76 97
62 76 98
62 76 97
57 71 92
59 72 93
61 75 97
168 190 222
196 220 255
196 220 255
196 220 255
196 220 255
196 220 255
196 220 255
196 220 255
196 220 255
196 220 255
196 220 255
196 220 255
196 220 255
196 220 255
196 220 255
196 220 255
196 220 255
196 220 255
196 220 255
196 220 255
196 220 255
196 220 255
196 220 255
196 220 255
196 220 255
196 220 255
196 220 255
196 220 255
196 220 255
196 220 255
196 220 255
196 220 255
196 220 255
196 220 255
196 220 255
196 220 255
196 220 255
196 220 255
196 220 255
196 220 255
196 220 255
196 220 255
196 220 255
196 220 255
196 220 255
196 220 255
196 220 255
196 220 255
196 220 255
195 219 255
195 219 255
195 219 255
195 219 255
195 219 255
195 219 255
195 219 255
195 219 255
195 219 255
195 219 255
195 219 255
195 219 255
195 219 255
195 219 255
195 219 255
195 219 255
195 219 255
195 219 255
195 219 255
195 219 255
195 219 255
195 219 255
195 219 255
195 219 255
195 219 255
195 219 255
195 219 255
195 219 255
195 219 255
195 219 255
195 219 255
195 219 255
195 219 255
195 219 255
195 219 255
195 219 255
195 219 255
195 219 255
195 219 255
195 219 255
195 219 255
195 219 255
195 219 255
195 219 255
195 219 255
195 219 255
195 219 255
195 219 255
195 219 255
195 219 255
195 219 255
195 219 255
195 219 255
195 219 255
195 219 255
195 219 255
195 219 255
195 219 255
195 219 255
195 219 255
195 219 255
195 219 255
195 219 255
195 219 255
195 219 255
195 219 255
195 219 255
195 219 255
194 219 255
194 219 255
194 219 255
194 219 255
194 219 255
194 219 255
194 219 255
194 219 255
194 219 255
194 219 255
194 219 255
194 219 255
194 219 255
194 219 255
194 219 255
194 219 255
194 219 255
194 219 255
194 219 255
195 219 255
195 219 255
195 219 255
195 219 255
195 219 255
195 219 255
195 219 255
195 219 255
195 219 255
195 219 255
195 219 255
195 219 255
195 219 255
195 219 255
195 219 255
195 219 255
195 219 255
195 219 255
195 219 255
195 219 255
195 219 255
195 219 255
195 219 255
195 219 255
195 219 255
195 219 255
195 219 255
195 219 255
195 219 255
195 219 255
195 219 255
195 219 255
195 219 255
195 219 255
195 219 255
195 219 255
195 219 255
195 219 255
195 219 255
195 219 255
195 219 255
195 219 255
195 219 255
195 219 255
195 219 255
195 219 255
195 219 255
195 219 255
195 219 255
195 219 255
195 219 255
195 219 255
195 219 255
195 219 255
195 219 255
195 219 255
195 219 255
195 219 255
195 219 255
195 219 255
195 219 255
195 219 255
195 219 255
195 219 255
195 219 255
195 219 255
196 220 255
196 220 255
196 220 255
196 220 255
196 220 255
196 220 255
196 220 255
196 220 255
196 220 255
196 220 255
196 220 255
196 220 255
196 220 255
196 220 255
196 220 255
196 220 255
196 220 255
196 220 255
196 220 255
196 220 255
196 220 255
196 220 255
196 220 255
196 220 255
196 220 255
196 220 255
196 220 255
196 220 255
196 220 255
196 220 255
196 220 255
196 220 255
196 220 255
196 220 255
196 220 255
196 220 255
196 220 255
196 220 255
196 220 255
196 220 255
196 220 255
196 220 255
196 220 255
196 220 255
196 220 255
196 220 255
196 220 255
196 220 255
196 220 255
196 220 255
197 220 255
197 220 255
197 220 255
197 220 255
197 220 255
197 220 255
197 220 255
197 220 255
197 220 255
197 220 255
197 220 255
197 220 255
197 220 255
197 220 255
197 220 255
197 220 255
197 220 255
197 220 255
197 220 255
190 213 247
60 74 95
61 75 96
61 75 97
63 77 99
60 74 96
56 69 89
61 74 95
59 72 92
54 66 84
58 71 91
58 72 93
66 80 102
58 72 92
61 75 95
55 68 87
61 75 95
60 74 94
58 72 92
61 75 96
63 77 99
61 74 94
64 78 98
59 72 93
61 75 96
61 75 95
56 69 89
63 78 101
60 74 96
58 72 93
62 76 96
58 72 92
53 66 86
63 77 98
63 78 100
60 73 92
59 72 93
57 70 90
62 76 98
56 69 89
59 72 93
65 79 101
63 77 98
62 76 96
62 76 97
64 78 99
65 80 101
57 70 91
59 74 95
58 71 91
61 74 95
59 73 93
55 68 88
57 70 89
60 73 93
59 73 94
61 76 97
61 74 94
60 73 93
61 75 95
60 73 93
59 74 96
62 77 98
60 73 94
61 74 95
58 72 94
60 73 94
59 73 93
61 75 96
60 74 95
60 75 96
60 74 94
57 71 91
58 71 92
58 72 93
60 73 94
59 73 93
57 71 90
55 67 86
57 70 88
61 75 96
61 75 96
55 67 86
60 74 96
62 76 97
60 74 96
63 76 95
60 75 96
61 75 96
63 77 99
55 68 87
59 73 95
59 73 93
62 77 98
58 71 91
58 71 91
64 78 99
60 74 95
66 82 105
59 74 95
61 74 95
56 70 91
57 71 92
59 72 92
61 76 97
58 71 92
55 68 87
59 73 94
58 73 94
59 72 93
58 72 91
55 67 86
59 73 94
63 77 99
62 76 96
59 73 93
62 76 97
63 78 99
59 73 93
60 74 93
57 70 89
62 75 96
61 75 96
62 77 99
63 78 100
59 71 90
60 74 94
57 70 89
70 85 107
191 214 248
197 220 255
197 220 255
197 220 255
197 220 255
197 220 255
197 220 255
197 220 255
197 220 255
197 220 255
197 220 255
197 220 255
197 220 255
197 220 255
197 220 255
197 220 255
197 220 255
197 220 255
197 220 255
196 220 255
196 220 255
196 220 255
196 220 255
196 220 255
196 220 255
196 220 255
196 220 255
196 220 255
196 220 255
196 220 255
196 220 255
196 220 255
196 220 255
196 220 255
196 220 255
196 220 255
196 220 255
196 220 255
196 220 255
196 220 255
196 220 255
196 220 255
196 220 255
196 220 255
196 220 255
196 220 255
196 220 255
196 220 255
196 220 255
196 220 255
196 220 255
196 220 255
196 220 255
196 220 255
196 220 255
196 220 255
196 220 255
196 220 255
196 220 255
196 220 255
196 220 255
196 220 255
196 220 255
196 220 255
196 220 255
196 220 255
196 220 255
196 220 255
196 220 255
196 220 255
195 219 255
195 219 255
195 219 255
195 219 255
195 219 255
195 219 255
195 219 255
195 219 255
195 219 255
195 219 255
195 219 255
195 219 255
195 219 255
195 219 255
195 219 255
195 219 255
195 219 255
195 219 255
195 219 255
195 219 255
195 219 255
195 219 255
195 219 255
195 219 255
195 219 255
195 219 255
195 219 255
195 219 255
195 219 255
195 219 255
195 219 255
195 219 255
195 219 255
195 219 255
195 219 255
195 219 255
195 219 255
195 219 255
195 219 255
195 219 255
195 219 255
195 219 255
195 219 255
195 219 255
195 219 255
195 219 255
195 219 255
195 219 255
195 219 255
195 219 255
195 219 255
195 219 255
195 219 255
195 219 255
195 219 255
195 219 255
195 219 255
195 219 255
195 219 255
195 219 255
195 219 255
195 219 255
195 219 255
195 219 255
195 219 255
195 219 255
195 219 255
195 219 255
195 219 255
195 219 255
195 219 255
195 219 255
195 219 255
195 219 255
195 219 255
195 219 255
195 219 255
195 219 255
195 219 255
195 219 255
195 219 255
195 219 255
195 219 255
195 219 255
195 219 255
195 219 255
195 219 255
195 219 255
195 219 255
195 219 255
195 219 255
195 219 255
195 219 255
195 219 255
195 219 255
195 219 255
195 219 255
195 219 255
195 219 255
195 219 255
195 219 255
195 219 255
195 219 255
195 219 255
195 219 255
195 219 255
195 219 255
195 219 255
195 219 255
195 219 255
195 219 255
196 220 255
196 220 255
196 220 255
196 220 255
196 220 255
196 220 255
196 220 255
196 220 255
196 220 255
196 220 255
196 220 255
196 220 255
196 220 255
196 220 255
196 220 255
196 220 255
196 220 255
196 220 255
196 220 255
196 220 255
196 220 255
196 220 255
196 220 255
196 220 255
196 220 255
196 220 255
196 220 255
196 220 255
196 220 255
196 220 255
196 220 255
196 220 255
196 220 255
196 220 255
196 220 255
196 220 255
196 220 255
196 220 255
196 220 255
196 220 255
196 220 255
196 220 255
196 220 255
196 220 255
196 220 255
196 220 255
196 220 255
196 220 255
196 220 255
196 220 255
196 220 255
196 220 255
197 220 255
197 220 255
197 220 255
197 220 255
197 220 255
197 220 255
197 220 255
197 220 255
197 220 255
197 220 255
197 220 255
197 220 255
197 220 255
197 220 255
197 220 255
197 220 255
197 220 255
197 220 255
197 220 255
197 220 255
197 220 255
197 220 255
197 220 255
197 220 255
197 220 255
197 220 255
197 220 255
197 220 255
195 218 253
186 208 243
176 198 232
176 199 232
170 192 226
159 181 215
151 173 206
141 163 195
141 162 194
136 157 189
128 150 181
66 80 102
59 72 92
59 73 93
61 75 96
57 70 89
62 77 98
61 74 93
58 71 91
58 71 92
62 76 97
61 74 95
60 74 95
57 71 92
58 72 92
58 72 92
56 69 89
66 80 101
66 80 102
55 68 87
60 74 95
62 76 96
62 75 96
56 69 89
55 67 86
58 71 90
60 73 93
63 78 101
60 73 93
60 74 96
56 69 87
61 75 96
58 73 94
60 73 94
61 75 95
58 71 90
62 77 99
64 78 100
55 67 86
62 77 98
55 69 89
60 74 94
60 74 95
62 76 97
58 72 94
66 80 101
59 73 94
59 73 93
59 72 93
55 68 87
54 67 86
58 71 92
58 72 94
65 80 101
63 78 100
62 74 93
63 78 101
62 77 98
64 80 102
66 81 102
63 77 99
61 75 96
58 71 91
56 69 88
56 69 90
63 77 100
64 78 99
61 75 96
62 76 96
62 76 98
59 73 93
58 71 90
62 75 95
59 72 91
58 71 90
62 76 97
59 72 92
62 76 97
60 74 95
60 75 97
58 72 92
62 77 100
56 69 88
65 79 101
57 69 88
58 71 91
57 70 91
57 70 90
64 78 100
60 73 94
61 76 97
62 76 98
61 74 94
57 72 93
63 78 100
58 71 91
59 73 93
62 76 97
61 74 95
60 74 95
58 72 92
58 72 92
56 69 88
60 73 93
61 75 96
63 77 99
57 70 90
57 69 89
60 74 94
56 70 90
57 70 89
63 77 97
58 72 93
59 73 93
60 74 94
58 70 89
62 76 98
59 72 93
61 76 98
59 72 93
64 78 100
55 67 87
58 73 95
61 76 98
59 73 93
57 70 90
61 75 96
59 72 93
68 83 104
129 149 180
132 153 185
136 157 189
146 167 199
147 168 199
156 178 211
171 194 227
167 189 222
168 191 225
182 205 239
189 212 247
196 219 254
197 220 255
197 220 255
197 220 255
197 220 255
197 220 255
197 220 255
197 220 255
197 220 255
197 220 255
197 220 255
197 220 255
197 220 255
197 220 255
197 220 255
197 220 255
197 220 255
197 220 255
197 220 255
197 220 255
197 220 255
197 220 255
197 220 255
197 220 255
197 220 255
197 220 255
197 220 255
197 220 255
197 220 255
196 220 255
196 220 255
196 220 255
196 220 255
196 220 255
196 220 255
196 220 255
196 220 255
196 220 255
196 220 255
196 220 255
196 220 255
196 220 255
196 220 255
196 220 255
196 220 255
196 220 255
196 220 255
196 220 255
196 220 255
196 220 255
196 220 255
196 220 255
196 220 255
196 220 255
196 220 255
196 220 255
196 220 255
196 220 255
196 220 255
196 220 255
196 220 255
196 220 255
196 220 255
196 220 255
196 220 255
196 220 255
196 220 255
196 220 255
196 220 255
196 220 255
196 220 255
196 220 255
196 220 255
196 220 255
196 220 255
196 220 255
196 220 255
196 220 255
196 220 255
196 220 255
195 219 255
195 219 255
195 219 255
195 219 255
195 219 255
195 219 255
195 219 255
195 219 255
195 219 255
195 219 255
195 219 255
195 219 255
195 219 255
195 219 255
195 219 255
195 219 255
195 219 255
195 219 255
195 219 255
195 219 255
195 219 255
195 219 255
195 219 255
195 219 255
195 219 255
195 219 255
195 219 255
195 219 255
195 219 255
195 219 255
195 219 255
195 219 255
195 219 255
195 219 255
195 219 255
195 219 255
195 219 255
195 219 255
195 219 255
195 219 255
195 219 255
195 219 255
195 219 255
195 219 255
195 219 255
195 219 255
195 219 255
195 219 255
195 219 255
195 219 255
195 219 255
195 219 255
195 219 255
195 219 255
195 219 255
195 219 255
195 219 255
195 219 255
195 219 255
195 219 255
195 219 255
195 219 255
195 219 255
195 219 255
195 219 255
195 219 255
195 219 255
195 219 255
195 219 255
195 219 255
195 219 255
196 220 255
196 220 255
196 220 255
196 220 255
196 220 255
196 220 255
196 220 255
196 220 255
196 220 255
196 220 255
196 220 255
196 220 255
196 220 255
196 220 255
196 220 255
196 220 255
196 220 255
196 220 255
196 220 255
196 220 255
196 220 255
196 220 255
196 220 255
196 220 255
196 220 255
196 220 255
196 220 255
196 220 255
196 220 255
196 220 255
196 220 255
196 220 255
196 220 255
196 220 255
196 220 255
196 220 255
196 220 255
196 220 255
196 220 255
196 220 255
196 220 255
196 220 255
196 220 255
196 220 255
196 220 255
196 220 255
196 220 255
196 220 255
196 220 255
196 220 255
196 220 255
196 220 255
197 220 255
197 220 255
197 220 255
197 220 255
197 220 255
197 220 255
197 220 255
197 220 255
197 220 255
197 220 255
197 220 255
197 220 255
197 220 255
197 220 255
197 220 255
197 220 255
197 220 255
197 220 255
197 220 255
197 220 255
197 220 255
197 220 255
197 220 255
197 220 255
197 220 255
197 220 255
197 220 255
197 220 255
197 220 255
197 221 255
188 211 245
184 207 241
179 202 236
173 196 230
167 190 224
166 188 221
152 173 206
140 161 193
139 160 192
131 151 183
118 139 171
110 130 161
100 120 149
102 121 151
99 119 148
89 109 138
81 100 129
79 98 128
81 100 128
80 99 128
79 98 128
78 98 128
81 99 128
80 99 128
79 98 128
80 99 128
80 99 127
78 97 127
67 82 106
59 73 93
57 69 89
57 70 90
57 70 90
58 72 92
59 72 92
61 75 97
59 72 93
56 69 89
60 74 95
59 73 95
56 68 87
64 78 98
60 72 92
57 69 89
58 72 92
59 72 92
60 73 93
63 77 98
57 70 89
60 73 93
59 73 92
56 69 88
60 74 95
62 76 97
57 70 90
56 69 87
61 75 95
60 74 95
56 69 88
58 72 94
58 71 90
58 71 90
55 68 88
59 72 92
57 71 93
60 74 94
59 73 93
56 70 90
54 67 87
59 72 92
63 78 100
58 72 92
59 73 93
56 69 88
62 76 98
64 78 98
65 79 101
58 72 93
58 70 90
59 73 94
57 70 90
59 73 95
61 74 94
57 71 92
57 70 91
61 74 95
58 71 92
62 75 96
62 78 101
59 72 92
59 72 91
60 74 94
56 69 88
63 77 98
58 71 91
58 72 93
63 77 99
62 76 97
59 73 94
59 72 92
61 75 95
60 73 94
57 71 92
64 78 99
57 70 90
61 74 93
58 72 93
62 76 96
61 75 96
58 71 91
59 73 93
59 73 93
60 75 97
61 75 96
63 77 99
59 71 90
58 72 93
57 71 92
59 73 93
60 74 95
54 67 86
60 73 93
55 67 86
60 74 96
58 72 92
58 72 92
58 71 92
64 78 99
61 74 95
60 72 92
58 71 92
61 75 97
63 76 97
63 77 99
59 74 96
60 73 93
60 74 94
60 74 95
60 74 95
60 73 93
58 71 91
57 70 90
60 75 98
57 71 91
59 74 96
62 76 98
58 70 89
59 73 93
61 75 95
64 78 100
60 74 94
59 72 92
60 73 93
57 70 90
57 70 90
66 81 104
80 99 128
81 99 128
79 98 128
79 98 128
79 98 128
80 99 128
80 99 127
79 98 126
80 99 128
77 97 127
80 98 127
79 99 128
85 104 134
91 111 140
99 118 148
100 121 151
113 134 165
122 142 172
125 147 179
151 173 206
136 157 189
152 174 207
167 189 222
166 188 221
170 192 226
170 192 226
185 208 243
194 217 252
197 221 255
197 220 255
197 220 255
197 220 255
197 220 255
197 220 255
197 220 255
197 220 255
197 220 255
197 220 255
197 220 255
197 220 255
197 220 255
197 220 255
197 220 255
197 220 255
197 220 255
197 220 255
197 220 255
197 220 255
197 220 255
197 220 255
197 220 255
197 220 255
197 220 255
197 220 255
197 220 255
197 220 255
197 220 255
197 220 255
196 220 255
196 220 255
196 220 255
196 220 255
196 220 255
196 220 255
196 220 255
196 220 255
196 220 255
196 220 255
196 220 255
196 220 255
196 220 255
196 220 255
196 220 255
196 220 255
196 220 255
196 220 255
196 220 255
196 220 255
196 220 255
196 220 255
196 220 255
196 220 255
196 220 255
196 220 255
196 220 255
196 220 255
196 220 255
196 220 255
196 220 255
196 220 255
196 220 255
196 220 255
196 220 255
196 220 255
196 220 255
196 220 255
196 220 255
196 220 255
196 220 255
196 220 255
196 220 255
196 220 255
196 220 255
196 220 255
196 220 255
196 220 255
196 220 255
196 220 255
196 220 255
196 220 255
196 220 255
195 219 255
195 219 255
195 219 255
195 219 255
195 219 255
195 219 255
195 219 255
195 219 255
195 219 255
195 219 255
195 219 255
195 219 255
195 219 255
195 219 255
195 219 255
195 219 255
195 219 255
195 219 255
195 219 255
195 219 255
195 219 255
195 219 255
195 219 255
195 219 255
195 219 255
195 219 255
195 219 255
195 219 255
195 219 255
195 219 255
195 219 255
195 219 255
196 220 255
196 220 255
196 220 255
196 220 255
196 220 255
196 220 255
196 220 255
196 220 255
196 220 255
196 220 255
196 220 255
196 220 255
196 220 255
196 220 255
196 220 255
196 220 255
196 220 255
196 220 255
196 220 255
196 220 255
196 220 255
196 220 255
196 220 255
196 220 255
196 220 255
196 220 255
196 220 255
196 220 255
196 220 255
196 220 255
196 220 255
196 220 255
196 220 255
196 220 255
196 220 255
196 220 255
196 220 255
196 220 255
196 220 255
196 220 255
196 220 255
196 220 255
196 220 255
196 220 255
196 220 255
196 220 255
196 220 255
196 220 255
196 220 255
196 220 255
196 220 255
196 220 255
196 220 255
196 220 255
197 220 255
197 220 255
197 220 255
197 220 255
197 220 255
197 220 255
197 220 255
197 220 255
197 220 255
197 220 255
197 220 255
197 220 255
197 220 255
197 220 255
197 220 255
197 220 255
197 220 255
197 220 255
197 220 255
197 220 255
197 220 255
197 220 255
197 220 255
197 220 255
197 220 255
197 220 255
197 220 255
197 220 255
197 221 255
197 221 255
197 221 255
197 221 255
190 213 248
192 215 249
183 206 240
162 184 217
151 172 205
155 176 209
142 163 194
135 156 188
137 158 190
116 136 166
114 134 163
110 130 161
95 115 144
94 113 143
79 99 128
79 99 128
77 97 128
78 98 128
80 99 128
79 98 127
78 98 128
79 99 128
79 98 128
79 99 128
80 99 128
80 99 128
78 97 126
80 99 127
79 98 127
79 99 128
80 99 128
80 99 127
79 99 128
80 99 128
80 99 127
82 100 128
80 99 128
80 99 127
81 100 128
80 98 126
80 99 128
81 100 128
80 99 128
73 89 114
61 74 94
58 71 91
61 74 94
59 73 94
61 75 95
62 76 98
60 74 95
57 71 92
55 68 87
58 72 93
60 74 94
61 76 97
59 72 92
62 75 94
63 77 99
62 75 95
55 67 85
62 76 97
58 72 92
59 72 92
55 68 87
58 72 91
59 73 93
58 71 90
63 77 99
59 73 94
64 78 98
61 75 96
63 78 99
55 68 87
60 74 96
63 77 97
62 76 96
62 76 98
60 74 96
62 77 99
53 66 84
59 73 93
61 75 96
61 74 94
58 71 91
61 75 95
62 76 97
54 66 85
55 68 88
58 71 91
62 76 97
66 82 105
62 76 97
63 76 97
60 75 97
58 72 92
61 74 94
62 76 96
60 73 93
58 71 91
63 76 95
61 75 96
60 74 94
57 71 92
59 72 92
60 72 91
58 71 91
62 77 99
60 74 94
63 78 99
63 77 99
61 75 96
55 68 87
60 74 95
58 72 92
61 74 94
62 76 97
62 76 96
58 72 92
59 73 93
58 71 91
59 72 92
58 72 92
65 79 100
57 71 91
65 80 103
64 79 100
60 73 93
54 67 87
61 75 95
60 74 95
63 77 99
61 75 96
61 75 95
56 70 91
63 76 97
61 74 95
57 70 90
60 74 94
54 67 87
58 71 90
64 77 98
59 73 93
63 78 100
62 76 97
53 66 84
57 70 90
60 73 93
59 72 91
62 76 97
58 70 89
57 71 91
60 74 94
61 74 95
57 70 89
58 72 92
56 69 88
61 74 94
61 75 96
65 79 100
54 66 85
58 71 90
58 72 92
60 73 93
57 69 88
62 77 99
65 79 100
59 73 93
61 75 97
59 73 93
73 89 114
78 98 128
79 98 127
78 98 127
80 99 128
80 99 128
80 99 128
78 98 128
81 100 128
77 97 126
80 99 128
78 98 128
81 99 128
80 99 128
80 99 128
80 99 128
79 98 128
81 100 128
79 99 128
79 99 128
80 99 128
80 99 128
78 98 128
80 99 128
81 99 128
80 99 128
81 99 128
80 99 128
79 98 128
85 103 131
88 108 138
91 111 140
107 127 157
107 128 158
114 134 163
121 142 172
130 151 183
155 177 209
162 184 217
157 179 212
174 196 230
166 188 221
185 208 243
191 214 249
197 221 255
197 221 255
197 221 255
197 221 255
197 220 255
197 220 255
197 220 255
197 220 255
197 220 255
197 220 255
197 220 255
197 220 255
197 220 255
197 220 255
197 220 255
197 220 255
197 220 255
197 220 255
197 220 255
197 220 255
197 220 255
197 220 255
197 220 255
197 220 255
197 220 255
197 220 255
197 220 255
197 220 255
197 220 255
197 220 255
197 220 255
197 220 255
196 220 255
196 220 255
196 220 255
196 220 255
196 220 255
196 220 255
196 220 255
196 220 255
196 220 255
196 220 255
196 220 255
196 220 255
196 220 255
196 220 255
196 220 255
196 220 255
196 220 255
196 220 255
196 220 255
196 220 255
196 220 255
196 220 255
196 220 255
196 220 255
196 220 255
196 220 255
196 220 255
196 220 255
196 220 255
196 220 255
196 220 255
196 220 255
196 220 255
196 220 255
196 220 255
196 220 255
196 220 255
196 220 255
196 220 255
196 220 255
196 220 255
196 220 255
196 220 255
196 220 255
196 220 255
196 220 255
196 220 255
196 220 255
196 220 255
196 220 255
196 220 255
196 220 255
196 220 255
196 220 255
195 219 255
195 219 255
195 219 255
195 219 255
195 219 255
195 219 255
195 219 255
196 220 255
196 220 255
196 220 255
196 220 255
196 220 255
196 220 255
196 220 255
196 220 255
196 220 255
196 220 255
196 220 255
196 220 255
196 220 255
196 220 255
196 220 255
196 220 255
196 220 255
196 220 255
196 220 255
196 220 255
196 220 255
196 220 255
196 220 255
196 220 255
196 220 255
196 220 255
196 220 255
196 220 255
196 220 255
196 220 255
196 220 255
196 220 255
196 220 255
196 220 255
196 220 255
196 220 255
196 220 255
196 220 255
196 220 255
196 220 255
196 220 255
196 220 255
196 220 255
196 220 255
196 220 255
196 220 255
197 220 255
197 220 255
197 220 255
197 220 255
197 220 255
197 220 255
197 220 255
197 220 255
197 220 255
197 220 255
197 220 255
197 220 255
197 220 255
197 220 255
197 220 255
197 220 255
197 220 255
197 220 255
197 220 255
197 220 255
197 220 255
197 220 255
197 220 255
197 220 255
197 220 255
197 220 255
197 220 255
197 220 255
197 221 255
197 221 255
197 221 255
197 221 255
197 221 255
191 214 249
185 208 243
173 196 230
164 186 220
154 176 209
157 179 212
145 166 198
139 160 192
133 154 185
113 133 163
105 124 154
106 126 156
86 105 133
79 99 128
81 99 128
80 99 128
79 98 127
79 99 128
79 98 128
79 99 128
80 99 128
80 98 127
79 98 128
80 99 128
80 98 127
79 99 128
78 98 128
79 98 126
80 98 127
80 99 128
80 99 128
78 98 128
79 99 128
81 99 128
79 99 128
80 99 128
78 98 128
78 97 126
79 98 128
81 99 128
79 98 127
80 99 128
79 99 128
79 98 128
81 99 127
79 98 127
79 99 128
80 99 128
80 99 128
80 99 127
78 98 128
78 98 128
81 100 128
82 100 128
79 98 127
78 97 126
79 98 127
79 97 124
55 67 85
57 70 90
62 75 95
56 69 88
56 69 89
59 73 93
63 77 97
61 75 95
60 74 93
65 78 99
57 71 91
55 68 89
61 74 94
60 74 95
58 71 90
62 76 97
60 73 94
61 76 97
61 74 95
58 71 91
60 75 96
62 76 96
61 75 95
64 79 102
61 75 96
60 73 93
60 74 93
60 75 96
56 68 87
57 70 90
59 73 93
61 74 94
63 77 100
62 76 98
59 72 93
63 77 97
62 77 99
59 73 93
62 76 98
57 71 91
63 77 99
59 73 94
59 72 93
62 76 97
63 77 99
60 75 96
58 71 90
58 72 92
59 71 91
60 73 92
63 76 95
61 76 98
60 74 94
63 78 99
61 75 95
63 78 100
57 69 87
60 74 95
60 73 94
61 75 95
63 76 97
57 70 90
62 76 97
57 70 91
59 73 94
61 76 97
61 75 95
61 75 96
60 74 95
62 75 95
58 72 92
61 74 95
59 73 94
61 75 96
57 71 90
57 69 88
63 77 100
61 75 96
59 71 91
61 76 98
56 70 90
60 74 94
59 73 93
65 79 100
60 73 93
60 73 94
60 74 96
57 71 92
60 73 93
58 71 91
59 72 92
62 77 98
63 77 98
57 70 90
63 76 96
60 73 93
56 69 89
56 69 88
59 72 92
64 78 99
62 77 98
59 72 92
60 73 93
62 77 98
58 71 91
59 73 94
56 68 87
59 72 91
59 73 93
55 68 88
58 71 90
55 67 86
53 65 83
60 73 93
58 70 89
59 73 93
62 76 98
61 74 94
60 75 97
55 68 86
61 74 94
64 77 98
57 70 89
59 72 93
62 77 99
60 73 92
72 90 116
81 99 128
79 98 126
80 99 127
79 98 127
78 98 127
78 98 128
78 97 126
80 99 128
79 98 128
78 98 127
79 98 128
82 100 128
81 99 128
79 98 127
79 98 128
79 98 128
80 99 128
78 97 127
81 99 128
79 98 126
80 99 128
80 99 128
79 99 128
80 99 128
78 98 128
80 99 128
78 97 126
80 99 128
79 98 128
81 99 126
81 99 127
79 98 128
79 98 127
78 97 127
78 97 127
79 98 128
78 98 128
79 98 127
79 99 128
80 99 128
79 98 128
80 99 128
79 98 128
82 102 131
100 120 150
99 119 149
109 129 160
106 126 156
127 148 180
130 151 183
147 168 200
145 167 199
153 175 208
159 181 215
174 196 230
180 203 236
189 212 247
197 221 255
197 221 255
197 221 255
197 221 255
197 221 255
197 220 255
197 220 255
197 220 255
197 220 255
197 220 255
197 220 255
197 220 255
197 220 255
197 220 255
197 220 255
197 220 255
197 220 255
197 220 255
197 220 255
197 220 255
197 220 255
197 220 255
197 220 255
197 220 255
197 220 255
197 220 255
197 220 255
197 220 255
197 220 255
197 220 255
197 220 255
197 220 255
197 220 255
197 220 255
197 220 255
196 220 255
196 220 255
196 220 255
196 220 255
196 220 255
196 220 255
196 220 255
196 220 255
196 220 255
196 220 255
196 220 255
196 220 255
196 220 255
196 220 255
196 220 255
196 220 255
196 220 255
196 220 255
196 220 255
196 220 255
196 220 255
196 220 255
196 220 255
196 220 255
196 220 255
196 220 255
196 220 255
196 220 255
196 220 255
196 220 255
196 220 255
196 220 255
196 220 255
196 220 255
196 220 255
196 220 255
196 220 255
196 220 255
196 220 255
196 220 255
196 220 255
196 220 255
196 220 255
196 220 255
196 220 255
196 220 255
196 220 255
196 220 255
196 220 255
196 220 255
196 220 255
196 220 255
196 220 255
196 220 255
196 220 255
196 220 255
196 220 255
196 220 255
196 220 255
196 220 255
196 220 255
196 220 255
196 220 255
196 220 255
196 220 255
196 220 255
196 220 255
196 220 255
196 220 255
196 220 255
196 220 255
196 220 255
196 220 255
196 220 255
197 220 255
197 220 255
197 220 255
197 220 255
197 220 255
197 220 255
197 220 255
197 220 255
197 220 255
197 220 255
197 220 255
197 220 255
197 220 255
197 220 255
197 220 255
197 220 255
197 220 255
197 220 255
197 220 255
197 220 255
197 220 255
197 220 255
197 220 255
197 220 255
197 220 255
197 220 255
197 220 255
197 220 255
197 220 255
197 220 255
197 221 255
197 221 255
197 221 255
197 221 255
197 221 255
197 221 255
190 213 248
181 204 238
168 190 224
168 190 224
150 172 204
157 178 211
135 156 188
119 139 170
118 138 168
106 127 157
91 111 142
88 107 135
82 101 130
81 99 128
79 98 128
79 98 127
79 98 127
80 99 128
80 99 128
80 99 128
79 98 127
78 98 127
79 98 128
78 97 126
79 99 128
81 99 128
78 98 128
80 99 128
79 98 128
81 99 128
79 98 127
78 98 127
80 99 128
81 100 128
79 98 128
79 98 128
79 99 128
78 98 128
79 98 128
79 99 128
79 98 128
80 99 128
81 99 128
81 99 127
80 99 128
79 98 127
79 98 127
80 99 128
80 99 128
80 99 127
78 97 126
80 99 128
81 99 128
81 99 125
79 98 128
79 98 127
79 98 127
78 98 127
80 99 128
78 97 126
80 99 128
78 98 128
79 98 128
80 99 126
79 99 128
79 99 128
77 96 125
79 98 126
78 98 128
80 98 126
77 96 124
62 76 97
60 73 93
60 74 95
57 70 90
61 74 94
58 71 91
58 71 91
60 74 95
59 72 93
61 75 95
58 72 91
57 71 91
61 74 94
59 74 95
62 76 96
62 76 97
57 70 88
56 70 91
57 70 90
57 71 92
55 68 88
57 71 91
62 76 97
58 71 91
59 73 94
57 70 89
60 73 93
60 74 94
57 69 88
59 73 93
60 73 93
62 76 97
59 73 94
55 68 87
59 73 93
56 69 88
57 71 91
61 74 93
56 69 89
58 72 92
59 71 90
53 65 84
56 68 87
59 72 91
62 75 94
55 68 88
59 72 92
57 70 89
61 75 97
62 76 98
62 74 93
57 69 89
64 78 98
61 75 97
58 71 91
55 67 86
58 71 91
58 71 91
57 71 92
58 71 91
60 73 93
60 74 95
61 75 96
60 73 93
56 69 87
60 74 96
56 70 90
56 68 87
59 72 93
57 70 89
60 74 94
62 76 97
59 73 93
62 76 97
57 69 88
58 71 91
60 74 93
60 73 93
58 71 91
66 79 99
63 77 98
62 76 97
59 73 93
59 73 94
60 74 94
56 69 88
57 69 88
62 76 97
58 71 91
61 74 93
59 72 92
60 74 95
55 68 86
60 75 96
59 73 93
60 74 96
55 68 89
60 74 95
59 73 94
60 73 93
61 75 97
55 68 88
58 71 90
63 77 98
57 70 90
56 70 89
60 72 91
55 67 86
62 75 96
63 77 98
57 71 91
57 69 87
60 74 94
57 70 90
55 68 87
59 74 95
59 73 92
59 72 92
64 78 98
58 72 91
62 75 95
57 69 88
60 74 94
61 75 96
62 75 95
59 73 94
77 97 126
78 98 128
80 99 128
77 97 126
78 98 128
78 98 128
79 98 128
81 100 128
78 98 128
79 98 127
79 98 126
79 98 127
79 98 127
81 99 128
79 98 127
79 99 128
78 98 128
79 98 127
78 98 128
79 99 128
78 98 128
78 97 127
79 98 128
77 96 126
78 97 126
79 98 127
80 99 128
77 96 125
80 99 128
78 98 128
79 98 127
79 98 128
80 98 127
79 98 128
79 99 128
78 98 128
78 98 126
82 100 128
79 98 128
79 99 128
80 99 128
81 100 128
79 99 128
80 99 127
78 97 126
80 99 128
78 98 128
81 99 128
79 98 128
80 99 128
77 97 128
78 98 128
79 98 127
80 99 128
80 99 128
81 99 128
80 99 128
79 98 128
82 102 131
89 109 139
100 120 151
105 125 154
121 141 171
116 137 167
126 147 179
147 168 200
157 179 212
168 190 224
163 185 218
188 211 245
188 211 245
197 221 255
197 221 255
197 221 255
197 221 255
197 221 255
197 221 255
197 220 255
197 220 255
197 220 255
197 220 255
197 220 255
197 220 255
197 220 255
197 220 255
197 220 255
197 220 255
197 220 255
197 220 255
197 220 255
197 220 255
197 220 255
197 220 255
197 220 255
197 220 255
197 220 255
197 220 255
197 220 255
197 220 255
197 220 255
197 220 255
197 220 255
197 220 255
197 220 255
197 220 255
197 220 255
197 220 255
197 220 255
196 220 255
196 220 255
196 220 255
196 220 255
196 220 255
196 220 255
196 220 255
196 220 255
196 220 255
196 220 255
196 220 255
196 220 255
196 220 255
196 220 255
196 220 255
196 220 255
196 220 255
196 220 255
196 220 255
196 220 255
196 220 255
196 220 255
196 220 255
196 220 255
196 220 255
196 220 255
196 220 255
196 220 255
196 220 255
196 220 255
196 220 255
196 220 255
196 220 255
196 220 255
196 220 255
196 220 255
196 220 255
196 220 255
196 220 255
196 220 255
196 220 255
196 220 255
196 220 255
196 220 255
197 220 255
197 220 255
197 220 255
197 220 255
197 220 255
197 220 255
197 220 255
197 220 255
197 220 255
197 220 255
197 220 255
197 220 255
197 220 255
197 220 255
197 220 255
197 220 255
197 220 255
197 220 255
197 220 255
197 220 255
197 220 255
197 220 255
197 220 255
197 220 255
197 220 255
197 220 255
197 220 255
197 220 255
197 220 255
197 220 255
197 220 255
197 221 255
197 221 255
197 221 255
197 221 255
197 221 255
197 221 255
197 221 255
190 213 248
181 203 238
174 196 230
173 195 229
156 178 211
151 172 203
139 160 192
126 147 177
132 153 185
108 129 160
104 124 153
92 112 142
80 100 129
81 100 128
79 98 128
78 97 126
79 99 128
80 99 128
79 98 127
80 99 128
79 98 127
79 98 127
80 99 128
79 98 128
81 99 128
78 98 128
80 99 128
81 99 127
79 98 127
79 99 128
80 99 128
78 98 128
79 98 128
79 98 127
78 98 126
79 99 128
82 100 128
79 98 128
78 97 127
77 97 127
78 98 128
78 98 128
80 99 127
80 99 128
80 99 128
78 97 126
81 99 128
80 99 127
78 97 126
79 98 127
77 97 126
79 99 128
78 98 128
77 97 126
80 99 128
80 99 128
80 99 128
77 96 125
80 99 127
78 97 125
78 97 126
78 97 127
79 98 128
77 97 126
78 97 126
78 98 127
80 99 128
80 98 127
81 99 128
77 97 128
79 98 126
80 98 127
80 99 128
79 98 126
79 98 127
79 99 128
79 98 128
76 96 126
79 99 128
79 98 126
77 97 126
79 97 125
79 98 128
79 98 127
66 80 102
58 70 88
57 70 89
55 68 87
57 70 90
58 71 92
59 72 92
63 77 97
62 76 97
59 73 93
59 71 90
55 68 87
59 73 93
60 74 95
61 75 96
59 73 93
59 73 94
59 72 92
58 71 90
59 72 93
60 74 95
59 72 91
59 72 92
62 75 95
60 74 94
60 74 94
56 69 88
59 73 92
62 76 97
58 71 91
63 78 100
54 67 87
58 72 93
63 77 97
61 75 96
61 74 95
55 68 87
62 77 99
57 70 90
60 73 93
60 74 95
61 75 96
60 74 94
61 75 96
60 72 92
60 73 93
63 78 100
57 70 90
58 72 92
58 71 90
64 77 98
55 68 88
63 77 97
57 71 91
63 77 98
55 69 88
58 71 91
61 75 95
61 74 95
58 72 91
62 75 96
60 74 96
54 66 85
54 67 86
59 72 93
59 73 95
56 69 89
59 72 92
58 72 93
58 71 90
57 71 90
58 72 93
59 72 91
58 70 90
58 72 92
56 69 88
59 72 92
60 73 93
61 75 95
63 77 98
56 69 88
58 71 90
59 73 94
55 68 86
55 68 87
55 67 87
58 72 92
59 72 93
59 73 93
61 74 93
60 74 94
58 70 89
59 73 96
59 72 93
59 72 92
58 72 93
59 72 91
60 74 94
60 73 94
59 72 91
57 69 88
59 72 92
61 75 95
58 71 91
56 69 89
62 76 96
59 73 93
59 72 92
58 72 93
56 69 88
56 69 89
57 70 90
63 76 97
57 70 90
56 69 88
57 70 88
59 72 93
57 70 89
59 73 93
59 72 91
61 74 94
60 73 93
61 74 93
60 73 94
58 71 90
68 84 107
77 97 126
79 98 127
78 98 128
79 97 125
77 96 125
80 99 128
80 98 126
80 99 128
80 98 126
80 99 128
79 98 128
77 96 126
79 98 128
77 97 127
80 99 128
80 99 127
78 98 127
81 99 127
79 99 128
80 99 128
81 100 127
79 98 127
78 97 126
79 98 127
78 98 128
80 99 128
80 99 127
80 99 128
77 97 128
78 97 126
79 99 128
81 99 128
79 98 128
80 99 126
80 99 128
78 98 128
80 99 128
80 99 128
80 99 128
78 98 128
80 99 128
78 97 126
80 99 128
80 99 128
80 99 128
79 98 127
79 98 127
78 98 127
80 99 127
80 99 128
80 99 127
77 97 126
81 100 128
78 98 127
78 97 126
79 98 128
79 99 128
80 99 128
80 99 128
80 99 128
80 99 128
79 99 128
80 99 128
80 99 128
78 98 128
78 98 128
80 98 127
80 99 128
81 100 128
79 98 128
79 98 128
82 102 131
87 105 133
102 122 151
114 135 165
118 139 170
126 147 179
136 157 189
157 178 211
153 175 208
164 186 218
170 193 226
182 205 239
191 214 249
197 221 255
197 221 255
197 221 255
197 221 255
197 221 255
197 221 255
197 221 255
197 221 255
197 220 255
197 220 255
197 220 255
197 220 255
197 220 255
197 220 255
197 220 255
197 220 255
197 220 255
197 220 255
197 220 255
197 220 255
197 220 255
197 220 255
197 220 255
197 220 255
197 220 255
197 220 255
197 220 255
197 220 255
197 220 255
197 220 255
197 220 255
197 220 255
197 220 255
197 220 255
197 220 255
197 220 255
197 220 255
197 220 255
196 220 255
196 220 255
196 220 255
196 220 255
196 220 255
196 220 255
196 220 255
196 220 255
196 220 255
196 220 255
196 220 255
196 220 255
196 220 255
196 220 255
196 220 255
196 220 255
197 220 255
197 220 255
197 220 255
197 220 255
197 220 255
197 220 255
197 220 255
197 220 255
197 220 255
197 220 255
197 220 255
197 220 255
197 220 255
197 220 255
197 220 255
197 220 255
197 220 255
197 220 255
197 220 255
197 220 255
197 220 255
197 220 255
197 220 255
197 220 255
197 220 255
197 220 255
197 220 255
197 220 255
197 220 255
197 220 255
197 220 255
197 221 255
197 221 255
197 221 255
197 221 255
197 221 255
197 221 255
197 221 255
197 221 255
196 219 254
193 216 250
175 198 231
181 203 238
167 189 222
152 174 207
139 160 192
129 150 181
124 145 177
105 126 157
104 124 153
95 114 143
84 103 131
80 99 128
81 100 128
81 100 128
80 99 128
79 98 128
80 98 127
79 98 128
80 99 128
79 98 128
79 98 127
80 99 128
81 99 128
80 98 127
79 98 128
78 98 128
82 100 128
78 98 128
78 97 126
78 98 128
80 99 128
78 98 128
80 99 128
80 99 128
79 98 127
79 99 128
78 98 128
79 98 128
80 99 127
79 98 127
80 99 128
80 99 128
79 98 126
77 97 127
79 98 127
78 98 128
78 97 126
79 99 128
80 99 128
79 98 126
78 98 127
80 99 128
80 99 127
79 98 127
79 98 127
79 98 128
79 98 127
79 98 126
78 98 128
79 98 126
77 96 126
79 98 128
79 98 127
80 99 128
79 98 127
79 98 127
79 98 126
79 98 127
81 100 128
78 97 127
79 98 126
78 97 127
79 98 127
80 99 126
79 99 128
78 97 126
77 97 127
81 99 128
78 98 127
78 98 128
79 98 128
77 96 125
80 99 128
78 98 127
79 98 128
79 98 126
81 100 128
77 97 126
79 98 127
80 99 128
78 97 125
80 98 126
78 97 126
78 97 127
79 99 128
69 87 113
63 77 98
56 69 88
60 73 93
58 71 90
61 75 95
58 71 90
60 74 94
61 75 94
58 72 93
57 70 89
56 69 88
61 75 95
61 74 94
57 69 87
57 70 90
61 75 97
59 73 93
59 73 93
57 70 91
60 74 94
60 74 95
57 70 88
59 72 92
59 73 93
60 74 95
56 69 89
61 75 96
57 70 89
63 77 99
56 68 88
55 69 89
57 70 89
61 74 94
55 67 85
55 68 88
58 71 91
57 69 89
59 73 94
59 72 91
63 76 97
60 74 94
66 81 102
60 74 95
62 76 97
57 70 90
57 70 89
53 65 84
59 72 92
58 70 89
59 72 91
60 74 94
60 74 95
64 78 99
59 73 93
56 69 88
58 72 93
59 73 93
59 72 92
60 74 94
61 75 96
58 72 92
67 80 101
55 68 86
61 74 95
61 75 96
59 74 95
59 73 93
56 70 89
58 71 91
58 71 91
59 73 93
62 75 95
53 65 84
59 73 94
59 73 94
60 73 93
58 70 89
57 70 90
58 72 92
59 73 93
60 74 95
60 73 93
54 68 88
58 71 90
60 74 95
60 75 96
57 71 91
56 70 90
61 76 97
57 70 89
59 72 92
59 72 93
64 78 99
59 74 96
64 78 99
57 69 88
58 71 91
55 68 87
60 73 92
59 72 91
59 73 92
62 76 96
58 71 91
57 71 93
62 75 96
61 74 95
53 66 84
62 76 97
55 68 87
61 75 97
56 69 87
56 69 89
57 70 89
57 70 89
58 71 92
58 72 92
56 70 90
61 74 94
56 69 89
60 73 93
59 72 91
57 69 88
59 72 92
56 69 88
71 87 110
78 98 128
79 98 126
78 97 126
81 99 128
80 99 128
78 97 126
79 98 127
81 100 128
81 99 127
79 98 126
82 100 128
80 99 128
79 98 128
79 98 127
80 99 128
79 98 127
80 99 128
80 99 128
80 99 128
79 98 126
80 99 127
80 99 128
79 98 127
79 98 127
79 98 128
79 98 128
80 99 128
79 98 128
78 97 127
78 98 127
78 98 127
79 98 126
79 98 126
76 96 125
78 98 128
78 97 127
81 99 128
78 97 127
79 98 128
79 99 128
79 98 128
80 99 127
79 99 128
78 98 128
80 99 127
79 98 128
80 98 127
79 98 127
79 99 128
81 100 128
81 100 128
79 98 128
80 98 127
78 98 127
78 98 127
80 99 127
79 98 127
79 98 127
80 99 128
79 98 127
80 99 128
80 99 128
78 97 127
79 98 128
81 100 128
79 98 127
79 98 127
79 98 128
78 98 128
81 100 128
80 99 128
79 98 126
80 99 128
80 99 128
81 100 128
79 98 128
79 99 128
79 99 128
80 99 128
80 99 128
79 98 128
79 99 128
81 100 128
81 100 128
80 99 128
96 116 145
100 120 149
107 127 158
123 143 174
133 154 184
142 164 195
155 177 209
150 172 204
175 198 231
178 201 235
187 210 244
197 221 255
197 221 255
197 221 255
197 221 255
197 221 255
197 221 255
197 221 255
197 221 255
197 220 255
197 220 255
197 220 255
197 220 255
197 220 255
197 220 255
197 220 255
197 220 255
197 220 255
197 220 255
197 220 255
197 220 255
197 220 255
197 220 255
197 220 255
197 220 255
197 220 255
197 220 255
197 220 255
197 220 255
197 220 255
197 220 255
197 220 255
197 220 255
197 220 255
197 220 255
197 220 255
197 220 255
197 220 255
197 220 255
197 220 255
197 220 255
197 220 255
197 220 255
197 220 255
197 220 255
197 220 255
197 220 255
197 220 255
197 220 255
197 220 255
197 220 255
197 220 255
197 220 255
197 220 255
197 220 255
197 220 255
197 220 255
197 220 255
197 220 255
197 220 255
197 221 255
197 221 255
197 221 255
197 221 255
197 221 255
197 221 255
197 221 255
197 221 255
197 221 255
197 221 255
197 221 255
188 211 245
177 199 232
169 191 225
157 179 212
153 174 207
142 163 195
128 149 180
123 143 174
111 131 162
98 118 148
92 111 140
83 102 131
80 99 127
79 99 128
80 99 128
78 98 128
79 98 128
80 99 128
79 98 128
80 99 128
80 99 128
79 98 128
80 98 127
78 98 128
79 99 128
80 99 128
78 97 127
80 99 128
80 99 128
79 98 128
79 99 128
78 98 127
78 98 128
80 99 128
80 99 128
81 100 128
80 99 128
80 99 128
80 99 128
78 97 127
80 99 128
79 98 128
80 99 128
80 99 128
79 98 128
79 98 127
80 99 127
78 98 128
80 98 127
79 98 127
80 99 128
80 99 128
79 98 127
79 98 126
79 98 127
78 98 128
79 98 127
81 99 128
80 99 128
78 98 127
79 99 128
80 99 128
79 99 128
81 99 128
79 98 128
79 98 128
79 98 128
80 99 128
80 99 127
79 98 128
80 99 127
78 97 126
79 99 128
78 98 127
81 99 126
78 97 126
77 97 126
81 100 128
79 98 126
79 98 126
77 96 125
80 99 127
79 98 127
79 98 127
77 96 124
76 96 125
79 98 127
78 98 128
79 98 128
77 97 126
79 98 127
77 97 126
79 98 126
79 97 125
79 98 127
78 98 126
79 98 127
80 99 127
77 97 127
78 98 127
78 98 128
80 99 127
77 96 125
79 98 127
81 99 128
80 98 127
79 98 127
79 98 127
75 93 120
61 76 98
55 68 86
58 71 90
59 72 93
61 74 94
53 65 84
57 71 91
63 77 98
60 73 93
61 74 94
54 67 85
59 72 93
58 71 91
58 72 94
60 74 94
59 73 93
65 79 101
61 75 96
53 64 82
60 73 93
60 73 94
60 73 93
63 77 98
58 72 92
58 70 89
57 70 89
57 71 91
54 66 84
62 77 98
55 68 88
61 74 93
56 68 87
52 63 80
61 74 93
59 73 93
63 77 98
58 71 91
58 72 92
56 69 88
54 67 86
58 71 90
52 64 83
58 71 91
57 71 92
58 71 90
56 69 88
58 71 89
62 76 98
57 70 89
60 75 97
63 77 100
58 71 91
61 74 94
62 75 96
61 74 95
57 71 90
57 71 91
60 74 95
60 73 93
58 71 91
55 68 88
61 73 92
60 73 93
61 75 95
57 69 88
57 71 91
57 70 91
63 77 97
58 71 91
57 70 89
66 81 102
57 70 88
58 72 92
59 72 91
61 75 96
60 74 95
59 72 91
58 71 90
59 72 91
57 70 90
59 73 93
57 71 92
55 67 86
59 73 92
60 74 95
60 73 92
55 68 88
59 73 94
61 75 95
61 75 96
60 74 94
57 70 89
66 79 100
60 72 92
58 72 92
61 75 97
57 71 91
56 69 88
57 70 89
55 68 87
57 71 92
59 73 93
59 72 92
59 72 91
63 77 98
55 68 87
62 76 97
65 79 100
56 69 88
60 73 93
61 74 95
58 70 88
57 70 89
54 67 87
61 75 96
58 70 89
56 69 88
55 67 86
58 72 92
59 72 91
54 67 86
57 70 89
58 71 90
57 71 91
77 95 123
77 97 126
78 98 127
78 97 124
79 99 128
79 98 128
80 98 126
81 99 127
81 100 128
78 98 127
79 98 127
77 97 128
78 97 125
79 99 128
80 99 128
79 97 126
78 98 127
80 99 128
80 99 127
77 97 127
79 99 128
78 97 125
79 98 126
78 97 127
79 98 128
79 98 127
79 98 127
80 99 127
79 98 127
79 98 128
80 98 126
80 98 126
79 98 128
78 98 127
80 98 126
78 97 127
79 98 128
78 97 126
82 100 128
78 98 127
80 99 127
80 99 128
77 97 127
78 97 127
79 98 127
79 98 126
79 98 128
78 98 128
78 98 128
79 99 128
80 99 128
79 98 126
80 98 127
80 99 128
81 99 128
80 99 128
79 98 127
79 99 128
81 99 128
79 98 128
80 99 128
80 99 127
79 99 128
80 99 128
78 98 127
80 99 128
79 99 128
77 97 127
80 99 128
79 98 127
79 98 128
79 99 128
80 99 128
80 99 128
81 99 128
80 99 128
80 99 128
79 99 128
78 98 128
79 98 128
81 100 128
80 98 127
80 99 128
80 99 128
79 98 128
79 99 128
80 99 128
80 99 128
78 98 128
79 98 128
80 99 128
80 99 128
78 98 127
79 98 128
79 98 127
81 100 128
79 98 128
79 99 128
88 108 138
98 118 148
109 129 160
125 145 176
133 154 185
152 174 207
147 168 200
157 179 212
168 190 224
177 200 234
190 213 248
197 221 255
197 221 255
197 221 255
197 221 255
197 221 255
197 221 255
197 221 255
197 221 255
197 221 255
197 221 255
197 221 255
197 220 255
197 220 255
197 220 255
197 220 255
197 220 255
197 220 255
197 220 255
197 220 255
197 220 255
197 220 255
197 220 255
197 220 255
197 220 255
197 220 255
197 220 255
197 220 255
197 220 255
197 220 255
197 220 255
197 220 255
197 220 255
197 220 255
197 220 255
197 221 255
197 221 255
197 221 255
197 221 255
197 221 255
197 221 255
197 221 255
197 221 255
197 221 255
197 221 255
197 221 255
196 219 254
188 211 245
181 204 238
159 181 213
166 188 221
143 165 198
126 146 177
125 146 177
134 155 186
114 134 165
104 125 156
90 110 139
83 102 131
80 99 128
78 98 126
79 98 128
80 99 128
80 99 127
81 100 128
79 98 128
79 98 128
79 99 128
79 98 126
79 98 127
79 99 128
79 99 128
79 99 128
81 100 128
78 98 128
78 98 128
80 99 127
80 99 128
78 97 127
79 98 127
80 99 128
80 98 127
80 99 128
80 99 128
79 98 127
80 98 126
80 99 128
80 99 128
81 99 128
80 98 126
81 99 128
79 98 127
78 98 127
80 98 125
79 98 127
79 98 128
79 99 128
79 98 128
78 98 127
80 99 128
79 98 127
78 97 127
77 97 128
78 97 127
79 98 127
79 98 128
79 99 128
79 98 128
78 98 128
80 99 128
80 99 128
77 97 127
78 97 126
80 99 128
79 98 127
79 98 127
80 99 128
78 97 127
78 98 128
80 98 127
79 98 128
79 98 126
79 98 126
78 98 128
79 98 128
79 99 128
80 99 128
79 98 127
81 99 127
78 97 126
79 98 128
79 98 128
78 97 126
79 98 126
79 99 128
79 98 127
77 95 124
80 99 127
78 98 127
77 96 125
80 98 126
79 98 127
80 98 126
78 97 127
79 98 126
78 98 127
79 98 127
79 99 128
80 98 126
78 97 126
78 98 127
79 98 127
80 99 128
79 98 127
78 97 126
80 99 128
76 96 125
79 98 126
80 99 126
78 96 124
80 98 127
80 99 128
80 99 127
81 100 127
77 97 126
78 96 124
79 98 126
78 97 127
62 75 96
58 71 90
54 66 84
57 71 90
56 69 88
54 67 86
59 73 93
58 71 91
58 71 91
62 76 97
57 71 91
56 69 88
59 72 92
57 71 91
60 73 93
57 70 90
58 71 91
57 70 89
54 67 85
58 70 89
57 71 91
63 78 99
60 74 95
55 67 85
56 69 88
59 72 92
60 73 94
59 71 89
57 70 89
59 73 93
56 69 88
60 72 91
57 71 91
61 75 96
58 71 91
61 75 95
56 69 88
58 71 91
60 74 94
59 72 92
57 71 91
58 71 91
61 75 95
54 67 87
55 67 86
59 73 93
59 72 90
58 72 93
59 73 94
60 73 92
62 76 97
58 72 91
61 74 93
62 76 97
61 74 94
59 72 92
58 71 90
59 72 92
54 67 86
58 72 93
55 68 86
57 70 89
60 72 92
61 75 96
67 82 104
50 64 84
60 73 93
56 69 88
57 70 89
58 71 91
59 72 92
59 72 92
54 66 84
56 68 87
59 73 94
58 70 89
59 72 90
61 75 96
64 78 100
58 72 91
57 70 90
62 77 98
61 74 94
59 73 93
58 71 90
58 70 89
56 69 87
57 70 90
58 72 92
58 70 88
60 74 95
61 74 95
59 72 92
58 71 91
58 71 91
58 71 91
58 70 89
60 74 94
55 68 87
57 70 89
58 72 93
58 71 90
62 77 99
60 74 94
53 65 82
59 72 92
60 73 92
58 71 91
60 74 95
57 70 88
55 68 86
58 71 91
58 71 90
59 72 92
62 77 98
60 73 94
58 71 90
59 72 92
60 72 91
60 73 93
56 69 88
61 74 93
59 72 92
63 79 102
78 98 128
78 97 126
79 99 128
78 97 125
79 99 128
78 97 125
80 98 125
80 99 128
77 97 126
79 98 126
80 99 128
78 98 128
80 98 127
78 98 128
78 98 128
80 98 126
79 98 126
79 98 126
80 99 128
78 97 126
81 99 127
78 97 127
80 99 128
78 96 124
80 99 128
78 97 127
79 98 126
78 97 127
79 99 128
79 98 126
79 99 128
79 98 127
77 97 127
80 99 128
76 96 124
78 98 127
78 98 126
80 99 128
79 98 128
79 99 128
79 98 127
79 99 128
79 98 127
80 99 127
80 99 128
77 97 127
78 98 127
79 97 125
78 97 127
78 97 127
78 97 125
79 97 125
79 98 128
79 98 128
80 99 128
78 98 127
78 97 126
80 99 128
79 98 126
79 98 126
79 98 127
80 99 128
80 99 128
79 98 127
79 98 128
79 98 126
79 98 127
80 99 128
80 98 126
80 99 128
78 98 128
80 99 128
79 99 128
79 98 128
81 100 128
81 99 128
79 98 128
77 97 126
78 97 126
78 98 128
78 97 127
78 98 127
77 97 128
81 99 127
79 98 128
79 99 128
79 98 128
78 98 128
79 99 128
79 99 128
79 99 128
76 97 127
78 98 127
79 99 128
79 98 128
77 97 128
78 98 128
80 99 128
78 97 126
80 99 128
80 99 128
81 99 128
80 99 128
80 99 128
80 99 128
79 98 128
80 99 128
80 99 128
80 99 128
79 99 129
94 113 142
109 128 158
108 128 158
115 136 167
126 146 177
138 159 190
153 174 207
161 184 217
174 196 230
182 204 238
190 213 248
197 221 255
197 221 255
197 221 255
197 221 255
197 221 255
197 221 255
197 221 255
197 221 255
197 221 255
197 221 255
197 221 255
197 221 255
197 220 255
197 220 255
197 220 255
197 220 255
197 220 255
197 221 255
197 221 255
197 221 255
197 221 255
197 221 255
195 218 253
182 205 239
171 193 226
162 184 217
151 172 204
133 155 186
139 160 192
114 135 166
118 138 168
101 120 149
93 113 143
82 101 130
80 99 128
80 99 128
80 99 128
78 98 128
79 98 128
80 99 128
79 98 128
80 99 128
80 99 128
78 98 128
79 98 127
77 97 128
79 98 128
80 98 127
80 99 128
79 98 128
79 99 128
80 99 128
81 100 128
79 99 128
81 100 128
79 99 128
78 98 127
78 98 128
79 98 127
79 99 128
82 100 128
79 99 128
79 98 128
80 99 128
77 96 125
79 99 128
80 99 128
80 98 126
79 98 128
80 99 128
79 99 128
80 99 128
79 98 128
78 98 128
79 99 128
78 98 127
79 98 127
78 98 127
79 98 128
80 99 128
79 98 127
79 98 127
78 97 127
78 98 128
80 99 128
79 98 127
80 99 127
79 98 126
81 99 128
81 99 127
80 99 127
78 97 126
79 98 127
80 99 128
79 98 128
80 99 128
80 99 128
79 98 126
79 98 128
78 97 126
78 98 128
80 99 128
80 99 126
79 98 127
81 100 128
79 98 128
80 99 128
80 99 127
79 99 128
78 97 126
78 98 127
78 98 127
78 97 126
80 99 128
78 97 125
80 98 127
77 96 125
79 98 127
80 99 128
78 97 127
80 99 127
78 97 126
76 96 125
77 96 124
79 98 126
79 99 128
79 98 126
77 97 126
78 96 123
77 96 124
79 98 126
79 99 128
78 97 126
79 99 128
77 97 125
80 99 128
77 96 124
77 97 128
80 99 128
77 97 126
80 99 128
78 97 126
80 98 127
80 99 128
79 98 128
80 99 127
78 97 126
76 96 125
76 96 125
79 98 127
78 97 126
79 97 126
79 98 126
80 98 126
77 95 123
71 88 113
59 72 91
57 69 88
55 68 88
54 66 86
62 76 97
61 74 95
56 69 89
61 73 92
63 76 97
60 73 93
59 73 93
56 68 87
57 70 89
62 76 96
59 72 91
58 71 92
57 71 92
59 71 90
61 74 95
61 73 92
57 69 88
63 77 98
57 69 88
54 66 84
60 74 96
55 68 88
60 74 95
58 71 90
59 72 92
54 67 85
59 72 91
63 77 97
56 69 88
55 69 88
53 66 85
57 70 89
60 74 94
54 66 85
58 71 91
56 69 88
57 71 92
56 69 87
57 69 88
64 78 99
60 74 94
57 70 90
56 69 88
58 71 90
58 71 90
59 72 90
58 71 92
59 71 91
58 72 92
59 72 92
60 73 92
57 71 93
60 74 95
59 71 91
63 76 96
58 71 91
60 73 93
56 68 86
58 71 91
56 69 88
63 78 100
57 70 89
58 71 92
59 72 92
59 71 91
59 73 93
64 78 99
59 73 93
57 70 89
56 69 88
61 74 95
59 72 92
57 70 89
64 77 97
60 74 94
55 68 87
54 66 84
53 67 87
60 74 95
60 73 93
62 76 97
57 69 88
57 70 90
55 68 88
56 69 88
56 70 89
55 67 85
64 78 99
60 74 94
60 73 92
60 73 92
58 71 92
54 67 87
58 71 91
58 71 91
58 71 90
58 70 89
59 73 92
57 70 90
56 69 88
55 68 87
57 71 91
61 74 94
58 71 90
67 80 101
54 66 84
59 72 92
64 78 100
57 70 90
58 71 90
62 76 97
61 74 94
58 71 90
56 67 85
59 72 92
54 65 83
61 75 97
56 69 88
63 78 100
77 97 126
78 97 126
79 97 126
79 98 126
80 99 128
78 97 126
77 97 127
77 96 125
77 96 125
78 98 128
79 98 128
78 97 126
79 98 128
78 97 127
77 96 125
78 97 126
80 99 127
77 97 127
78 97 126
78 97 125
79 98 127
79 97 126
81 100 128
78 97 126
79 98 128
81 99 127
77 97 128
81 99 128
79 98 126
79 98 126
79 98 127
81 99 128
78 98 128
78 98 127
77 97 126
78 96 124
79 98 126
79 98 126
79 98 126
81 100 128
78 97 125
79 98 127
79 98 127
78 97 125
78 97 125
80 99 127
80 99 128
79 99 128
79 98 127
80 99 128
78 98 127
79 98 127
80 99 127
78 98 128
78 98 128
80 98 127
78 98 127
78 97 127
80 98 127
79 98 128
81 100 127
80 99 128
76 95 123
80 99 128
76 96 126
81 100 128
80 98 127
78 98 128
79 98 127
78 98 127
79 99 128
79 98 127
79 99 128
81 99 128
79 99 128
80 99 127
80 99 128
81 99 128
79 99 128
82 100 128
80 99 128
80 99 128
81 100 128
79 98 128
81 99 128
80 99 128
80 99 128
80 99 128
80 99 128
80 99 128
81 99 127
79 99 128
79 98 128
80 99 128
79 99 128
78 98 128
80 99 128
79 98 127
79 98 128
79 99 128
80 99 128
79 98 127
80 99 128
80 99 127
80 99 127
79 98 128
79 98 128
81 99 128
81 100 128
79 98 127
81 99 127
79 98 128
79 99 128
77 97 128
79 98 127
80 99 128
82 100 128
77 97 128
80 99 128
79 98 128
81 99 128
87 106 135
93 114 144
100 120 151
106 126 157
118 139 170
135 156 188
139 160 192
146 168 200
170 192 225
170 192 226
189 212 247
195 218 253
197 221 255
197 221 255
197 221 255
197 221 255
197 221 255
128 150 181
122 143 175
98 118 148
95 115 144
87 106 135
79 98 127
82 100 128
79 98 128
78 98 128
79 98 127
79 99 128
79 98 128
79 98 127
79 98 127
80 99 128
80 99 127
78 98 128
79 98 128
80 99 128
78 97 126
80 99 128
80 98 127
79 98 127
77 97 128
79 98 128
80 99 127
78 98 128
77 97 127
79 98 128
79 98 127
80 99 128
78 98 128
79 98 128
78 98 128
81 100 128
79 98 127
79 98 128
78 98 128
80 99 128
79 99 128
79 99 128
79 98 128
78 97 126
79 98 128
80 99 128
79 98 128
80 99 127
78 98 127
80 99 128
80 99 128
78 98 127
80 99 128
79 98 128
79 99 128
80 99 128
80 99 128
79 98 127
78 98 127
77 96 124
79 99 128
80 99 128
80 99 128
82 100 127
81 99 128
79 99 128
81 99 128
79 98 126
79 99 128
78 97 126
77 96 125
79 98 127
78 98 128
79 99 128
79 98 128
81 100 128
79 98 127
81 100 128
78 98 127
81 99 128
79 98 127
79 98 128
79 98 127
80 99 126
79 98 127
80 99 127
79 98 127
77 97 127
79 97 126
79 98 127
78 97 126
78 97 126
78 96 125
78 98 127
79 97 125
77 96 125
79 98 126
78 97 127
77 97 127
78 97 126
78 96 124
79 98 127
79 98 128
78 96 123
79 98 127
78 97 125
79 97 126
79 99 128
79 98 127
79 98 128
80 99 127
80 98 127
78 98 126
78 98 127
78 98 126
77 96 126
78 98 127
79 98 127
78 97 126
80 99 128
80 98 126
77 96 124
79 97 125
79 98 127
78 98 127
80 98 126
79 98 127
77 97 128
77 96 125
79 98 127
80 98 127
77 97 126
79 98 126
78 96 124
77 96 123
79 98 127
78 97 125
77 97 126
78 98 127
76 95 123
60 73 92
52 63 81
58 71 90
56 69 88
61 75 96
57 70 89
58 70 89
57 69 88
56 69 88
55 68 88
55 68 88
58 72 92
56 69 89
55 67 86
58 72 93
54 67 86
59 73 93
62 76 97
59 72 93
59 74 95
61 75 97
55 68 87
57 70 89
60 73 93
56 69 89
60 73 93
57 70 89
58 71 92
65 79 101
57 69 88
56 69 89
57 71 91
59 71 90
55 68 87
59 73 93
57 70 89
58 71 91
57 71 90
58 70 89
58 72 93
55 68 87
59 74 95
60 74 94
57 69 88
63 77 98
57 70 89
60 74 95
55 67 86
61 74 94
60 74 96
60 73 93
57 70 88
60 74 95
58 71 92
56 69 88
56 70 90
60 74 95
63 76 95
59 73 94
60 74 95
62 75 94
59 72 91
63 77 98
60 74 96
59 73 92
55 68 87
55 68 87
57 71 91
59 73 93
61 74 94
59 72 92
58 71 90
56 69 87
58 71 90
58 71 90
59 73 93
61 74 94
56 68 87
62 76 96
58 72 92
68 83 106
65 79 99
61 74 94
59 72 92
59 73 93
62 76 96
54 66 85
56 69 88
57 70 90
61 74 94
59 72 92
58 71 90
58 71 92
60 74 96
58 71 91
57 70 90
63 76 97
56 70 90
61 75 97
53 66 84
62 74 94
55 68 87
56 69 88
56 69 87
57 70 89
59 73 94
57 69 88
59 72 92
61 75 96
56 69 88
59 72 92
59 72 93
56 69 88
55 68 88
60 74 94
58 71 91
59 72 92
56 69 88
59 73 93
57 70 90
57 70 89
53 66 85
75 93 118
77 96 126
78 97 126
77 95 122
79 97 126
74 93 122
76 95 124
79 98 127
80 99 127
76 95 124
77 96 124
77 96 124
80 98 125
76 96 125
78 98 127
79 98 126
79 99 128
76 96 125
79 98 127
78 97 125
77 96 125
78 97 125
79 99 128
79 97 126
78 98 128
77 97 127
80 99 127
79 98 127
79 98 127
78 97 125
79 98 127
78 98 128
77 96 125
80 99 128
78 97 126
78 97 126
80 98 127
80 99 128
79 98 126
80 99 128
79 99 128
77 97 128
79 97 125
78 97 125
78 97 127
76 96 127
79 97 125
78 97 125
81 99 128
79 98 127
80 99 128
79 98 128
81 99 127
81 100 128
78 98 128
79 98 128
77 97 128
80 99 128
78 98 128
79 98 127
78 97 127
79 98 128
81 100 128
80 99 127
79 98 127
78 97 127
79 98 127
78 98 128
79 98 127
80 99 128
80 99 127
79 98 128
78 98 128
80 99 128
79 98 128
79 99 128
80 99 128
80 99 128
77 97 126
80 99 127
80 99 128
79 98 127
78 97 126
79 99 128
80 98 126
78 98 128
79 99 128
79 98 127
80 99 128
79 98 127
79 99 128
77 97 127
80 99 127
79 98 128
79 98 127
79 98 128
80 99 127
81 99 127
80 99 127
79 98 127
80 99 128
78 97 127
79 98 127
79 98 128
80 99 128
80 99 128
80 99 128
80 99 128
80 99 128
79 98 128
80 99 128
80 99 128
78 97 127
81 100 128
80 99 128
79 98 127
80 99 128
79 98 128
79 99 128
78 97 126
80 99 128
78 97 127
79 98 127
79 98 127
80 99 128
79 99 128
80 99 128
78 98 128
81 99 128
80 99 128
79 98 127
80 99 128
79 98 128
81 100 129
86 106 135
104 123 153
106 126 156
125 145 176
132 153 185
80 99 128
79 98 128
79 98 127
79 98 128
78 97 126
79 98 127
79 99 128
80 99 128
80 99 128
79 98 128
80 99 128
78 98 127
77 97 128
79 98 128
80 99 128
79 98 128
79 98 128
79 98 127
81 99 128
78 98 128
80 99 128
78 97 126
79 97 126
79 99 128
78 98 128
81 100 128
81 99 128
79 98 128
78 97 126
80 99 128
79 98 127
79 98 128
80 99 128
82 100 128
79 98 128
79 98 127
77 96 125
79 99 128
81 99 128
79 99 128
77 96 126
80 99 128
79 98 128
78 98 127
80 99 128
79 98 128
79 98 127
80 98 126
80 99 128
80 99 128
79 98 127
78 97 127
78 98 128
79 99 128
81 99 128
79 98 128
78 97 126
78 98 127
78 97 126
81 100 128
79 98 127
80 99 128
78 98 128
78 97 126
80 99 128
78 98 128
80 99 128
79 99 128
80 99 127
78 98 128
81 99 126
78 97 126
79 98 125
76 96 126
78 97 127
79 99 128
78 97 127
78 97 126
79 98 127
78 97 125
78 98 128
79 98 126
80 99 128
80 99 128
78 96 125
78 98 127
79 98 127
79 98 128
79 98 126
81 99 128
78 97 127
78 98 127
81 99 127
78 97 126
80 99 127
78 97 126
79 98 128
79 98 127
79 98 127
79 97 125
79 98 127
78 97 125
77 96 125
78 97 125
79 98 126
79 98 127
80 98 127
79 98 128
79 98 127
80 98 127
78 97 126
78 96 124
77 96 125
78 97 125
79 98 127
77 96 124
79 98 126
78 97 126
78 98 127
79 98 128
79 98 127
80 99 127
79 98 127
79 98 128
79 98 127
79 98 126
75 95 124
78 97 126
80 99 127
77 97 128
78 97 125
79 97 125
77 96 125
79 98 127
79 97 125
77 96 125
77 96 123
75 94 121
79 99 128
58 73 95
58 71 91
56 68 87
58 70 89
53 64 81
58 71 90
53 65 83
57 69 88
62 75 96
58 70 89
58 70 89
58 72 92
57 70 90
56 69 89
53 66 85
54 67 87
56 69 88
55 68 87
57 69 88
56 69 88
56 70 90
61 75 95
61 74 95
57 70 90
58 71 91
57 71 92
58 70 88
58 72 92
58 71 91
59 72 91
57 71 91
61 74 95
56 69 87
61 75 96
60 74 95
60 73 93
59 72 92
54 67 87
57 69 88
57 69 88
60 73 92
57 70 89
56 69 89
60 74 94
59 72 91
55 67 86
56 70 89
59 73 94
62 75 95
57 69 88
57 70 90
58 72 93
60 73 93
62 75 95
60 73 92
55 67 86
59 73 93
56 68 88
56 68 86
58 70 89
61 74 95
59 72 92
57 70 90
60 74 95
60 73 94
60 73 94
62 77 100
60 73 93
57 69 89
56 69 88
60 73 93
61 74 93
55 67 86
60 74 95
54 68 88
60 73 92
58 71 90
57 70 90
58 72 92
59 73 94
59 73 93
60 73 92
60 74 94
59 73 93
57 70 90
59 72 91
60 73 93
59 72 92
60 73 92
59 71 90
61 74 94
57 69 87
57 70 88
59 72 92
60 73 92
56 69 88
59 73 92
61 74 93
58 72 92
55 67 86
58 71 90
62 76 96
60 73 94
58 71 91
57 71 92
57 70 88
59 73 93
66 81 102
57 69 88
58 71 91
59 72 92
61 73 92
57 70 89
58 71 90
56 68 86
58 71 91
57 70 88
54 67 86
57 70 89
51 63 81
57 69 88
59 72 92
77 95 123
78 97 125
78 98 127
77 96 124
77 96 126
79 98 127
79 98 126
79 98 126
78 97 126
79 98 128
76 95 124
79 98 126
76 95 124
77 96 123
78 97 125
79 98 127
79 97 125
78 97 125
80 99 127
79 97 125
78 96 124
77 97 126
77 97 126
81 99 128
78 98 127
79 98 127
80 98 125
79 98 128
77 96 126
79 97 125
79 99 128
79 98 127
80 98 126
79 98 128
78 98 127
80 99 128
81 99 128
78 97 126
77 97 126
80 98 125
78 97 126
78 97 126
78 98 127
80 98 127
80 99 127
78 97 126
80 98 126
79 98 127
79 98 126
78 98 127
79 98 126
77 96 125
80 99 127
78 97 127
78 97 126
78 98 128
79 98 127
80 99 128
80 99 127
78 97 126
78 98 127
80 99 127
79 98 127
80 99 128
79 98 127
78 97 126
77 96 125
78 98 127
79 98 127
79 98 126
79 98 127
80 99 128
79 97 125
78 98 128
81 100 128
79 98 128
79 99 128
81 99 128
80 99 128
79 99 128
78 98 128
79 98 126
78 98 128
79 98 128
80 99 128
78 98 128
79 98 127
79 98 128
79 98 128
81 99 127
80 99 128
80 99 128
81 99 128
77 97 126
77 97 127
79 99 128
78 97 126
78 97 126
79 98 127
80 98 127
79 98 126
80 99 128
78 97 127
79 98 128
80 99 128
77 97 127
79 99 128
80 99 128
80 99 128
80 99 128
79 98 127
79 98 127
78 97 126
77 97 127
80 99 128
78 98 128
80 99 128
80 99 128
79 98 127
81 100 128
79 98 125
79 98 127
81 100 128
79 98 128
79 98 128
78 98 128
78 98 128
81 99 128
78 98 128
81 99 127
79 99 128
79 98 127
80 99 128
80 99 128
79 99 128
79 98 127
79 98 127
79 98 128
80 99 128
80 99 128
79 99 128
79 98 128
79 98 127
81 99 127
78 97 127
78 98 127
78 97 126
80 99 128
81 100 128
80 99 128
79 98 127
79 97 126
79 99 128
80 99 127
80 99 128
80 99 128
79 98 128
80 99 128
79 99 128
79 98 127
80 99 128
78 98 128
78 98 127
80 99 128
80 99 128
78 98 127
79 98 128
79 98 128
79 98 128
81 100 128
80 99 128
79 99 128
79 98 128
80 99 128
79 98 128
79 99 128
81 100 128
79 98 127
79 98 127
78 97 126
78 97 126
78 97 127
79 98 128
79 98 128
79 98 126
78 97 125
80 99 127
79 99 128
80 99 127
78 98 127
80 99 127
79 98 126
79 98 127
78 98 127
80 99 128
79 98 127
79 98 126
78 98 128
80 99 128
78 98 127
78 97 126
78 98 128
77 97 127
79 98 127
80 99 128
78 98 127
80 99 128
79 99 128
78 98 127
78 97 126
78 97 127
79 98 128
79 98 128
78 98 128
80 99 128
77 96 125
79 97 125
79 98 126
79 98 127
80 99 128
78 97 126
79 98 127
78 98 127
80 99 128
78 97 127
78 97 125
77 97 126
79 98 127
80 99 128
77 96 125
78 97 126
79 98 127
79 98 126
79 98 126
79 97 126
79 98 128
77 96 124
77 97 126
77 97 127
78 97 127
77 96 125
78 97 126
78 97 126
78 97 126
79 98 127
77 96 125
79 99 128
80 99 128
77 96 124
79 98 127
78 98 127
79 99 128
78 96 124
79 98 127
76 94 122
78 98 127
77 97 127
77 96 125
78 97 126
77 96 125
76 95 124
77 97 126
77 96 126
78 97 126
77 96 124
80 98 126
77 96 126
77 96 124
78 97 126
80 99 127
77 96 124
80 98 126
78 97 126
77 96 123
78 98 127
76 95 123
78 97 125
75 94 121
68 84 109
53 65 84
54 66 84
60 73 92
58 70 89
59 72 91
57 69 87
59 72 93
52 63 80
58 70 89
52 64 82
56 69 89
60 73 94
60 73 94
56 69 87
56 68 87
57 70 89
60 73 93
56 69 88
57 70 89
60 73 92
61 75 96
57 70 90
61 74 94
58 71 91
58 72 92
64 77 97
55 68 86
55 68 87
57 69 88
56 69 88
58 70 89
57 71 91
58 72 92
52 64 81
60 74 95
59 71 89
60 73 93
60 74 95
59 72 92
57 70 89
56 69 88
59 73 93
61 75 95
58 72 92
58 70 89
59 72 93
60 74 95
63 78 100
55 68 87
60 73 93
61 74 93
59 72 91
57 69 88
55 67 85
60 73 93
58 70 89
57 69 87
61 74 94
60 73 93
59 72 92
57 70 90
53 65 83
56 69 89
54 67 86
53 65 83
61 74 94
58 71 92
56 69 88
61 74 94
53 66 86
58 71 91
57 70 90
62 75 95
58 71 92
57 70 89
58 72 91
58 71 91
61 74 93
61 74 94
56 69 88
60 74 95
62 77 98
57 69 88
58 71 90
57 69 88
57 70 89
64 78 98
57 71 91
59 72 91
57 70 89
56 69 87
60 74 94
60 73 92
62 76 97
60 74 94
58 71 91
61 75 94
56 69 88
59 72 92
55 68 88
61 75 96
56 69 88
63 77 98
57 70 89
58 71 90
55 67 85
61 75 95
60 74 94
59 72 91
57 69 88
57 70 91
54 67 86
60 73 93
56 68 87
62 76 97
59 70 88
56 69 88
59 73 94
54 66 85
57 70 90
72 88 112
79 98 126
78 97 126
78 96 123
78 97 126
77 96 125
77 96 125
77 96 124
79 98 126
78 97 125
77 96 125
79 97 125
78 97 126
78 97 126
79 98 126
79 98 126
77 96 125
78 98 127
78 97 125
79 98 128
78 97 126
80 98 126
77 96 124
78 98 127
79 98 128
78 97 125
80 99 127
78 97 126
77 95 123
77 96 124
79 99 128
78 97 126
78 98 128
78 98 126
79 98 125
79 98 127
78 98 128
79 98 126
79 99 128
79 98 127
77 96 126
77 96 125
80 99 128
80 99 128
78 97 126
78 97 126
79 98 127
79 98 127
79 98 126
81 100 128
79 97 126
77 97 126
77 96 124
80 98 126
80 99 127
79 98 127
78 98 128
80 99 127
77 97 126
79 97 126
81 99 127
79 98 126
80 98 126
77 97 126
79 98 126
80 98 127
77 97 126
79 99 128
78 98 127
79 98 126
80 99 128
79 98 127
78 97 127
79 98 127
80 99 128
80 98 127
80 99 128
80 99 127
79 98 127
80 99 127
80 99 128
80 98 127
79 98 127
80 98 127
78 98 127
78 98 127
79 99 128
79 98 128
80 99 127
80 99 127
79 98 128
81 100 128
79 98 127
79 98 128
78 98 128
80 99 128
80 99 127
79 98 126
81 99 128
79 98 128
79 98 127
81 100 128
78 98 128
80 99 127
80 99 128
80 99 128
79 98 128
81 99 126
80 99 128
79 98 127
77 96 125
81 100 128
79 98 128
79 98 128
79 98 128
80 99 128
80 99 128
81 100 128
80 99 128
78 97 126
79 99 128
79 98 128
81 100 128
79 98 128
80 98 127
79 98 128
78 97 126
78 98 127
78 98 128
79 98 127
80 99 128
78 98 128
78 98 128
80 99 128
79 99 128
81 99 128
81 100 128
79 99 128
80 99 128
79 98 128
80 99 128
78 98 128
78 98 128
79 98 128
80 99 127
80 99 128
81 99 127
79 98 128
79 98 128
79 98 128
79 98 126
79 98 127
80 99 127
79 98 127
81 100 128
81 99 127
77 97 127
80 99 128
78 98 128
80 99 128
79 98 127
82 100 128
80 99 128
79 97 126
80 98 126
78 98 127
77 97 127
78 98 128
80 99 128
79 98 127
77 97 126
80 99 128
78 97 127
79 98 128
80 98 126
78 97 127
81 100 128
81 99 128
79 98 127
80 99 127
80 99 128
81 100 128
77 97 128
81 99 128
79 98 128
80 99 128
80 99 127
80 99 128
78 97 126
79 98 127
78 97 127
78 98 128
78 97 126
77 97 126
78 97 127
80 99 128
79 98 127
78 97 126
80 99 127
80 99 128
79 98 127
79 98 127
79 98 127
78 98 128
80 98 127
79 98 127
78 98 127
79 98 127
78 97 126
80 98 127
79 98 127
79 98 127
78 97 126
77 96 125
77 96 125
80 99 126
80 99 128
78 97 126
79 99 128
81 100 127
79 97 124
80 99 128
80 99 128
80 99 127
79 98 127
78 98 128
77 97 126
78 97 127
79 98 128
79 98 126
79 98 126
76 96 125
79 98 127
78 97 125
78 97 125
79 98 127
79 98 127
78 98 128
75 95 125
80 98 126
76 95 124
78 97 124
79 98 126
79 97 125
77 96 126
78 98 127
81 99 128
80 98 126
79 97 124
80 99 128
80 99 128
80 98 126
78 97 126
76 94 123
78 97 125
78 98 126
79 98 128
76 94 122
79 98 127
79 97 125
76 95 124
76 94 122
78 98 127
78 98 127
77 96 125
77 96 126
78 98 128
78 97 127
79 98 126
78 97 126
78 97 125
75 94 122
79 98 127
76 95 124
77 96 125
77 96 124
76 95 122
76 95 122
78 97 126
75 93 120
64 77 98
54 66 84
55 68 87
53 65 83
56 68 86
58 70 89
57 70 89
59 72 92
56 69 88
55 66 83
61 74 95
60 74 94
52 65 84
54 66 84
57 70 90
55 67 85
60 73 91
55 68 88
60 73 94
57 69 87
62 75 96
54 67 86
55 67 85
57 70 90
58 71 91
58 71 91
56 70 89
61 75 96
60 74 95
57 71 92
62 76 96
61 75 96
58 71 91
55 68 87
54 67 86
59 72 92
57 71 92
57 69 87
58 71 91
58 71 89
55 68 88
55 68 87
60 73 93
54 67 85
55 68 88
61 74 94
58 71 91
56 68 87
53 65 84
58 72 92
59 72 92
57 70 89
60 72 92
56 69 88
59 71 91
63 77 99
57 71 92
58 71 91
58 71 91
57 70 90
54 66 84
55 67 85
62 74 93
58 71 91
59 71 91
56 69 88
61 74 95
60 73 93
59 72 92
60 72 92
59 72 92
59 72 92
52 64 82
59 72 92
56 69 88
61 75 95
60 74 94
56 69 89
56 69 89
61 75 97
58 71 92
59 72 92
61 74 94
56 69 87
57 70 90
60 73 93
56 69 87
62 75 96
59 72 92
60 73 92
55 68 87
61 74 95
52 64 82
55 68 87
53 65 83
57 70 89
64 78 99
58 70 89
55 68 87
57 70 90
55 68 86
52 64 82
57 70 90
55 68 87
55 66 84
62 76 97
63 76 97
61 74 95
59 73 94
54 66 85
57 69 88
57 70 90
57 71 90
55 67 85
52 63 81
59 72 92
55 67 84
57 70 90
57 70 90
61 75 95
77 96 124
76 94 122
79 97 125
79 98 127
76 95 124
77 96 125
77 97 126
79 98 127
75 94 121
78 96 124
77 96 124
79 98 128
76 96 126
78 97 125
80 99 128
78 98 128
77 96 124
78 97 125
77 95 122
80 99 128
79 97 125
77 96 125
77 96 124
76 96 126
77 96 124
80 99 128
79 98 127
79 97 125
79 98 126
79 98 127
77 97 126
79 97 125
80 98 126
77 96 124
78 97 126
80 99 128
77 97 125
77 97 125
78 97 127
77 96 125
79 98 126
79 97 126
79 97 126
78 97 126
77 96 125
78 97 125
79 99 128
81 100 128
78 97 125
77 96 124
77 96 124
78 97 126
78 98 126
79 98 127
78 97 126
76 95 124
80 98 126
79 98 127
77 96 126
80 99 128
78 98 126
79 98 126
78 97 126
80 99 128
79 98 126
76 95 124
79 98 126
78 97 126
78 97 125
78 97 126
77 97 126
79 98 126
80 99 127
79 98 126
77 96 124
79 98 127
80 99 128
79 98 126
80 99 128
80 99 127
80 99 128
78 97 126
79 98 127
78 98 128
80 99 127
80 99 128
78 98 128
79 98 128
79 98 126
80 99 128
79 98 126
79 99 128
77 96 125
77 97 127
80 99 127
79 98 128
78 98 127
78 97 126
79 98 127
78 98 127
80 99 128
79 98 128
79 99 128
80 99 127
78 98 126
81 99 128
79 99 128
79 99 128
79 98 127
78 97 125
78 97 127
80 99 127
78 98 128
79 98 128
79 98 128
79 98 127
79 98 128
78 97 127
79 98 127
79 98 127
79 98 127
79 98 128
81 99 128
78 98 128
79 98 127
77 97 128
79 98 128
79 97 126
78 98 126
80 99 128
79 99 128
79 99 128
77 97 126
79 98 128
79 98 128
78 98 128
80 99 128
79 98 127
80 99 128
80 99 128
81 100 128
81 99 127
78 97 125
79 99 128
80 99 128
78 98 127
80 99 128
80 99 128
77 97 127
80 99 128
78 97 127
79 99 128
80 99 128
78 97 127
78 98 127
79 98 128
77 97 127
79 98 128
80 99 128
79 99 128
80 99 128
80 99 128
79 98 128
80 99 128
80 99 127
79 98 127
79 98 127
79 98 126
80 99 128
80 99 128
79 98 127
78 97 126
79 98 126
77 96 125
80 99 126
80 99 128
79 98 128
80 99 127
79 97 125
79 98 127
79 99 128
81 99 128
79 98 128
79 98 128
80 98 127
78 98 126
78 97 126
81 99 126
80 99 127
78 97 126
79 98 127
79 98 127
78 98 128
80 99 127
77 97 126
77 97 126
80 98 127
78 98 127
78 98 127
79 98 128
78 98 128
79 98 128
80 99 128
78 97 126
78 98 128
78 97 127
81 100 128
80 99 127
81 99 127
79 98 127
79 99 128
76 96 125
78 97 126
79 97 126
78 97 126
79 98 127
79 98 125
77 97 127
81 100 128
77 97 126
77 97 127
80 99 128
78 97 127
76 96 125
78 97 126
77 96 125
78 98 128
80 99 127
81 99 127
77 96 125
76 95 125
79 97 124
77 96 124
81 99 126
77 97 126
78 97 125
78 97 126
78 97 126
79 98 127
75 94 123
79 98 126
79 98 128
77 97 126
76 94 123
79 98 126
78 96 124
77 95 123
78 98 128
76 95 125
79 99 128
78 97 126
78 97 125
80 99 127
79 98 127
79 98 127
79 98 126
79 98 126
78 98 128
81 99 127
76 95 124
77 96 123
79 98 127
76 95 122
79 98 127
79 98 128
77 96 124
78 97 125
79 98 126
78 97 125
79 97 124
76 95 123
79 98 128
78 97 125
78 97 125
77 95 122
78 96 123
78 97 126
77 96 124
78 96 124
79 97 123
68 83 106
57 70 90
53 64 81
56 68 87
61 74 93
56 69 89
60 73 93
53 66 84
57 70 90
56 68 87
60 73 93
60 73 92
57 70 89
54 67 86
59 71 90
55 68 86
57 70 90
54 67 85
57 70 89
61 75 95
57 69 89
53 66 84
55 67 85
57 68 86
61 75 95
59 72 91
58 71 90
59 73 92
55 69 89
59 73 93
56 68 87
59 72 92
56 69 90
57 70 89
58 71 92
59 71 90
57 69 88
63 77 97
54 67 86
59 72 91
59 71 90
55 68 87
60 73 93
58 71 91
53 65 83
56 68 87
58 71 89
55 67 85
58 72 92
60 74 95
58 71 91
55 67 85
55 67 85
61 74 95
59 72 91
59 71 90
56 68 86
60 74 94
63 77 98
61 74 94
53 65 84
60 73 92
61 76 97
53 64 81
55 67 85
56 68 87
58 71 91
56 68 87
55 67 86
56 69 88
57 70 90
58 70 88
62 76 98
64 79 102
56 68 86
54 66 84
58 71 89
55 68 88
59 72 92
51 63 82
58 71 91
58 71 90
59 71 90
60 73 93
58 71 91
58 71 92
58 71 92
53 65 83
62 75 96
60 74 95
57 71 92
58 71 89
58 70 89
55 69 89
58 71 90
58 70 88
60 74 94
61 74 95
58 71 91
58 71 91
62 75 95
57 70 89
61 74 94
55 67 85
59 72 91
53 65 82
55 68 87
55 67 85
62 75 95
57 70 90
61 74 94
54 67 86
58 71 90
59 73 93
60 73 92
60 73 91
59 72 92
56 69 88
54 67 85
66 80 101
78 96 123
79 97 125
76 94 123
79 98 126
78 97 125
78 96 124
79 98 126
75 94 124
78 97 126
79 98 127
78 96 124
77 95 121
77 96 125
78 97 125
78 96 124
78 98 128
78 96 124
78 97 127
74 93 120
78 97 126
78 97 125
81 99 127
79 98 127
79 97 124
79 98 127
77 96 125
79 98 126
77 96 125
79 98 126
78 97 126
79 98 126
81 99 127
78 97 126
78 97 125
78 96 124
78 97 126
76 96 125
80 99 127
78 97 126
78 97 125
80 99 128
77 96 125
81 99 128
79 98 128
78 98 127
76 96 124
80 98 126
81 99 125
79 98 127
80 98 125
79 98 126
79 97 125
79 98 127
77 96 125
77 97 126
80 99 128
77 96 126
79 97 126
79 98 127
78 97 126
79 98 127
79 99 128
79 98 126
78 98 127
78 97 126
79 98 128
79 99 128
78 98 127
79 98 127
77 96 125
77 97 126
78 98 127
77 96 125
80 99 127
80 99 128
79 98 127
80 98 126
78 98 127
81 99 127
79 98 127
78 97 126
78 97 125
79 98 127
79 98 126
79 98 127
79 98 127
79 98 127
79 99 128
80 99 128
80 99 128
79 98 127
80 99 128
79 98 126
78 98 128
78 98 127
78 97 127
79 99 128
79 98 126
80 99 128
80 99 128
78 98 127
80 99 128
80 98 127
80 99 127
81 99 127
79 99 128
80 99 128
78 97 127
80 98 127
79 98 126
80 99 128
80 99 128
80 99 128
78 98 127
79 99 128
82 100 128
78 98 127
79 97 125
79 98 126
80 99 128
79 98 128
80 99 128
78 97 126
79 98 127
79 98 126
79 98 128
78 98 128
80 98 127
81 100 128
79 98 126
80 99 128
81 99 127
80 99 128
78 97 127
83 101 128
80 99 128
80 99 128
79 99 128
79 99 128
78 98 128
79 98 127
80 99 128
79 99 128
78 98 128
79 99 128
79 98 128
78 98 128
81 100 128
77 96 125
80 99 128
80 99 128
79 98 127
79 98 128
79 98 127
80 99 127
78 98 127
79 98 128
78 98 127
79 99 128
79 98 128
77 97 126
79 98 126
79 98 126
80 99 128
79 98 128
79 98 128
79 98 126
79 98 127
80 99 127
78 97 127
78 97 126
78 97 127
79 98 126
81 99 128
80 99 127
81 100 128
79 99 128
77 96 125
80 99 128
79 97 125
78 98 127
77 96 125
79 98 126
78 97 127
79 98 127
80 99 128
79 98 127
80 98 127
77 97 127
79 97 125
77 97 126
77 96 125
79 98 127
78 97 126
78 97 126
78 97 125
81 99 128
80 99 128
80 99 128
79 97 126
80 99 128
79 98 127
79 98 127
78 97 127
79 98 128
79 98 127
78 98 126
78 98 127
79 98 127
79 98 127
80 98 126
80 99 127
80 99 128
79 99 128
79 98 127
76 95 123
78 98 127
78 98 127
79 97 125
80 98 127
78 97 125
80 99 128
77 96 125
79 98 127
78 97 125
78 97 125
80 99 126
77 96 124
79 98 126
78 97 125
76 95 123
77 97 126
79 98 127
77 96 125
78 96 124
77 96 125
77 95 124
77 96 124
78 97 126
79 98 128
79 98 127
79 98 127
79 97 124
78 97 125
80 99 127
80 99 127
77 97 125
78 96 123
78 97 126
76 96 126
79 98 127
78 98 127
79 98 126
77 96 125
79 98 127
78 97 125
79 98 126
78 97 126
79 98 128
78 97 125
78 96 123
79 98 127
77 96 125
79 98 126
80 99 127
75 94 121
77 96 125
78 98 128
76 95 123
77 96 125
79 97 124
77 96 124
75 94 122
78 97 125
77 96 124
77 96 125
78 98 128
75 93 121
79 98 126
73 92 121
73 91 118
54 66 84
61 75 94
57 70 89
58 71 91
58 70 89
58 71 91
59 72 92
57 69 88
58 70 88
61 74 93
60 73 92
57 70 90
60 74 93
54 66 83
60 73 94
56 68 87
60 72 91
56 69 88
60 73 94
60 73 93
59 72 92
57 69 88
55 68 88
60 73 94
55 67 85
61 74 93
55 68 87
58 71 91
59 72 92
51 63 81
58 71 91
61 75 94
55 67 86
58 71 91
59 72 91
62 76 95
59 72 92
58 71 91
60 73 92
59 72 93
56 69 87
55 67 85
55 68 87
59 72 92
58 71 91
59 72 92
60 73 92
59 72 93
54 66 84
57 70 90
56 70 90
59 72 92
62 76 96
60 73 93
58 70 90
59 72 91
58 71 91
58 70 89
59 72 90
56 68 87
58 72 92
54 67 87
52 64 83
57 70 90
60 73 93
58 70 88
61 75 95
57 70 88
55 68 87
55 67 85
60 74 95
57 69 88
60 74 94
56 68 87
57 71 91
61 74 94
57 70 88
61 74 93
60 73 92
57 70 88
61 74 94
53 66 85
54 67 85
59 72 92
56 69 87
58 71 91
63 77 98
62 76 96
54 67 86
59 72 91
55 68 87
60 74 95
57 69 88
56 69 89
54 66 84
59 72 92
57 69 86
55 67 85
55 69 88
52 64 82
54 67 87
58 70 90
54 66 84
59 71 91
56 69 88
57 69 87
60 73 94
54 66 84
57 70 90
57 70 89
58 72 92
57 70 88
59 71 90
56 68 88
58 70 89
57 70 89
55 66 83
57 70 88
75 94 122
78 97 125
75 94 122
78 96 124
80 98 126
75 94 121
78 97 124
77 96 123
75 94 123
77 95 123
75 94 124
77 97 125
77 96 124
77 95 122
77 96 125
75 94 122
76 96 125
79 97 125
80 98 125
80 98 125
78 97 126
75 95 126
78 97 126
78 96 125
77 96 124
79 98 126
77 96 123
78 97 125
75 94 123
77 96 124
78 97 124
77 95 124
78 95 122
77 97 126
80 98 127
77 97 128
78 97 125
78 97 126
78 97 126
78 97 125
80 98 126
81 100 128
80 98 127
78 97 125
79 98 127
77 96 124
79 98 126
79 98 128
77 95 124
75 95 123
78 97 126
77 97 127
78 97 125
76 95 123
78 97 125
80 99 127
79 98 126
78 98 128
76 96 126
81 100 128
79 98 128
78 98 128
81 99 128
78 97 126
78 98 128
77 96 125
78 98 127
80 99 128
80 99 127
79 99 128
79 98 128
80 99 128
79 98 127
79 98 126
78 97 126
78 97 126
77 96 125
77 97 126
79 98 127
80 99 128
79 98 128
79 98 127
80 99 128
78 97 127
78 98 127
80 98 127
78 97 125
78 97 126
79 98 127
79 98 128
78 97 126
80 98 126
79 97 125
79 98 126
79 98 126
80 99 128
78 97 127
80 98 126
78 97 125
79 98 127
80 99 128
78 97 126
79 98 127
79 98 128
78 98 128
76 96 127
79 98 127
79 98 126
78 98 127
79 98 126
79 98 127
78 97 126
78 97 126
79 98 126
78 97 127
77 96 126
79 98 127
79 99 128
80 99 128
79 98 127
79 98 127
79 99 128
80 99 128
80 99 128
79 98 128
79 98 127
79 98 126
79 99 128
79 99 128
79 99 128
79 98 127
79 98 126
80 99 128
78 98 127
79 99 128
78 98 128
80 99 128
81 100 128
79 99 128
79 98 127
79 98 127
80 99 127
80 99 128
78 97 127
80 99 128
79 98 127
78 97 126
79 98 128
80 99 127
77 97 126
81 100 128
77 97 127
79 98 126
78 97 127
79 98 127
77 96 125
79 98 127
79 98 127
78 98 126
80 99 127
80 99 128
78 97 126
81 99 128
78 98 127
79 98 128
79 98 128
79 98 128
78 98 127
80 99 128
78 98 127
81 99 128
78 97 126
78 98 128
80 99 128
78 98 127
79 99 128
80 99 128
78 98 128
79 98 128
81 100 128
79 98 127
78 98 128
79 98 127
78 97 126
81 99 127
77 97 126
77 97 126
79 98 128
79 98 127
81 100 128
78 98 128
80 99 128
77 97 127
79 98 127
78 97 126
79 99 128
76 96 125
78 98 128
77 96 125
79 98 126
79 98 128
80 99 128
79 99 128
81 99 127
79 98 126
80 98 127
77 97 127
77 97 126
81 99 128
78 97 127
78 98 127
78 97 126
80 98 127
80 99 128
79 98 127
79 98 127
79 98 127
79 98 127
80 99 128
78 97 126
76 96 125
79 97 125
78 97 127
80 98 127
77 97 125
79 98 126
78 96 123
78 96 123
78 97 125
78 97 126
79 98 126
78 97 125
80 99 126
79 98 128
78 97 126
80 98 126
76 96 125
79 98 126
76 96 125
77 97 126
77 96 124
80 98 126
79 98 126
78 97 126
77 96 125
77 96 124
78 97 125
76 95 123
77 96 125
78 97 126
78 98 128
79 98 128
77 95 123
78 97 124
77 96 125
79 98 127
76 95 122
77 96 125
77 95 123
77 96 125
80 98 126
79 98 127
76 95 124
77 96 124
78 97 126
78 98 128
74 93 120
78 96 123
77 97 125
76 95 123
77 96 126
77 96 124
76 95 122
76 95 122
79 98 126
79 98 126
77 96 125
74 93 121
76 95 124
78 95 121
77 96 124
76 93 120
62 77 99
54 65 82
59 72 91
54 66 84
53 65 83
57 69 89
62 75 95
56 68 86
54 66 85
58 71 91
59 72 92
53 65 83
60 72 91
56 69 88
57 70 89
57 70 90
55 69 89
59 72 91
54 66 83
59 71 91
59 71 91
52 65 84
58 72 91
57 70 88
54 67 86
61 74 94
54 66 84
58 71 91
58 71 90
53 64 81
55 67 85
56 69 89
56 68 87
56 69 88
61 74 95
56 68 87
58 71 90
60 73 93
58 71 91
59 72 92
56 69 88
58 71 90
59 72 92
60 73 93
57 70 90
57 70 90
53 66 85
59 73 95
55 67 86
58 71 90
53 64 82
61 74 94
61 75 95
61 75 97
59 72 91
57 69 89
62 76 97
50 62 79
49 61 79
62 76 97
61 74 93
57 70 89
60 73 93
52 64 81
59 72 91
60 74 94
55 67 85
59 72 91
57 70 89
55 67 85
58 71 90
58 71 90
57 70 89
56 69 88
59 72 92
55 68 87
57 70 90
58 71 91
58 70 88
55 67 86
55 67 85
57 70 89
53 65 84
55 68 88
55 68 88
62 75 95
56 68 87
61 74 93
60 73 93
55 68 87
55 68 89
55 68 88
56 68 87
55 67 85
54 66 84
58 70 89
56 69 88
58 71 90
53 66 84
59 73 93
59 71 90
58 72 92
58 72 92
54 67 86
57 70 89
57 69 88
59 72 92
56 69 87
59 72 92
56 68 86
56 69 87
61 75 95
55 68 86
58 70 88
57 70 90
57 70 89
53 65 83
63 79 101
78 97 126
78 97 124
76 95 123
76 95 124
73 92 120
79 97 125
78 96 123
79 98 125
78 97 126
77 95 123
76 95 123
78 97 126
79 98 127
76 95 122
78 97 127
79 97 125
80 99 127
75 94 123
79 97 125
79 98 125
75 95 124
77 96 125
78 97 125
78 97 125
82 100 127
77 95 124
76 95 122
77 95 123
76 94 122
77 95 123
78 96 124
77 96 124
77 96 123
78 97 126
79 98 126
78 98 127
78 97 126
79 98 127
77 96 125
79 98 126
80 99 127
79 97 126
77 97 127
80 98 125
78 97 125
78 97 126
76 96 124
80 99 128
78 98 127
78 97 126
78 98 127
77 97 126
79 98 128
78 96 124
78 97 126
78 98 128
76 96 125
78 97 126
79 98 126
78 97 125
79 98 127
77 96 125
80 99 128
78 97 127
78 98 127
79 98 127
78 97 126
78 97 126
78 97 126
79 99 128
79 98 127
76 95 125
79 98 128
79 97 125
78 97 126
78 97 126
80 99 127
78 98 128
78 97 126
79 98 127
77 96 124
79 98 127
79 98 127
79 98 127
77 96 124
78 97 126
78 97 125
78 97 126
79 99 128
78 98 128
78 97 126
78 97 126
80 99 127
80 99 128
78 98 128
80 98 127
79 98 127
79 98 126
80 98 126
79 98 127
80 99 128
77 97 126
79 98 128
79 98 126
80 98 126
79 98 127
77 97 128
77 96 125
79 98 127
79 98 127
79 98 127
79 98 127
80 99 128
79 98 127
79 98 126
78 98 128
78 98 128
79 99 128
79 98 128
78 96 124
79 98 127
80 98 126
81 100 128
81 99 128
78 97 127
77 97 128
78 98 128
78 98 128
79 98 127
78 98 128
77 97 128
78 97 126
80 99 127
78 98 128
80 99 128
79 98 128
77 97 127
79 99 128
78 98 128
78 98 127
80 99 128
78 98 128
77 97 127
78 97 127
79 98 126
79 98 128
79 98 127
77 97 127
77 97 127
78 98 128
80 99 128
80 99 128
78 98 128
79 98 127
80 99 128
79 99 128
77 97 128
78 98 128
79 99 128
79 98 127
78 97 127
80 99 128
80 99 127
80 99 127
79 98 126
80 99 128
79 98 128
79 98 127
79 98 127
80 99 128
80 99 128
79 98 128
76 95 124
78 98 128
79 98 127
81 100 128
79 98 127
79 98 127
79 98 126
79 98 127
80 98 126
80 99 128
80 99 128
79 98 127
78 98 128
77 96 125
78 97 125
75 95 125
81 99 127
80 99 127
80 99 127
78 97 125
80 99 128
77 97 126
78 97 126
80 99 128
80 98 127
79 97 126
79 98 127
79 98 127
79 97 124
79 98 127
78 97 126
80 99 128
78 97 127
78 96 124
78 97 126
78 97 126
78 97 126
79 98 126
78 97 125
79 98 127
79 98 127
79 97 125
76 96 125
78 97 125
80 99 127
76 95 124
78 98 127
79 97 124
79 98 127
80 99 127
79 98 127
79 98 127
79 98 128
75 94 122
79 97 125
77 96 123
78 97 127
76 95 122
79 98 126
79 97 125
79 98 126
78 97 126
78 98 128
79 99 128
79 97 125
78 98 127
78 97 126
80 99 126
76 95 123
79 98 127
75 94 123
79 98 126
78 97 126
77 96 125
78 97 125
79 97 125
78 97 126
78 96 124
77 96 125
76 96 125
74 91 118
77 95 124
79 97 125
78 97 126
77 95 122
78 97 125
78 97 125
77 96 125
75 93 120
76 96 125
76 95 125
76 94 121
75 94 122
77 96 123
78 97 126
80 99 127
78 96 124
78 96 124
76 94 121
77 95 123
76 94 122
77 95 123
76 95 124
76 95 122
78 96 124
76 93 120
76 95 123
76 95 123
79 97 124
75 93 119
75 93 120
54 67 85
61 74 94
57 69 87
57 70 91
58 71 89
60 73 93
58 71 91
53 65 83
60 73 93
57 70 89
59 72 91
58 70 89
59 72 91
58 71 90
55 68 87
59 72 91
58 71 90
54 66 85
55 68 87
59 71 89
59 73 92
61 74 94
60 73 91
60 74 93
53 65 83
58 72 91
57 70 89
55 67 85
56 68 86
55 66 84
58 70 89
57 69 88
61 75 95
54 66 84
58 72 92
57 70 89
58 71 89
59 73 93
56 69 88
60 73 93
54 66 85
57 70 90
58 71 90
58 70 90
59 72 92
62 77 98
58 71 91
58 71 90
60 73 94
56 69 88
58 71 91
57 70 89
57 69 89
57 70 89
58 71 91
54 66 85
54 66 85
58 71 91
57 69 88
59 72 90
57 69 87
57 70 90
60 73 93
61 75 95
53 66 85
60 73 93
56 69 89
59 71 90
58 72 91
61 74 94
62 75 94
57 70 89
55 67 85
59 72 92
59 72 92
60 73 94
60 73 92
60 74 93
57 70 89
59 73 94
58 71 90
55 67 86
60 74 94
55 68 87
56 69 89
52 65 83
55 68 86
56 68 88
51 63 80
57 70 89
54 66 84
57 70 90
55 68 86
57 69 88
52 64 82
58 71 89
57 70 89
60 72 91
54 66 85
54 67 87
58 70 89
55 67 86
53 66 84
64 77 97
54 66 85
56 69 89
53 65 82
53 65 83
58 71 91
59 73 93
58 71 90
53 65 84
59 72 91
56 68 86
63 77 97
55 68 87
73 91 117
76 95 123
79 98 126
77 95 123
75 94 122
77 97 126
77 96 125
75 94 123
77 96 124
79 97 125
77 96 124
75 94 121
76 94 121
80 99 128
76 94 121
76 95 123
78 97 124
77 95 123
77 96 125
78 97 125
78 96 124
75 93 121
77 96 125
77 96 125
79 98 125
78 96 123
78 97 127
79 98 126
78 96 124
76 94 122
77 96 125
76 95 125
77 96 125
79 98 127
78 98 128
77 97 126
79 99 128
77 96 125
78 97 125
80 99 128
77 96 124
77 95 123
80 98 125
79 98 127
79 98 126
78 96 124
80 98 127
78 97 125
79 98 126
77 96 125
78 96 124
77 97 127
79 98 126
78 97 126
78 97 127
78 97 126
76 95 125
78 98 127
78 97 125
78 97 125
79 98 125
79 98 126
79 98 127
79 98 126
78 96 125
79 98 125
78 98 128
77 97 126
78 97 127
77 96 125
77 97 127
79 98 127
77 96 125
80 99 127
79 98 128
80 98 126
79 98 127
77 97 126
79 98 127
78 98 127
80 99 127
80 98 125
79 98 128
80 99 127
78 98 127
79 98 126
77 96 126
76 96 126
81 99 127
78 98 128
79 98 126
80 99 127
79 98 128
80 99 128
79 98 127
78 97 125
78 98 127
79 98 126
77 96 126
79 98 127
78 97 127
79 99 128
78 98 127
78 98 128
79 97 125
79 98 126
79 98 126
78 98 127
80 99 127
79 98 128
80 98 126
78 98 128
78 98 127
79 99 128
78 98 127
77 97 128
81 100 128
79 98 126
79 98 128
80 99 128
79 98 127
78 97 127
79 99 128
79 98 128
79 98 127
81 99 128
80 99 128
81 99 128
77 97 126
81 99 128
80 98 126
79 98 127
80 99 127
80 99 128
78 98 128
79 98 126
79 98 128
78 97 126
79 98 128
79 98 128
79 98 127
80 99 128
80 99 127
79 98 127
79 98 127
79 99 128
80 99 128
79 98 126
79 97 126
80 98 127
79 98 127
81 100 128
80 99 128
81 99 127
79 98 128
78 97 127
76 96 125
81 100 128
78 97 126
78 98 127
79 98 127
79 99 128
80 99 127
79 99 128
77 96 125
81 99 126
79 98 128
78 97 126
80 99 127
79 98 127
80 99 128
79 98 126
78 98 128
80 99 128
79 98 128
80 99 127
78 97 127
80 99 128
79 98 127
81 100 128
78 98 128
78 97 126
79 98 127
78 97 126
80 98 126
78 98 127
78 97 127
79 98 128
78 98 128
79 98 126
79 99 128
79 98 126
79 99 128
80 99 128
77 96 125
78 97 125
77 97 127
79 99 128
81 99 127
80 99 127
76 94 122
81 99 128
77 96 125
77 96 126
78 97 126
80 99 127
77 96 125
79 98 127
79 98 126
79 98 127
76 95 122
79 99 128
79 98 126
79 98 127
80 98 126
79 98 126
78 97 127
77 97 126
77 96 125
77 96 125
81 100 128
76 95 123
79 98 127
80 99 128
78 97 126
79 98 125
78 97 125
77 96 125
78 98 127
78 97 125
78 97 125
79 98 127
77 95 123
77 97 126
79 98 127
78 97 125
78 97 125
78 98 127
78 97 125
76 94 122
79 99 128
79 98 127
77 96 124
77 96 125
75 94 121
75 94 122
77 96 125
77 96 126
76 94 122
76 95 124
78 96 124
78 97 125
77 95 124
79 97 126
78 97 127
78 96 125
76 95 124
77 96 124
76 95 123
77 96 125
74 93 121
76 95 124
77 97 126
78 96 124
77 97 126
76 95 122
77 96 124
79 97 124
77 96 124
76 95 123
78 96 125
76 95 123
77 96 124
75 94 121
76 94 122
79 97 124
76 95 122
75 93 119
77 95 122
77 95 123
79 98 126
76 94 122
75 93 120
78 97 125
64 80 103
53 65 82
55 67 86
56 69 88
59 73 93
56 68 86
58 70 89
51 63 80
61 74 94
59 71 91
55 68 87
61 74 93
56 69 88
64 78 100
58 72 91
54 67 86
55 67 86
62 75 95
60 73 92
52 64 82
59 72 92
58 71 91
57 70 89
57 70 90
55 68 86
58 70 89
61 74 94
54 66 84
58 71 91
59 72 91
56 70 90
56 69 89
61 74 93
59 72 91
57 71 91
58 72 92
58 72 91
60 73 93
57 69 89
55 67 85
56 69 88
58 71 91
57 70 89
57 69 87
56 69 87
60 73 92
54 66 84
59 72 92
58 71 90
58 71 90
53 65 83
56 68 85
57 70 88
56 69 88
60 73 92
59 71 89
54 67 85
59 71 88
57 70 88
56 69 88
54 67 85
58 71 91
55 68 87
54 66 84
53 65 83
56 68 86
58 71 91
57 70 90
52 63 81
57 69 87
61 75 95
55 67 86
60 73 93
58 70 89
55 67 86
58 71 90
55 67 85
61 74 95
55 68 87
61 74 95
56 69 89
54 67 85
56 68 85
55 68 87
56 69 89
55 68 87
60 73 94
63 76 96
62 76 96
58 71 91
60 74 95
58 72 91
56 68 86
62 75 95
56 68 87
55 68 87
58 71 91
57 70 89
58 71 90
54 66 84
55 67 85
58 70 87
52 64 81
53 66 85
52 64 82
56 70 89
56 68 86
58 71 91
53 66 84
56 69 88
59 71 90
58 71 90
58 71 91
55 69 88
53 65 83
65 79 101
75 93 121
75 93 120
77 96 125
76 95 124
76 95 122
75 94 122
78 97 125
75 94 122
78 96 124
78 96 125
79 98 126
75 94 122
77 96 124
76 95 123
78 97 125
77 96 124
76 95 124
76 95 123
77 96 123
78 96 123
78 97 125
76 95 123
76 95 123
78 97 125
79 97 125
77 96 123
79 98 126
77 95 123
77 97 126
79 97 124
78 97 125
76 95 124
75 95 125
78 97 125
80 99 128
80 98 126
78 96 122
78 97 125
76 94 121
77 96 125
80 99 127
79 98 126
75 94 123
78 97 126
79 98 126
76 94 122
77 95 123
79 97 125
77 96 125
77 96 125
80 98 126
79 98 127
78 97 125
78 97 125
78 97 126
77 97 126
78 98 128
79 98 127
79 98 127
78 97 125
78 98 127
76 96 125
77 96 125
78 96 124
80 98 127
78 98 127
77 97 126
78 96 124
77 96 125
76 96 126
78 97 125
78 97 126
79 98 126
79 97 125
78 98 127
78 97 126
79 98 128
79 99 128
77 97 126
77 96 124
82 100 128
79 98 128
79 98 127
77 96 124
79 98 128
78 97 126
77 97 127
78 98 127
77 96 124
80 98 126
77 96 125
77 97 127
78 98 128
80 99 128
77 97 127
81 100 128
80 99 128
78 97 127
80 99 128
79 98 128
77 97 127
78 97 125
79 98 128
79 98 128
80 99 128
80 99 128
79 98 127
80 99 128
79 98 128
79 98 126
80 99 128
78 97 126
80 98 126
80 99 128
79 99 128
79 98 127
80 99 127
78 98 127
79 98 128
80 99 127
79 98 127
80 99 127
77 97 127
78 98 127
81 100 128
78 98 127
78 98 127
79 98 127
79 98 127
79 99 128
77 97 126
78 98 127
80 99 128
78 98 127
79 98 127
79 98 127
77 96 126
79 99 128
81 99 127
80 98 126
79 98 128
80 99 128
79 98 128
79 99 128
77 97 125
77 96 125
79 98 127
78 98 128
80 99 128
79 98 127
78 97 125
80 99 128
79 98 127
80 99 128
78 98 127
79 99 128
80 98 126
80 99 128
76 96 125
80 99 128
80 98 127
79 98 126
79 98 127
77 97 127
79 98 128
79 98 126
80 99 127
80 99 128
79 99 128
81 99 128
79 98 127
79 98 127
80 99 128
79 98 126
79 98 128
80 99 128
80 99 128
79 98 127
80 99 127
79 98 127
79 98 127
78 97 125
79 98 127
81 100 128
79 98 126
80 99 128
79 99 128
79 98 127
78 97 127
77 96 125
78 96 124
79 98 127
79 98 127
78 97 125
80 99 126
78 97 126
79 98 128
79 98 128
80 99 128
80 99 128
78 98 126
78 97 126
78 97 126
77 97 127
78 98 127
79 98 127
78 98 128
78 97 126
80 99 127
78 97 126
75 94 123
76 96 126
78 97 126
76 95 123
80 99 128
77 95 124
79 98 125
78 98 127
80 99 128
79 98 126
79 98 126
79 98 126
79 97 126
76 95 123
79 98 128
79 98 126
77 96 125
76 97 128
79 98 126
81 100 128
76 94 122
79 99 128
78 97 126
80 99 128
76 94 121
77 96 126
77 97 126
77 96 125
77 96 124
79 98 127
78 97 126
77 96 124
78 97 125
77 96 123
77 94 121
77 97 127
77 96 123
75 94 123
77 95 124
75 93 120
77 96 126
80 98 126
78 97 125
76 95 123
75 94 121
76 94 122
77 97 126
78 97 126
76 95 123
78 97 126
77 96 125
77 95 123
77 96 124
77 96 125
80 98 124
78 96 124
72 90 116
75 94 121
78 97 125
78 96 123
76 94 122
77 96 124
77 96 124
76 95 124
76 95 123
76 95 124
73 90 117
77 95 122
75 94 123
75 94 123
76 95 123
78 96 123
74 93 120
76 94 121
74 91 118
53 65 83
59 72 91
51 63 80
52 64 82
56 69 87
50 62 78
56 68 86
59 72 92
56 69 87
55 67 85
50 62 79
54 67 85
52 64 82
58 71 90
59 72 91
56 68 87
55 67 85
57 69 88
51 62 78
53 64 81
54 67 85
56 68 87
57 69 88
59 72 91
54 67 85
58 70 88
56 68 87
58 70 88
55 68 86
57 69 88
59 72 91
60 73 92
58 71 91
56 68 87
57 70 88
60 72 92
61 74 94
54 67 86
58 70 89
55 67 86
57 70 90
56 68 86
58 71 90
58 71 91
55 67 84
58 71 90
56 69 88
57 70 89
56 69 88
62 76 96
55 67 86
57 70 89
57 69 88
60 74 94
56 68 87
58 71 90
62 76 96
57 70 90
59 71 90
59 72 91
60 73 93
59 72 91
60 73 93
58 71 90
59 72 92
56 68 87
57 70 88
60 74 94
57 70 90
57 69 88
55 67 85
55 67 85
54 67 86
57 71 91
61 74 93
58 70 89
62 75 95
58 70 89
58 71 91
55 68 86
56 69 89
56 70 89
57 70 88
58 71 91
60 73 93
56 68 86
61 75 95
55 67 86
59 71 90
53 64 81
54 67 86
57 69 87
53 64 81
58 71 90
54 67 86
59 72 92
57 69 88
50 62 79
58 72 91
58 71 90
55 67 86
53 65 84
53 66 85
55 67 85
53 65 83
54 66 84
60 73 93
59 72 92
56 68 86
57 70 89
54 66 83
57 71 91
56 69 88
53 65 83
72 88 114
76 96 126
74 92 118
77 95 123
76 95 123
76 94 120
76 94 121
77 95 123
78 97 124
76 94 122
78 97 126
77 95 123
75 94 123
75 93 121
77 96 124
74 93 120
78 97 126
77 96 123
79 98 126
78 96 123
77 95 124
75 93 120
76 95 124
77 95 123
76 95 124
75 94 122
77 96 124
78 97 126
76 95 123
77 96 126
75 94 122
77 96 126
77 96 124
78 96 124
77 96 125
79 97 124
76 95 123
75 93 121
78 97 124
78 97 124
80 98 124
76 96 125
78 97 126
78 97 124
77 96 123
80 99 128
78 98 126
79 99 128
77 97 127
78 97 125
79 98 126
77 96 125
79 98 128
79 99 128
78 98 127
78 97 125
77 96 125
78 96 124
79 98 127
79 98 126
78 97 126
79 98 126
80 99 128
78 98 128
77 95 123
78 97 126
76 96 126
81 100 128
79 98 126
78 97 127
77 96 124
79 99 128
79 98 128
78 97 126
78 97 125
78 98 127
78 97 125
77 96 125
77 96 126
78 97 126
79 97 125
78 97 125
80 99 127
78 97 125
78 96 123
77 96 124
80 99 128
77 96 124
77 96 124
79 98 127
79 98 126
79 98 127
79 97 126
78 97 126
78 98 127
78 98 127
78 97 126
77 97 126
80 98 127
79 98 128
79 98 127
79 98 127
77 97 127
80 99 128
79 98 127
79 98 126
78 97 127
79 98 127
81 99 128
79 98 126
78 97 125
77 96 126
79 98 126
76 95 124
80 99 127
78 97 126
78 97 125
78 97 126
77 96 124
79 98 127
79 98 127
77 97 126
80 99 127
81 99 126
79 98 127
79 98 127
78 98 128
79 98 127
79 98 126
80 98 126
80 99 127
78 98 127
79 98 128
79 98 127
78 97 125
79 98 126
79 98 127
79 98 128
81 99 128
78 98 127
79 98 127
80 98 127
78 97 125
79 98 127
79 98 127
79 98 128
78 98 127
81 99 128
78 97 125
77 97 127
79 98 128
80 99 127
80 98 126
78 97 127
80 99 127
79 98 127
79 99 128
79 98 125
76 94 122
79 98 128
80 99 127
78 98 128
77 97 127
78 97 127
79 98 128
79 97 125
78 97 125
77 97 126
78 97 126
79 98 127
79 98 127
78 97 126
80 99 127
79 98 127
77 97 127
79 98 127
77 96 124
80 99 127
80 99 128
80 99 127
79 98 128
78 97 126
80 99 127
78 98 127
78 98 128
77 97 126
78 96 123
76 96 125
79 98 126
76 96 125
79 98 127
77 96 124
78 98 127
79 98 127
78 96 125
76 96 127
76 95 124
77 97 128
79 98 127
78 97 125
78 97 126
80 99 128
79 97 124
81 99 128
79 98 127
77 95 124
79 99 128
78 97 125
77 96 124
78 97 126
79 98 127
77 96 124
77 97 126
81 99 128
79 98 126
79 98 126
79 98 127
77 97 126
79 98 127
78 97 125
78 97 126
81 99 126
80 98 126
79 98 127
77 96 125
80 98 126
77 97 126
81 99 128
79 98 128
79 98 127
75 94 122
78 98 127
78 97 125
78 96 124
76 96 125
80 98 126
77 96 126
76 94 123
78 96 124
80 99 127
78 96 125
76 95 123
76 95 124
75 94 123
75 95 123
78 97 126
74 94 123
76 94 122
80 99 127
79 98 126
78 96 124
80 98 126
75 92 119
78 96 124
76 94 121
78 97 126
77 96 125
77 96 126
81 100 128
77 95 122
75 94 121
74 92 119
72 91 119
79 97 125
78 97 126
76 95 122
79 98 126
74 92 119
74 94 122
76 95 123
76 94 122
74 93 121
78 97 126
79 98 127
75 93 121
74 92 119
77 96 125
76 94 121
76 95 124
76 94 121
74 93 120
73 90 116
72 90 117
75 93 120
77 95 122
75 93 120
69 85 109
57 70 89
61 73 92
60 73 92
58 71 90
49 60 75
59 72 92
55 67 85
55 68 87
54 65 83
56 68 87
55 67 85
58 72 92
57 69 89
52 64 82
54 66 84
52 64 81
53 66 84
60 73 93
57 70 89
60 73 92
53 65 83
58 70 89
57 70 89
57 71 92
54 66 84
53 66 85
56 68 87
55 67 85
53 65 83
60 73 93
56 68 87
53 65 82
57 69 88
56 70 90
55 68 87
56 69 88
54 66 83
59 72 91
57 69 88
57 69 87
58 70 89
54 66 84
57 69 87
52 64 83
57 69 88
54 66 84
55 68 88
56 69 87
62 75 96
58 71 89
59 72 91
56 69 87
56 69 88
55 68 86
53 64 81
60 74 95
58 71 91
59 71 90
59 72 91
59 71 89
60 73 93
51 63 80
57 71 91
55 67 85
60 73 92
58 71 91
53 66 84
54 66 84
54 66 84
56 68 86
54 67 86
55 66 84
54 66 84
55 67 85
57 69 88
60 74 94
57 69 89
59 72 91
54 67 86
57 69 87
56 68 87
57 69 87
59 72 91
58 70 88
57 70 88
58 71 91
56 68 87
59 72 92
51 62 79
56 68 87
55 68 86
54 66 84
57 70 90
59 72 92
57 69 88
57 69 86
59 72 91
53 66 84
64 77 97
56 67 85
55 66 83
54 66 84
58 71 89
61 74 94
58 71 90
59 72 92
52 64 82
56 68 86
51 63 80
58 71 90
57 68 86
49 60 76
67 83 106
77 94 121
77 96 123
78 97 125
75 93 120
76 94 121
76 94 122
78 96 123
77 96 124
73 91 119
73 91 119
76 94 122
74 93 121
75 94 121
77 96 125
76 94 122
76 96 125
78 97 125
76 95 124
78 97 125
75 94 122
75 93 121
78 97 127
77 95 123
75 93 120
77 95 123
75 94 122
77 95 123
78 97 125
78 97 125
74 92 120
78 97 125
78 97 126
76 95 122
77 96 124
80 99 127
77 96 124
77 96 125
78 96 124
78 97 124
77 97 127
79 98 125
77 95 123
78 98 127
77 96 125
80 99 128
75 94 123
79 97 124
75 95 124
78 97 125
77 96 125
76 96 125
78 98 127
77 96 124
78 97 126
77 97 126
78 97 125
76 95 123
78 97 126
78 97 125
78 97 127
79 98 127
76 96 126
79 98 126
78 97 126
78 97 125
78 97 126
80 99 127
78 97 126
77 97 126
77 96 124
76 95 123
81 100 128
79 98 127
80 99 128
79 98 127
78 97 126
80 99 127
76 95 123
79 98 126
76 96 126
78 97 125
81 99 128
78 98 127
78 98 127
79 98 125
79 98 126
79 98 127
78 97 126
78 97 126
77 96 125
77 96 125
80 99 127
80 99 128
80 99 128
80 99 128
79 98 127
77 96 124
77 95 123
79 97 126
77 96 124
78 96 123
78 97 126
78 97 126
79 98 128
77 96 126
78 98 127
77 97 126
81 99 128
76 96 126
81 100 128
80 99 127
78 98 127
78 97 127
80 98 127
78 98 128
81 99 126
79 98 127
78 97 126
77 96 124
79 98 126
79 98 127
80 98 126
78 98 127
79 98 127
79 98 127
80 98 126
76 96 126
81 99 127
78 97 127
77 97 126
79 98 128
81 99 128
79 98 128
80 99 127
77 97 126
79 98 128
79 98 128
79 98 128
80 99 128
80 99 128
79 98 126
78 97 126
79 98 127
81 99 128
79 98 127
79 98 128
78 98 127
79 98 127
77 96 125
78 97 127
80 99 128
78 97 126
78 97 127
80 99 128
79 98 127
77 96 125
78 98 127
79 98 127
78 98 128
80 99 128
79 98 127
79 98 128
79 98 127
78 97 126
79 98 128
79 97 125
79 99 128
81 99 127
80 99 128
81 100 128
78 97 127
78 98 128
80 99 128
79 98 127
77 96 125
78 97 126
76 95 123
79 98 128
78 97 126
78 98 127
79 98 127
78 97 126
79 98 126
80 99 128
76 96 125
79 98 127
79 98 127
79 99 128
79 99 128
77 96 125
77 97 126
80 99 128
78 97 126
79 98 127
80 99 128
75 96 127
78 97 125
79 98 127
79 98 125
78 97 125
80 98 126
79 97 126
80 99 127
80 99 128
78 97 126
79 98 127
76 95 124
74 92 121
78 97 126
77 95 122
77 95 123
77 96 124
76 96 125
78 97 127
79 97 125
80 98 125
79 97 124
77 96 124
79 97 125
78 97 125
78 97 126
78 97 126
79 98 126
77 95 123
79 98 127
75 94 123
77 97 125
77 96 125
75 94 121
79 98 127
78 97 125
76 95 124
77 96 124
79 98 126
80 98 127
78 97 126
77 96 124
78 97 124
77 97 125
78 97 127
77 96 124
78 97 126
76 95 124
73 91 118
77 97 126
77 96 125
77 97 125
77 96 125
78 96 124
78 97 126
78 97 126
76 94 120
78 96 124
77 96 124
75 93 120
77 96 124
78 96 123
75 95 124
75 94 123
79 98 125
76 94 123
77 97 126
76 95 123
77 96 124
79 98 127
76 95 124
77 96 125
71 89 116
77 95 122
78 96 123
77 95 123
77 96 125
75 94 122
75 94 123
79 97 125
74 93 121
77 95 122
76 93 120
77 96 123
76 94 121
77 97 125
75 93 120
77 96 124
76 95 123
75 93 120
75 93 120
76 94 120
54 67 85
53 65 83
54 66 83
53 65 83
55 67 86
54 65 83
54 66 84
56 68 88
62 75 95
54 66 84
59 72 91
53 65 82
55 67 85
60 72 91
59 73 93
57 70 89
57 69 89
57 69 87
55 67 85
57 69 87
52 64 82
58 71 91
58 70 89
56 69 87
54 67 85
54 66 84
64 78 99
56 69 88
63 76 96
58 71 91
57 70 89
55 67 84
57 70 89
56 68 86
59 71 91
56 69 89
56 68 86
57 69 88
60 74 95
60 73 92
57 69 87
59 72 93
56 70 89
57 69 88
54 66 83
52 64 81
57 71 90
59 71 89
53 66 85
59 73 94
55 69 89
57 70 89
57 71 90
53 65 82
58 70 89
53 65 83
55 67 85
59 71 89
57 70 91
54 67 86
54 65 83
55 67 85
56 69 88
56 68 87
58 71 90
56 69 87
58 71 90
52 63 81
54 66 84
58 70 90
56 69 88
55 67 84
56 67 84
57 70 89
56 68 87
55 67 86
58 71 90
57 70 89
55 67 85
55 68 87
56 68 86
54 66 83
57 69 89
62 75 94
54 66 84
52 63 81
53 66 84
62 75 95
58 70 89
57 69 87
57 69 87
57 70 91
58 71 90
61 75 96
52 64 81
53 65 84
55 68 86
52 64 82
55 67 86
56 68 86
54 66 84
56 68 86
54 67 86
56 68 87
55 67 85
57 69 87
57 70 89
57 70 89
58 70 89
52 63 81
57 69 88
57 70 89
71 88 113
77 95 123
76 95 123
75 93 120
73 92 120
71 89 115
78 95 122
74 92 119
77 96 125
77 94 120
76 95 123
77 96 124
77 95 121
75 94 122
79 97 125
77 95 123
74 92 120
77 95 122
77 95 122
73 91 118
74 93 121
77 96 123
77 96 125
74 93 122
76 95 124
75 94 123
78 96 124
77 96 124
77 96 124
78 97 125
77 95 122
76 94 122
77 95 123
77 94 121
76 94 122
77 95 123
75 94 122
77 96 125
76 95 124
77 97 126
80 98 126
80 98 127
78 97 127
76 96 126
77 96 124
76 96 125
78 97 125
78 97 126
79 98 127
78 97 125
79 97 125
78 97 126
77 96 124
78 96 124
77 96 126
78 97 126
80 98 127
77 97 126
75 94 123
77 97 126
76 96 125
78 97 126
79 99 128
76 95 124
79 99 128
77 96 124
78 97 127
79 98 126
77 96 124
78 98 128
78 98 127
78 97 125
80 98 126
77 97 125
78 96 124
79 98 128
80 99 128
79 97 125
79 98 126
79 98 127
78 97 126
79 97 125
77 96 125
78 97 126
79 98 126
80 99 127
78 97 125
76 95 124
78 97 127
80 99 128
79 97 124
78 97 125
80 99 128
79 98 126
80 98 127
81 99 127
78 98 127
79 98 127
79 98 128
79 98 127
77 96 125
76 96 126
77 96 124
79 98 126
79 98 127
78 97 127
78 97 126
78 97 127
80 98 127
79 98 127
80 98 126
78 98 127
80 98 126
77 97 126
79 98 127
78 98 127
79 98 127
79 98 127
78 97 126
79 98 126
80 98 126
77 97 127
78 98 128
78 97 126
79 98 126
78 97 126
80 99 128
80 99 128
81 99 126
78 98 128
78 97 124
79 98 127
79 98 127
77 97 127
78 97 126
78 98 127
79 98 128
77 97 126
79 99 128
79 98 126
80 99 128
79 98 127
79 98 128
79 98 126
78 98 128
78 97 126
79 97 125
78 97 126
78 98 128
79 99 128
78 97 127
80 99 128
79 98 126
78 97 125
79 98 128
79 98 127
79 99 128
78 97 125
78 97 127
80 99 127
80 99 128
78 98 127
80 99 127
79 98 127
78 97 126
80 99 126
80 98 127
77 97 126
81 99 127
78 96 125
78 98 128
78 97 125
79 98 127
80 99 127
78 98 127
80 99 128
78 97 126
79 98 127
75 94 121
78 97 126
77 97 126
78 97 126
77 95 122
77 96 125
79 98 126
79 98 127
77 97 127
78 96 125
79 98 125
77 95 123
78 97 126
79 98 126
77 96 124
79 98 126
78 97 125
79 98 127
77 97 127
77 96 126
79 98 127
76 95 122
77 96 124
79 98 126
77 97 126
78 98 127
78 97 125
77 97 128
79 98 127
77 95 124
74 93 122
77 96 124
80 99 128
78 97 126
78 97 126
80 98 125
75 94 122
79 98 128
76 95 123
76 95 122
77 96 124
77 96 124
77 95 123
79 98 126
79 98 127
76 94 120
78 97 125
77 97 126
77 97 125
78 98 127
78 97 126
78 97 125
76 96 124
76 95 124
77 97 127
78 97 126
77 95 123
78 98 128
78 96 124
76 94 122
78 96 124
78 97 126
76 95 124
77 96 124
75 94 121
79 98 126
76 95 122
79 97 126
77 95 123
78 97 125
77 95 124
76 95 124
78 96 123
78 96 123
77 96 123
75 93 120
78 96 124
77 96 125
78 96 124
74 92 120
75 95 124
78 96 125
76 95 123
77 95 123
77 96 124
77 96 123
78 97 125
76 94 121
77 96 126
75 93 121
74 92 118
76 94 122
74 93 121
75 93 120
74 92 118
78 96 124
75 94 122
76 93 120
74 92 119
73 91 117
74 92 118
74 92 119
76 95 122
74 93 120
76 94 120
75 94 121
75 93 120
75 93 120
77 95 123
77 96 124
68 84 107
55 66 83
57 69 88
56 68 86
51 62 79
54 66 84
60 73 92
57 69 87
57 70 89
56 69 88
62 75 94
51 62 79
55 67 84
55 68 87
60 72 91
57 70 89
57 70 89
56 69 88
54 66 84
57 70 89
54 66 84
47 58 74
56 68 87
55 67 86
54 66 83
51 62 78
58 70 89
57 69 88
56 69 88
57 69 88
56 68 86
57 69 88
52 64 81
58 70 89
60 74 94
55 67 85
60 74 94
57 70 90
55 69 89
54 66 85
58 71 91
60 74 94
59 72 91
55 67 84
55 67 85
58 71 91
64 77 98
51 63 81
56 69 88
52 63 80
55 67 86
61 74 93
56 69 88
62 75 94
55 68 87
55 68 87
53 65 83
57 68 86
52 64 82
57 70 89
52 64 82
57 70 89
54 66 84
57 69 88
60 73 93
56 68 87
59 72 92
58 71 91
59 73 92
53 64 81
58 70 89
57 69 87
58 71 90
56 69 89
55 68 87
64 78 99
54 67 85
60 73 93
56 68 86
54 67 85
57 71 90
56 68 85
61 74 93
56 69 87
56 69 89
60 73 91
58 70 89
55 68 87
60 74 94
57 70 89
59 72 91
58 71 90
57 69 87
51 62 79
54 66 84
59 72 91
57 70 90
54 66 84
58 70 89
57 70 89
59 72 90
54 66 85
55 67 85
59 71 90
51 63 81
51 63 80
55 67 85
52 64 81
54 66 84
53 65 84
55 67 85
68 84 107
75 93 120
75 92 119
76 94 121
74 92 119
75 93 121
75 94 123
76 95 122
75 94 122
75 93 120
75 93 122
73 92 120
80 98 125
78 96 125
77 96 124
75 93 120
75 94 122
77 94 121
76 95 122
76 95 124
76 95 122
75 94 121
76 95 122
77 96 124
76 95 123
75 93 121
75 93 120
76 94 121
75 92 118
78 97 126
76 95 124
76 94 121
74 92 121
78 96 124
77 95 122
77 95 124
79 97 125
77 95 123
79 97 124
76 95 123
76 94 122
78 96 124
77 95 123
78 97 125
76 95 124
77 95 122
77 96 125
77 96 125
76 95 123
77 97 126
76 95 123
77 95 120
77 96 124
76 95 123
78 97 124
79 98 126
79 98 126
79 98 126
76 95 123
77 96 125
76 95 123
78 97 126
78 97 126
79 98 127
76 95 124
76 95 122
79 98 126
77 97 126
78 97 126
78 97 125
77 96 124
79 98 127
76 95 124
78 97 124
78 97 126
80 99 127
79 98 126
78 97 125
79 98 125
79 98 128
75 95 126
77 96 125
76 94 122
77 97 127
79 98 126
77 96 125
77 96 124
77 97 126
78 97 126
79 98 126
80 99 128
79 98 127
79 98 127
80 99 128
79 98 126
79 98 127
78 97 126
79 98 127
78 97 125
79 98 126
79 99 128
77 95 123
79 98 126
78 96 124
76 95 124
77 97 126
79 98 127
80 99 128
79 98 127
77 96 123
79 98 128
79 98 128
77 97 126
79 99 128
78 97 126
76 96 126
80 99 127
77 97 126
79 98 127
79 99 128
78 98 128
78 97 125
79 98 127
80 99 128
79 98 127
77 97 127
76 95 125
77 95 124
78 98 127
78 97 126
79 98 126
76 96 125
80 99 128
80 99 128
77 96 126
79 98 128
78 97 127
78 98 128
78 98 127
79 98 127
79 98 127
80 99 128
79 98 126
78 98 127
81 99 128
81 99 128
78 97 126
79 99 128
81 99 128
78 97 127
80 99 128
79 98 126
78 97 126
78 97 127
80 99 126
78 97 126
80 99 126
79 98 127
78 98 127
80 98 125
79 98 127
77 97 127
81 100 128
79 98 127
78 98 128
79 98 128
79 98 127
77 96 125
78 97 126
79 98 128
78 97 127
77 97 126
78 98 127
79 98 126
80 99 127
79 98 126
77 96 125
79 98 126
78 96 124
79 98 127
79 98 127
78 97 126
78 98 127
78 97 126
79 98 128
79 98 127
76 95 123
80 98 126
79 98 127
76 95 124
79 98 127
76 95 123
77 95 123
77 96 124
79 98 126
79 97 125
78 97 125
77 97 126
78 97 126
78 97 126
80 99 128
81 99 128
78 96 124
79 98 126
77 95 123
77 96 124
77 96 125
80 98 126
79 97 124
77 96 125
79 98 127
77 95 123
79 98 127
78 97 126
78 97 125
77 95 123
78 96 124
77 96 125
76 95 124
78 97 125
78 97 125
76 95 124
78 96 124
77 95 123
77 95 123
79 98 126
76 95 124
80 98 126
79 98 127
79 98 126
78 97 126
79 99 128
79 98 126
78 97 125
76 95 124
77 96 123
75 93 120
77 96 125
77 96 123
79 97 124
77 96 124
76 95 124
78 96 122
78 97 126
78 97 126
75 94 122
76 95 123
75 94 122
77 96 125
77 96 123
78 98 127
75 94 122
76 95 123
77 96 124
76 95 123
79 98 126
79 98 126
73 92 122
74 92 120
76 94 122
76 94 122
77 95 121
77 95 122
78 97 126
76 94 122
77 96 124
72 91 118
76 94 122
75 94 122
75 93 120
75 93 120
76 95 123
76 94 121
74 92 118
72 91 120
75 93 120
78 97 125
74 92 119
79 98 125
72 90 117
74 92 120
73 91 119
76 95 124
73 90 116
73 92 119
73 92 119
75 93 120
73 90 116
73 91 118
71 89 115
65 80 102
54 66 85
57 70 88
51 62 78
55 67 85
48 59 76
58 69 87
56 68 86
55 68 87
55 67 84
51 62 79
53 65 82
54 66 83
54 66 83
54 65 83
58 71 90
54 66 84
61 74 93
52 64 81
55 67 85
59 72 91
55 67 86
57 69 87
52 64 82
53 65 84
52 64 82
46 57 74
54 66 84
57 70 89
55 68 86
59 73 92
56 69 89
56 69 89
56 68 86
54 66 83
55 66 83
55 68 87
55 67 87
56 68 86
58 71 90
56 68 86
54 65 83
56 68 87
55 67 84
54 66 84
58 71 89
55 67 86
57 69 88
55 67 86
57 69 88
56 68 86
57 70 89
58 71 91
52 64 81
54 66 84
56 69 88
57 69 87
56 69 88
56 69 88
56 69 89
57 69 88
53 65 84
52 64 81
50 62 81
57 70 90
62 76 97
59 71 89
55 67 85
54 66 84
52 64 82
54 66 84
57 70 89
56 68 86
59 72 92
54 66 84
58 71 91
56 69 88
50 62 80
55 67 85
55 68 87
55 67 86
61 74 93
54 66 84
55 67 86
57 69 87
53 65 82
58 70 87
57 70 90
52 64 81
55 67 86
56 68 87
56 68 87
54 67 86
55 67 86
52 64 82
55 67 84
58 71 90
54 66 84
56 68 87
59 71 89
56 68 87
58 70 89
54 65 83
55 68 86
52 63 81
58 70 88
57 69 87
58 71 89
57 68 86
61 74 94
75 93 119
75 93 119
72 90 116
75 93 122
75 93 120
74 92 118
74 93 120
73 91 118
78 97 125
73 91 117
72 89 114
78 97 125
74 92 119
76 94 122
77 95 122
75 93 120
76 96 125
76 95 122
71 89 116
75 94 122
74 93 122
77 95 123
76 95 123
74 92 120
74 92 120
74 91 117
74 92 119
74 92 119
77 95 124
76 95 123
78 98 128
77 95 122
77 96 124
75 94 123
76 94 121
74 92 120
75 94 121
76 95 124
78 96 123
77 95 123
76 94 122
75 95 123
76 95 123
76 95 124
78 96 124
78 96 124
78 96 124
77 96 126
75 93 121
75 93 121
77 96 125
80 98 126
77 96 124
78 96 123
77 96 125
77 96 124
77 96 125
75 93 122
75 94 122
77 96 123
78 97 124
79 97 125
77 96 126
78 97 126
80 99 128
79 97 126
76 95 123
79 97 126
78 97 126
80 99 128
79 98 126
76 95 123
75 94 122
77 96 125
78 97 125
78 97 127
79 98 127
79 98 127
79 97 125
78 97 125
77 96 124
78 97 126
78 97 126
77 96 125
79 97 126
77 97 127
81 99 127
78 97 125
77 96 125
79 98 127
80 99 128
78 97 126
78 97 126
78 98 127
78 96 124
79 98 126
76 96 126
81 99 128
79 98 127
78 98 128
79 97 126
78 97 126
79 98 128
78 97 127
78 96 125
77 97 126
80 99 128
78 98 128
78 97 126
80 98 126
80 98 127
78 97 126
78 97 127
78 97 127
77 97 126
77 97 126
75 95 125
79 98 126
79 98 127
79 98 126
77 96 126
78 97 125
79 97 124
76 96 126
79 98 127
77 97 127
79 98 127
80 99 128
78 97 127
79 97 126
78 98 128
79 98 127
78 97 124
80 99 127
78 98 127
77 96 126
80 98 127
78 97 127
80 99 127
78 97 126
79 98 125
80 98 127
79 98 126
80 98 126
80 98 127
79 98 128
78 97 126
78 97 125
77 96 125
78 98 128
79 98 127
78 97 127
76 96 125
79 99 128
80 99 128
81 99 127
78 97 126
79 98 128
79 98 127
79 98 128
80 99 127
80 98 126
80 99 128
77 96 125
79 98 127
77 97 128
77 96 125
81 99 127
79 97 125
79 98 126
80 99 127
79 98 127
79 98 128
79 98 128
80 99 128
79 98 128
79 98 128
77 95 123
81 100 128
79 99 128
78 97 124
78 97 125
78 98 127
77 96 126
80 99 128
79 98 128
79 98 127
79 98 127
78 97 125
80 99 127
76 95 124
79 98 126
78 97 125
78 97 126
78 97 125
79 98 126
77 97 126
78 97 125
79 98 126
79 98 126
79 98 125
75 95 124
79 98 125
76 95 123
76 95 124
75 94 124
77 95 123
77 96 125
79 97 125
81 99 127
75 94 122
80 98 126
79 97 124
76 95 123
80 99 127
80 99 127
77 96 125
77 96 123
79 97 126
78 97 125
77 97 126
77 96 125
77 96 125
79 97 126
78 97 125
78 97 126
79 98 126
79 98 126
79 98 126
75 94 122
77 97 126
78 98 127
78 97 124
77 96 125
73 92 120
77 96 124
76 95 123
80 98 125
77 96 124
77 95 122
77 96 125
79 98 126
78 97 125
76 95 123
78 96 124
76 95 123
76 94 122
73 92 120
79 98 126
79 98 126
76 95 124
77 96 125
76 95 123
76 94 122
79 97 125
74 91 118
75 94 122
79 97 124
73 91 117
73 92 120
75 94 122
77 96 124
75 94 121
78 96 123
75 94 121
74 92 119
76 94 121
72 90 118
73 91 117
77 96 125
76 94 121
74 93 121
73 90 117
77 95 123
75 93 121
74 92 119
74 92 119
73 91 119
73 91 119
72 90 116
74 92 118
75 93 120
75 93 120
77 96 125
75 93 120
75 92 119
75 93 120
78 96 123
74 93 120
74 92 119
72 90 116
57 70 88
53 64 82
53 66 84
60 72 90
57 70 90
53 64 82
57 71 91
56 68 86
55 68 87
55 68 86
57 69 87
56 68 86
59 73 93
54 66 85
50 61 79
52 63 80
57 70 89
54 67 85
54 67 85
56 68 87
59 72 92
46 58 75
54 65 83
52 64 82
52 64 82
56 69 88
56 68 86
60 73 92
61 74 94
53 65 83
65 78 99
57 70 90
50 62 79
60 73 92
54 67 85
60 73 93
60 73 93
58 71 91
60 73 93
55 67 86
60 72 91
53 65 82
49 61 79
55 66 84
54 66 85
60 73 93
53 65 83
58 72 92
57 69 87
57 70 90
58 71 90
58 72 92
55 67 86
57 70 89
62 76 96
62 75 95
57 69 87
57 70 89
53 65 82
54 67 85
56 68 87
59 73 93
57 70 89
56 68 87
56 68 87
54 66 84
53 65 82
54 67 86
56 68 85
55 68 87
54 66 84
57 70 88
58 72 92
55 67 86
53 64 82
57 70 88
55 67 85
57 69 88
54 66 83
58 71 89
55 67 85
55 67 85
58 70 89
59 73 93
58 71 91
57 70 88
54 65 83
55 68 86
61 74 94
52 64 81
59 72 91
60 73 93
59 71 90
56 68 86
56 68 87
58 71 89
52 64 82
57 70 89
54 66 85
56 68 87
54 67 85
59 72 93
52 64 81
52 63 80
58 70 88
60 73 93
55 66 83
56 68 86
71 87 112
73 91 118
74 91 117
73 90 117
73 91 117
75 93 119
74 92 119
75 91 116
76 95 123
72 90 117
75 94 122
75 93 119
76 94 121
75 93 121
75 93 119
73 91 119
76 95 122
75 93 120
74 92 119
76 94 122
77 94 121
76 94 122
74 91 118
76 95 123
74 93 121
73 92 120
76 94 122
74 92 119
76 95 123
78 96 125
76 95 123
73 92 121
72 90 117
80 97 124
76 95 123
78 97 125
77 96 123
77 96 123
77 95 124
74 94 123
77 96 125
76 94 121
77 96 124
77 96 125
76 94 122
74 93 121
78 97 125
78 97 125
77 97 126
78 97 126
77 96 124
77 96 124
76 95 123
78 96 122
78 96 123
78 97 125
76 95 125
77 96 124
76 95 124
76 95 122
77 96 124
75 94 123
78 97 125
78 96 123
78 97 127
78 97 125
76 96 125
79 98 126
74 93 121
76 96 126
78 97 126
76 95 124
76 95 123
77 96 125
76 96 126
75 95 126
77 96 124
76 95 124
78 97 126
78 96 125
75 95 124
78 97 126
78 96 124
77 95 123
79 98 127
77 97 126
77 96 125
78 96 124
81 100 128
80 98 125
79 97 124
77 97 126
78 97 126
79 98 126
79 98 126
77 96 125
77 96 125
76 96 125
78 96 125
78 98 127
77 97 126
78 97 127
79 99 128
80 99 127
78 97 125
78 97 126
78 97 127
79 98 126
77 97 127
77 96 124
80 99 128
79 98 127
78 97 125
77 95 124
79 98 127
77 96 125
78 96 124
76 95 124
78 96 124
80 99 128
79 97 125
78 97 124
78 98 127
80 99 128
77 96 125
76 95 123
80 99 128
79 98 128
79 98 128
77 96 124
76 95 124
79 98 127
79 98 125
79 98 127
80 98 127
78 98 127
76 96 125
80 98 125
80 98 127
79 98 126
77 97 127
80 99 128
79 98 128
79 98 128
80 99 127
79 98 127
78 98 127
81 100 128
80 99 128
81 99 128
77 95 124
78 97 126
78 98 127
79 98 128
79 98 127
79 98 128
79 98 127
81 99 126
76 95 124
79 98 128
79 97 125
78 97 125
78 98 127
79 98 126
79 98 127
76 95 124
81 99 128
77 96 125
79 98 126
77 96 125
80 99 128
78 96 124
77 96 125
78 97 127
78 97 125
78 97 125
78 97 127
78 98 127
77 97 126
79 97 125
79 97 125
80 99 127
80 99 128
77 96 125
77 96 125
76 96 126
79 98 126
78 98 128
79 97 125
78 97 126
77 95 123
78 96 124
78 97 126
78 98 127
76 96 125
76 95 123
79 97 124
78 97 126
78 96 124
79 98 125
78 97 125
78 97 127
80 99 127
77 96 126
77 97 127
77 95 123
76 95 124
76 95 124
78 97 126
75 95 124
78 97 126
79 98 127
81 100 128
79 97 125
80 98 126
79 98 126
76 95 122
77 95 124
79 98 126
80 99 126
78 98 127
79 98 126
76 95 124
76 94 121
79 97 125
78 97 125
77 97 127
78 97 125
75 94 123
78 96 124
79 98 126
76 95 123
77 95 122
77 96 125
77 95 123
78 96 124
78 97 126
78 96 123
76 95 124
80 98 126
74 92 120
77 95 122
76 96 124
76 95 124
73 91 118
74 93 121
77 95 123
77 96 125
77 96 125
75 94 122
75 93 121
75 93 121
77 96 124
76 94 121
73 92 120
78 95 121
77 96 124
75 94 121
78 97 124
77 95 122
73 91 118
76 94 122
78 96 123
77 95 123
77 96 124
72 91 119
77 95 123
73 92 119
72 90 117
74 91 118
76 94 122
76 94 121
76 94 122
73 91 118
76 95 122
76 95 122
75 94 123
77 95 124
75 93 120
71 88 114
74 93 121
71 88 114
74 92 118
72 89 115
75 93 120
75 94 122
73 91 119
74 92 118
74 92 118
73 91 119
69 87 113
71 88 113
65 80 103
49 60 77
56 67 84
55 67 86
55 68 86
55 67 84
52 63 81
51 62 79
57 69 87
53 64 82
57 69 88
58 71 90
53 64 82
56 68 85
46 55 70
56 68 87
58 71 90
55 67 85
53 65 82
59 72 91
57 70 88
57 70 89
54 66 83
55 67 86
56 68 87
59 72 92
58 71 90
60 73 92
55 68 87
57 68 86
55 67 86
54 66 83
59 72 90
53 65 83
58 71 90
56 68 87
52 64 81
57 69 88
56 67 85
57 70 89
57 70 88
53 65 82
60 74 94
57 69 88
58 71 90
59 71 90
52 63 81
59 71 90
52 63 80
52 64 82
59 72 91
54 67 86
56 68 86
54 66 85
56 68 87
52 64 81
55 67 85
54 66 83
55 67 86
57 70 89
54 65 83
54 66 84
55 67 86
60 74 93
60 73 92
59 73 93
56 69 88
55 68 86
60 73 93
55 67 85
57 70 88
58 70 87
56 68 87
55 67 85
63 76 95
56 68 86
51 63 80
55 68 88
56 69 88
54 66 83
58 70 90
56 68 86
56 68 86
60 74 94
56 69 88
51 62 79
56 68 86
57 70 88
56 69 87
54 65 83
55 67 86
57 70 89
57 70 89
54 66 84
52 64 81
53 65 83
56 69 87
52 64 81
55 67 85
55 67 86
54 65 82
50 62 79
52 64 82
55 67 84
54 65 82
55 66 83
52 64 81
63 78 100
75 93 120
72 90 116
68 85 109
76 95 124
73 90 115
71 89 117
73 89 115
74 91 117
74 92 117
76 94 121
75 93 120
74 92 118
73 90 117
73 91 118
73 92 120
75 92 118
77 96 123
73 91 118
76 94 122
77 96 124
73 92 121
75 94 122
75 94 122
76 94 122
78 96 123
75 92 118
76 94 121
75 94 123
79 97 124
77 95 123
76 94 120
76 94 121
80 99 126
76 96 126
76 96 126
77 95 123
76 95 122
76 94 121
74 93 122
77 96 125
77 96 124
79 97 125
77 96 124
75 95 124
77 95 123
76 95 123
75 94 123
76 94 121
75 94 121
75 94 122
74 93 121
77 96 124
77 96 124
75 95 124
76 95 123
76 94 122
76 95 124
75 94 122
78 97 125
77 96 123
75 93 121
79 98 125
80 98 126
74 93 121
75 93 120
77 96 124
75 94 124
77 96 124
75 94 123
76 95 123
75 94 121
79 97 126
77 97 126
78 96 124
78 96 124
79 96 122
77 95 123
81 99 128
80 99 127
78 97 126
78 96 124
78 98 127
76 94 122
77 95 123
76 94 122
78 97 126
78 97 126
79 98 128
79 98 127
78 96 124
80 98 125
78 97 126
77 96 125
79 98 126
79 97 125
75 94 124
78 98 128
77 96 125
77 95 123
77 96 126
78 97 126
78 96 124
79 98 127
77 97 126
77 96 124
78 97 125
78 98 127
78 97 125
78 98 127
80 99 128
77 97 126
80 98 126
78 98 127
78 97 126
78 97 126
80 98 125
77 96 126
77 95 123
80 98 126
79 98 127
78 97 125
77 96 124
78 97 126
75 96 126
80 99 128
77 96 124
77 97 126
79 98 126
78 96 125
77 96 125
78 97 127
79 98 128
79 97 125
79 98 127
79 98 128
80 98 127
81 99 128
80 99 128
78 98 128
79 98 126
78 98 128
79 98 126
76 95 123
79 99 128
79 98 127
79 98 127
80 99 128
80 99 128
80 99 128
78 97 126
79 98 128
79 97 125
80 98 126
80 99 128
78 97 126
79 98 127
79 97 125
78 97 127
79 98 126
80 99 128
79 98 127
79 98 127
78 96 124
77 95 123
79 98 128
77 95 123
78 97 126
76 95 124
78 98 127
77 96 126
78 98 127
80 99 127
78 97 127
80 99 126
77 97 126
78 97 127
78 97 125
77 97 126
77 97 126
78 97 126
78 98 128
78 97 126
78 97 126
80 99 127
77 97 126
80 98 126
79 98 127
79 98 127
77 95 124
78 97 127
77 96 125
80 98 126
79 98 127
80 99 127
76 96 125
79 98 126
77 97 126
78 97 125
78 98 127
78 97 126
77 96 124
77 96 124
79 98 126
80 99 127
78 97 126
76 95 124
77 97 127
77 96 125
78 97 124
77 97 126
76 94 123
77 96 124
76 97 127
78 97 125
76 96 125
77 96 125
78 97 125
79 98 126
76 95 123
76 94 122
77 95 123
80 99 126
77 96 124
78 97 125
78 96 125
76 94 123
78 97 124
77 96 124
75 94 121
76 94 121
79 98 125
76 95 123
77 95 123
78 97 124
76 96 124
76 95 122
78 96 123
78 97 126
76 94 120
77 95 122
74 93 121
75 93 120
73 92 120
79 98 126
78 97 126
77 96 124
74 92 120
74 92 119
78 96 124
76 95 125
78 97 125
77 97 125
77 96 124
76 95 123
75 94 122
75 94 123
76 94 121
76 95 123
74 93 121
75 92 119
76 95 124
75 93 121
79 97 124
75 92 118
76 94 122
76 95 124
75 94 123
76 95 125
76 95 123
73 91 118
76 94 120
72 90 116
73 91 120
74 92 119
78 96 124
76 94 122
78 96 123
73 91 118
72 89 115
72 90 116
76 95 123
73 92 119
76 95 123
75 93 121
76 93 120
69 87 113
73 91 117
70 87 112
70 87 113
72 90 117
68 86 113
74 91 118
72 89 115
61 75 97
54 66 83
50 61 77
58 71 90
56 68 85
50 61 77
59 72 92
56 69 87
52 64 81
58 70 89
54 66 83
57 69 88
54 65 83
53 65 83
57 70 88
57 69 88
54 65 82
56 68 87
54 64 80
54 66 84
56 69 88
59 71 90
52 64 81
57 70 89
56 68 87
55 66 84
56 68 86
59 72 91
58 70 89
54 66 84
54 67 85
51 62 79
56 68 87
54 67 85
54 65 83
55 67 86
58 71 90
54 67 85
59 71 88
56 69 88
58 71 90
50 62 79
56 68 87
51 62 78
53 65 84
57 69 88
55 69 88
55 68 87
53 65 84
57 69 87
59 72 91
56 69 88
56 68 86
53 65 82
53 65 82
61 74 94
57 70 90
50 61 79
60 72 91
57 70 89
57 70 88
59 72 91
55 68 86
53 64 82
57 69 88
56 69 88
57 70 88
55 68 87
53 65 83
56 68 85
51 63 80
57 69 89
61 73 93
55 67 84
55 67 85
56 69 89
57 68 86
51 62 79
52 63 81
58 71 90
56 69 87
56 67 84
57 70 90
56 68 87
55 67 86
56 68 86
54 66 84
58 71 89
53 65 82
53 65 82
59 72 91
57 70 89
56 69 87
55 67 84
51 63 80
56 68 86
55 68 86
59 71 91
55 66 84
51 62 79
52 63 80
55 67 84
55 67 86
53 64 81
54 66 85
61 75 96
70 87 112
70 87 112
77 94 120
73 91 118
72 90 117
72 89 115
73 90 117
71 88 114
73 90 115
77 95 121
72 90 117
75 93 120
70 87 111
71 90 117
73 90 116
72 89 116
75 93 121
77 94 121
73 91 118
71 89 116
77 94 121
75 94 122
71 89 116
76 93 120
78 96 124
75 93 120
77 96 125
75 93 120
75 93 121
75 95 124
77 96 124
74 93 122
76 95 122
77 96 123
77 95 122
73 91 117
75 93 121
74 92 119
79 97 125
75 93 119
77 94 120
75 93 120
75 94 122
79 97 126
77 95 122
75 93 120
74 93 121
74 92 118
77 96 125
77 96 124
78 97 125
76 95 123
77 96 123
75 94 123
77 96 124
79 98 125
78 96 125
77 96 123
76 96 124
77 95 123
75 94 123
77 96 124
76 96 125
74 93 122
76 96 125
79 98 126
77 96 124
79 97 126
76 95 123
78 97 125
77 96 124
78 97 126
77 96 125
78 96 125
78 97 125
79 97 124
77 96 125
79 98 126
76 96 125
76 95 123
77 96 125
77 96 124
77 97 126
76 96 126
79 98 127
78 98 127
81 99 127
78 97 127
78 97 126
78 97 125
76 95 124
79 98 128
79 98 127
79 98 126
78 98 127
79 98 127
78 97 125
76 95 124
78 96 124
77 96 123
80 98 125
80 99 128
78 97 125
79 98 127
77 96 125
79 98 126
79 98 126
77 96 124
78 98 126
75 95 124
79 97 126
77 97 126
78 97 126
81 99 127
79 98 127
77 96 125
76 95 124
78 97 124
79 98 126
78 97 126
77 97 126
78 97 126
78 96 124
77 96 126
79 98 126
79 99 128
77 95 124
78 97 126
80 99 127
78 98 128
78 96 124
80 99 128
79 98 126
77 97 126
78 98 128
80 98 125
79 98 128
78 97 126
78 97 124
79 98 126
79 98 128
81 99 126
79 98 126
80 99 128
76 95 124
78 97 126
80 99 128
76 96 125
80 99 128
77 96 124
78 97 127
78 98 127
78 97 125
79 98 127
78 97 127
78 97 125
80 99 128
80 99 127
80 99 128
78 97 126
81 99 128
79 97 125
79 98 126
79 99 128
79 98 127
79 98 128
79 97 125
79 98 126
76 96 126
78 97 124
79 97 125
78 97 125
79 98 127
77 97 127
79 98 127
78 98 127
76 96 126
79 98 127
79 97 125
79 98 126
78 97 126
79 97 125
78 97 126
78 97 127
76 96 125
77 97 126
78 98 128
78 97 125
78 97 126
77 96 124
78 97 126
78 97 126
76 96 125
79 98 126
79 97 126
78 97 126
79 97 124
79 97 126
75 93 120
76 95 124
79 97 124
78 98 126
78 97 126
78 97 125
79 98 127
77 96 124
78 98 128
80 98 127
78 97 125
76 95 123
76 95 123
78 97 125
78 96 122
79 98 126
77 95 124
78 97 126
77 97 127
76 96 124
79 98 126
78 97 126
78 97 126
78 97 124
76 95 122
76 94 121
78 96 124
77 96 125
75 93 120
76 95 125
77 96 125
78 97 125
75 95 125
78 97 126
78 97 125
77 96 124
78 97 126
79 97 125
76 95 123
78 97 126
80 99 126
75 93 121
77 96 124
76 94 120
75 94 122
77 95 123
78 97 125
78 97 126
76 94 122
74 93 122
75 94 122
76 94 120
78 97 125
73 91 118
76 95 123
77 96 125
78 97 125
73 91 117
76 94 122
75 94 121
76 94 121
75 94 123
77 96 124
76 94 122
70 87 112
72 89 115
73 91 118
73 91 119
75 94 121
73 91 119
73 91 119
75 93 121
76 94 121
75 93 119
73 91 119
73 91 119
73 91 117
76 94 122
76 94 121
75 92 118
75 94 121
75 92 119
75 92 118
72 89 114
73 89 114
74 91 117
70 88 116
74 92 119
73 91 117
76 94 121
71 89 115
74 92 118
69 86 112
73 90 116
69 85 109
70 87 113
68 84 109
55 67 85
58 69 87
54 67 86
52 64 81
50 61 78
56 68 86
55 66 84
52 63 80
59 72 90
60 72 92
52 63 81
54 66 84
55 67 85
52 64 81
58 71 91
54 66 84
56 69 87
57 70 89
56 68 86
55 67 85
53 65 82
57 69 88
55 66 84
54 66 84
52 64 82
54 66 84
53 65 82
56 69 87
57 69 88
52 63 80
56 70 90
59 71 89
53 65 83
58 70 88
52 64 81
58 70 89
54 66 83
58 70 88
60 72 90
60 72 91
62 75 95
56 67 85
58 71 90
54 67 85
58 71 89
55 67 85
57 70 89
55 67 85
52 63 80
57 69 88
56 69 87
54 66 85
53 64 82
58 70 89
53 65 82
54 67 86
55 66 84
53 65 84
52 63 81
60 74 94
55 67 85
59 71 89
54 66 84
59 71 90
51 63 82
53 65 83
55 67 85
53 65 83
59 72 92
52 63 81
52 63 81
58 70 87
54 66 84
51 63 80
57 70 89
54 65 82
56 69 87
54 66 84
60 73 91
55 68 87
51 62 79
52 64 82
54 66 84
60 72 91
55 67 84
51 62 79
53 64 81
55 66 84
50 61 77
57 68 86
48 59 75
53 64 81
56 68 87
53 65 82
54 66 83
48 59 75
56 68 87
53 65 82
54 66 84
53 65 82
52 63 80
47 57 72
53 64 81
59 72 91
71 87 112
75 92 119
69 86 113
71 88 113
75 93 120
75 93 120
75 93 121
69 86 112
72 90 116
74 92 119
74 90 115
72 90 117
74 92 118
71 88 114
75 92 119
72 90 117
75 93 120
72 91 118
75 93 121
75 92 119
75 92 119
74 92 119
74 92 118
73 89 114
75 92 118
75 93 121
72 90 118
74 91 118
78 96 123
74 93 121
74 92 119
75 93 121
75 94 121
74 93 120
76 94 121
74 92 119
75 94 123
73 90 117
76 95 124
77 95 123
75 94 122
75 94 121
75 93 120
76 95 124
78 97 125
76 95 124
76 95 123
77 95 123
75 94 123
78 97 125
74 94 122
76 95 124
74 93 121
78 96 124
75 93 120
75 93 120
77 95 123
77 96 125
76 95 123
75 93 120
76 95 124
76 96 126
77 95 123
78 98 127
79 98 126
77 96 125
77 95 122
78 98 127
77 96 123
78 97 125
77 96 124
78 98 127
75 95 125
75 94 122
76 95 123
77 96 125
77 96 125
76 95 124
77 96 124
78 96 124
76 95 123
77 95 123
80 98 125
76 95 123
77 95 122
77 97 126
76 95 124
78 96 125
77 96 124
76 96 125
78 97 127
77 96 125
78 97 125
77 97 126
78 98 127
79 98 128
77 96 125
79 98 126
76 95 122
78 98 128
78 97 125
78 96 124
80 99 127
78 96 124
79 97 126
77 95 123
77 96 124
79 98 127
79 97 125
78 98 127
79 97 125
76 95 124
79 98 128
77 96 125
79 97 126
79 98 127
79 98 127
78 98 127
79 98 127
78 98 128
77 96 124
81 99 128
79 98 128
78 98 128
78 97 126
80 98 125
78 97 125
79 98 127
79 98 127
76 95 124
78 97 126
80 98 127
78 97 126
77 96 125
78 96 125
78 96 125
81 99 127
78 98 127
78 97 126
78 98 127
78 97 126
78 98 127
79 98 127
77 97 127
77 95 123
80 99 127
80 99 127
79 98 126
77 96 125
80 98 125
77 97 127
80 98 126
79 98 126
79 98 126
77 97 126
78 97 127
79 98 127
80 99 127
77 96 126
80 99 127
78 97 126
78 98 127
79 98 127
78 96 124
78 98 127
79 98 127
79 99 128
79 97 126
80 98 126
78 97 126
77 96 125
77 97 127
79 98 127
78 96 124
77 96 126
78 97 127
78 97 126
78 98 128
79 99 128
79 97 126
78 96 123
79 97 125
77 97 126
79 98 125
78 96 125
79 98 126
78 97 126
77 96 125
77 95 122
76 95 124
76 95 124
79 98 127
78 97 125
77 96 124
78 98 127
76 96 125
75 94 121
78 96 125
77 96 124
77 95 123
79 98 127
76 96 126
77 96 124
76 96 125
79 97 124
79 98 127
79 98 127
78 96 124
77 96 124
76 95 123
75 94 123
80 98 126
78 96 124
80 99 127
77 96 125
75 93 121
73 92 121
77 97 126
78 96 124
76 95 123
79 98 126
79 98 127
78 97 126
78 97 125
77 95 123
73 92 119
77 95 123
76 95 124
78 97 125
77 96 124
76 94 122
79 98 126
76 95 122
77 96 126
77 96 125
76 95 124
79 98 127
75 93 121
78 97 126
75 95 123
75 95 124
74 93 121
77 95 122
76 95 124
77 96 124
75 94 123
73 92 119
75 93 121
77 96 123
77 95 122
74 92 120
77 96 124
75 94 122
72 90 116
71 89 116
78 95 122
78 95 122
72 91 119
74 92 120
76 95 123
76 94 121
75 94 122
75 93 120
75 93 120
72 90 117
77 95 123
76 93 119
76 94 122
75 92 119
75 93 120
76 95 122
75 93 122
73 91 119
74 92 120
70 88 115
76 94 122
76 94 122
74 91 117
75 93 119
74 91 118
70 88 115
71 90 118
71 88 114
72 89 115
73 92 120
72 91 118
69 84 108
71 89 116
71 90 117
76 93 120
72 89 113
72 89 114
70 88 113
67 84 110
70 88 115
72 90 116
66 81 104
59 72 91
50 60 76
52 64 80
53 65 83
54 66 85
56 68 86
56 69 89
59 72 91
54 66 83
55 66 84
56 69 87
56 68 85
55 68 86
55 67 84
53 65 83
56 68 86
52 63 80
56 68 86
53 65 82
56 68 87
58 70 87
55 67 85
57 69 88
54 66 84
55 68 88
55 67 85
54 65 83
56 69 88
54 66 84
51 63 80
53 65 84
54 65 82
51 62 79
55 67 86
54 66 84
57 69 88
54 66 84
60 74 94
53 64 82
54 66 85
61 74 93
54 66 84
54 66 84
57 70 88
54 66 84
53 64 82
54 65 82
53 64 82
54 66 84
57 69 87
56 69 88
53 63 80
60 73 91
56 69 88
52 64 81
51 63 80
56 67 85
56 68 85
55 66 84
53 65 83
59 72 91
57 69 87
57 69 87
56 67 85
58 70 89
57 69 87
59 71 90
55 67 86
53 65 83
54 66 85
61 74 94
59 71 90
56 68 86
52 64 82
57 69 88
57 69 87
53 65 83
59 73 92
54 66 85
55 66 84
58 71 89
59 71 90
52 64 82
55 66 84
52 64 82
50 61 78
56 68 86
55 66 83
53 65 82
55 67 85
56 69 87
59 72 92
55 68 87
56 69 87
53 65 82
57 69 86
53 64 81
52 64 81
62 75 94
57 68 85
55 67 85
53 65 82
67 83 108
73 90 116
70 87 112
71 88 113
70 87 113
74 91 115
72 90 117
73 90 116
71 89 116
73 91 117
71 88 115
75 93 120
75 92 117
74 92 119
73 91 119
74 93 120
75 93 120
71 89 116
73 91 118
71 88 114
72 89 115
74 91 117
76 94 121
74 92 118
72 91 118
74 92 120
70 87 113
72 90 117
75 93 121
74 92 119
74 91 117
77 95 122
78 95 121
76 95 124
74 91 117
75 92 119
78 96 123
71 89 116
75 94 123
73 91 119
75 93 120
78 96 124
73 91 117
73 92 120
77 96 124
75 93 121
75 93 120
77 95 123
73 92 120
77 96 125
76 95 124
79 97 126
76 94 123
77 96 125
76 95 123
75 93 120
78 96 123
73 92 120
78 95 120
74 93 121
80 99 127
75 94 122
77 95 123
76 95 123
77 96 124
75 94 123
76 95 123
77 96 124
76 95 123
77 96 125
75 94 122
78 98 126
78 96 123
78 96 123
76 95 123
77 96 125
80 98 125
77 96 124
76 96 126
79 97 125
77 97 126
77 96 124
75 94 123
77 96 125
77 97 127
77 96 125
76 96 124
78 97 125
79 98 126
79 98 127
78 97 125
78 96 123
77 97 127
78 96 124
78 97 126
77 96 126
79 98 126
77 96 124
77 96 124
78 96 124
79 98 126
78 96 125
77 96 124
78 98 127
78 97 126
79 98 127
79 98 127
79 98 127
75 94 123
77 97 126
79 98 126
79 98 127
77 96 125
78 97 127
79 97 125
78 98 128
77 96 126
79 98 127
78 97 127
78 97 126
77 97 126
79 98 126
79 98 128
77 96 125
78 97 126
80 98 125
80 98 126
78 97 125
76 95 123
79 98 127
79 97 126
78 97 126
79 98 126
77 96 126
76 96 125
78 97 124
78 98 127
78 96 124
78 98 127
78 97 126
81 100 128
79 98 127
78 98 127
80 98 127
78 96 123
79 98 127
78 98 128
78 97 126
78 97 127
79 98 128
76 95 123
78 98 127
79 98 127
78 97 125
80 99 127
80 98 126
79 97 124
78 97 126
76 96 125
79 97 126
78 97 125
77 97 126
79 98 128
79 98 127
78 98 128
80 98 126
79 98 126
80 99 128
78 97 125
78 97 126
78 96 124
76 96 126
78 97 127
81 99 127
79 97 125
80 98 125
78 97 125
79 98 127
79 98 127
77 96 124
77 96 125
79 98 125
79 98 127
77 97 126
76 95 124
78 98 127
75 94 122
79 98 125
78 96 125
78 98 127
78 98 127
78 97 125
79 98 126
78 97 126
77 95 122
78 97 126
77 96 123
77 96 124
76 95 124
76 96 125
79 97 124
79 98 127
78 97 125
77 96 125
78 97 125
77 97 126
78 97 126
77 95 123
76 95 123
74 93 121
77 97 126
79 97 125
76 94 122
77 96 123
74 92 119
76 95 123
77 96 125
77 95 123
75 93 119
77 96 125
75 95 125
76 95 123
76 95 123
77 95 122
76 95 124
77 96 125
76 95 123
77 96 124
77 97 126
78 97 125
77 96 124
75 93 120
77 96 124
76 95 123
76 96 125
76 95 123
76 95 124
77 95 123
74 93 121
77 96 124
76 93 120
77 96 125
75 93 120
76 95 124
78 97 126
74 92 118
75 92 118
74 91 117
76 95 124
76 94 122
76 94 120
78 95 122
74 93 120
75 93 120
77 96 124
75 94 121
75 94 122
75 93 121
74 92 119
78 97 125
77 96 124
71 88 114
74 93 121
73 91 118
77 94 121
74 92 119
75 93 120
74 92 119
74 92 119
73 90 116
75 93 119
71 88 113
70 88 116
74 92 119
72 90 117
76 94 121
76 94 120
74 92 120
75 93 121
74 91 116
75 93 119
76 93 119
73 91 117
73 91 118
73 90 116
73 91 116
73 91 118
75 93 119
71 89 116
74 92 118
72 90 116
74 92 118
72 89 115
70 87 113
73 90 116
70 88 115
71 87 112
72 88 113
64 79 101
51 62 79
51 62 79
52 63 81
55 67 84
51 63 80
52 64 81
57 69 87
54 66 84
54 66 84
55 67 84
52 63 80
53 65 83
55 67 85
55 67 84
55 67 86
55 67 84
51 63 81
51 62 79
56 68 85
57 69 88
57 70 90
57 69 88
56 67 85
54 66 85
54 66 84
54 65 83
55 67 86
59 72 92
55 66 83
51 63 81
57 69 87
56 68 87
57 69 88
54 65 82
59 72 91
57 70 89
54 66 84
60 73 93
57 69 87
49 60 76
53 65 83
55 67 85
59 72 90
54 67 85
57 69 88
54 67 86
51 63 81
56 68 86
51 63 79
52 64 81
54 66 84
50 61 77
55 67 86
56 68 85
57 70 88
55 67 86
52 64 81
50 62 79
56 67 85
60 72 92
54 65 82
51 64 82
56 69 88
56 68 87
56 67 85
57 69 88
57 70 89
54 66 85
55 67 84
56 68 87
54 65 82
58 70 88
55 66 84
54 66 83
54 65 82
53 66 84
51 62 79
55 67 85
55 68 86
52 64 81
51 63 80
55 67 85
58 71 90
58 70 88
50 62 78
57 69 87
51 63 81
56 69 87
55 66 84
55 68 87
55 66 83
57 68 86
55 67 84
53 65 83
57 68 85
53 65 83
57 69 87
54 66 84
49 61 78
53 65 81
63 78 100
73 90 117
65 81 106
70 87 113
70 87 112
75 94 121
66 82 106
71 88 113
74 92 119
68 85 109
70 86 111
75 93 119
70 87 113
73 92 119
70 89 117
75 93 120
72 90 117
73 90 117
72 89 116
72 89 116
74 91 115
77 95 122
70 87 113
77 95 122
68 85 110
74 93 121
73 90 116
77 96 125
74 92 119
76 95 123
73 91 117
75 93 120
72 90 117
77 96 124
75 93 120
74 93 120
74 93 122
78 97 125
74 94 123
73 92 120
76 95 123
72 90 117
74 93 120
73 92 119
77 95 122
75 93 120
74 93 122
76 95 123
74 92 119
75 93 120
75 94 121
75 93 120
76 94 122
76 95 122
77 95 123
77 95 122
73 92 120
76 94 120
77 96 123
78 98 127
75 93 120
75 94 122
75 93 120
76 95 123
77 96 124
77 97 126
77 95 123
80 98 127
74 93 121
76 94 122
78 97 125
75 94 121
79 98 126
76 95 123
77 95 123
76 94 122
78 97 126
78 97 126
75 94 124
77 96 125
78 98 127
76 95 123
73 92 119
78 97 126
77 96 123
76 96 126
77 96 124
78 96 124
78 96 125
78 97 125
77 96 125
79 99 128
78 95 122
78 97 126
79 98 126
79 97 124
75 94 123
78 96 125
79 97 125
76 95 124
76 95 123
78 97 125
77 96 124
77 96 123
78 97 126
79 98 125
79 98 127
78 98 128
77 96 125
76 94 122
80 99 127
77 96 124
79 98 126
79 98 126
78 97 125
80 98 126
78 96 123
77 96 125
79 98 127
76 96 125
76 94 122
78 98 128
79 97 125
76 95 123
78 98 127
80 98 127
78 97 126
78 97 126
77 96 124
77 96 124
78 97 126
80 98 127
78 98 127
79 98 127
79 97 124
79 98 127
78 97 126
79 98 128
78 98 127
77 96 125
78 98 126
79 99 128
77 97 128
80 98 127
78 97 125
79 98 128
77 96 125
79 98 126
78 98 128
78 98 128
77 96 126
78 98 128
79 98 126
79 97 126
78 97 126
79 98 126
79 98 126
80 99 128
79 98 126
77 97 125
78 98 126
80 98 126
76 95 124
78 97 126
76 95 123
77 97 126
79 98 128
79 98 127
78 97 126
78 97 126
79 98 127
76 95 123
77 97 127
77 96 124
78 95 122
78 97 126
78 97 125
78 97 126
77 95 123
77 95 123
79 98 128
77 95 123
79 97 125
78 97 125
79 97 125
77 96 124
78 97 125
78 96 124
78 98 128
77 96 124
79 97 125
78 96 124
79 98 126
80 99 128
78 97 127
78 97 126
78 97 126
80 98 126
77 97 125
79 98 127
80 99 127
77 97 126
74 93 120
78 98 126
77 96 124
76 95 122
78 97 126
76 94 122
77 96 124
76 94 121
78 97 126
75 93 121
81 99 127
78 97 127
78 97 124
78 97 127
79 98 126
79 97 123
81 99 127
78 97 127
76 94 123
79 98 127
78 97 125
76 95 123
77 96 124
77 96 123
77 95 123
78 96 123
76 95 124
77 96 125
78 96 124
78 96 124
74 93 121
72 91 119
77 95 122
78 97 124
76 94 121
76 95 124
77 95 123
76 95 122
76 95 122
77 95 123
75 93 120
74 92 118
79 98 126
77 95 123
71 88 114
76 95 124
76 94 122
77 96 124
74 93 122
76 95 123
78 96 123
75 93 120
74 92 118
74 92 119
76 95 123
75 93 121
75 94 122
73 92 120
73 92 120
77 96 125
73 91 118
74 93 121
76 95 122
75 94 122
74 92 119
76 94 121
76 95 123
73 90 116
75 93 121
73 90 116
70 88 115
77 95 122
76 93 120
71 88 114
75 94 122
73 90 116
75 92 118
73 92 121
72 91 118
72 88 114
73 90 117
73 90 116
70 86 110
74 91 118
66 83 108
69 85 110
76 93 120
70 88 114
71 88 114
76 94 121
72 90 116
68 85 111
70 86 111
68 84 108
69 86 111
71 88 115
74 91 117
69 84 108
62 75 95
51 62 78
50 61 78
53 64 80
52 62 79
52 63 80
53 65 82
53 64 80
49 59 76
53 65 83
58 70 89
54 65 82
51 63 81
54 66 84
53 64 81
50 61 78
56 68 86
55 68 88
54 66 84
51 62 78
50 62 80
45 56 73
54 65 82
57 69 88
55 68 87
62 75 94
53 64 81
55 67 84
54 65 83
54 66 83
59 72 91
56 68 87
53 66 84
50 61 77
52 63 80
54 67 85
51 63 80
57 69 88
53 65 82
56 67 85
56 68 86
52 64 82
54 65 82
56 69 89
57 69 87
52 63 81
55 67 84
57 70 89
53 65 83
53 64 82
53 64 81
59 72 91
50 62 80
58 71 90
56 67 85
58 71 90
50 61 78
52 64 81
52 64 81
53 65 82
54 67 85
56 68 85
58 70 89
56 68 87
57 69 88
55 66 83
53 65 82
56 68 87
52 63 80
53 65 82
53 65 83
52 63 80
57 69 88
55 67 86
55 66 84
58 71 89
56 68 87
54 66 83
55 68 86
54 65 82
57 70 88
56 67 85
53 65 82
55 68 86
58 70 88
51 62 78
50 61 78
58 70 88
49 59 74
56 67 85
52 63 79
49 60 76
55 67 84
50 61 77
52 63 80
53 65 83
52 63 79
52 64 80
47 58 74
58 71 92
69 85 109
69 87 113
72 89 115
71 87 112
76 93 118
72 89 114
72 87 110
70 87 111
68 84 108
73 91 117
71 89 117
73 90 115
72 89 115
71 88 113
73 91 118
73 91 118
72 91 119
70 88 114
72 90 116
72 90 116
73 92 119
73 91 118
73 91 118
72 89 114
74 92 118
77 95 123
74 92 119
74 91 117
75 93 121
72 90 117
75 94 122
74 91 118
73 91 118
73 92 120
75 93 122
72 91 119
76 93 120
73 91 117
70 88 115
77 95 122
75 94 123
77 95 123
72 89 116
74 93 121
74 93 120
77 96 125
74 92 120
77 95 122
73 91 117
77 95 123
77 96 124
76 94 122
77 96 123
77 96 124
74 93 120
77 96 124
76 95 123
75 94 122
78 96 124
76 95 122
77 96 123
78 96 123
77 95 122
79 97 125
75 93 121
75 94 121
76 94 122
78 97 126
76 95 124
77 96 124
76 95 124
76 94 121
76 94 121
78 97 126
73 90 117
76 94 121
77 95 123
76 94 120
76 94 122
74 93 121
78 97 126
80 98 126
76 94 121
76 95 123
77 96 124
77 96 126
79 98 126
77 96 124
78 97 125
78 95 121
77 95 123
78 98 128
75 92 119
78 97 125
76 94 122
77 96 125
76 95 123
76 94 121
77 96 125
77 95 123
77 96 125
77 96 124
77 96 124
76 95 123
78 97 126
76 95 123
79 97 126
76 96 125
77 97 126
78 98 127
77 96 125
79 97 124
78 97 126
80 98 126
79 98 126
78 97 125
78 98 126
78 98 127
78 97 125
78 97 125
77 96 125
77 97 126
78 97 126
78 98 127
78 97 125
77 96 124
80 99 127
78 98 126
77 97 127
77 96 124
77 96 125
79 98 127
77 96 125
78 97 126
79 98 126
80 99 127
78 97 127
78 97 126
78 97 126
79 98 127
81 99 126
79 98 127
79 98 127
78 97 127
76 96 125
78 98 128
77 96 125
78 97 126
78 97 126
79 98 126
78 98 127
80 98 126
79 98 127
80 99 127
78 98 126
78 97 125
80 99 127
79 98 127
78 97 126
78 97 125
76 96 124
77 95 123
79 97 126
80 99 128
79 97 125
77 97 127
75 95 123
78 97 125
81 99 127
79 98 125
77 96 125
77 96 126
78 97 126
79 98 126
77 97 126
77 96 125
78 97 126
79 98 126
78 97 126
76 95 123
76 96 126
77 97 125
77 96 124
79 98 126
77 95 123
78 98 127
78 96 124
77 95 122
77 96 124
76 94 122
75 93 120
77 96 125
80 99 127
77 96 123
78 96 124
78 96 125
75 95 126
76 95 125
78 96 124
77 96 125
77 96 125
75 93 121
76 96 126
75 94 122
78 97 125
78 97 126
77 96 124
75 93 120
78 97 125
78 97 125
78 96 124
74 93 121
74 93 122
79 98 126
77 96 124
79 98 127
79 98 126
77 96 125
77 96 124
78 97 125
76 96 125
75 94 122
77 97 127
79 97 125
77 96 126
78 98 127
77 95 123
77 96 124
77 96 124
75 93 120
76 95 124
74 93 121
77 96 124
78 96 122
74 93 120
75 94 121
76 96 124
75 95 124
76 96 125
78 96 124
75 95 123
72 90 118
75 94 123
77 95 123
77 95 122
74 92 119
75 93 120
75 93 121
76 94 122
76 94 120
78 97 125
75 94 122
78 97 125
75 92 119
78 97 125
73 91 118
74 92 120
74 93 121
73 91 118
71 90 118
75 94 121
76 94 122
75 92 118
76 94 121
72 90 117
74 92 119
74 93 121
74 91 116
75 93 120
72 90 115
75 93 120
76 94 120
76 95 123
75 93 120
71 88 114
75 92 118
72 90 117
72 89 116
74 92 120
72 90 116
73 90 115
74 90 115
71 89 116
73 91 118
74 92 118
74 91 118
68 85 111
66 81 105
71 88 113
71 88 115
66 82 106
68 85 110
70 86 110
69 86 111
72 88 112
67 83 108
67 83 108
70 86 111
70 87 111
73 90 115
62 77 100
57 70 89
54 65 81
50 62 79
50 61 78
55 66 83
55 67 85
51 63 80
56 67 85
54 66 83
51 62 79
53 64 80
50 61 78
55 67 85
55 67 86
53 65 81
56 69 87
54 65 83
55 66 83
51 62 78
54 66 82
52 64 81
52 63 81
50 62 79
52 63 79
53 64 82
60 72 91
56 68 86
53 64 82
55 67 84
54 66 83
54 66 84
54 66 84
57 69 87
53 65 83
52 64 81
53 64 81
51 62 80
55 66 84
57 69 87
56 68 86
49 60 76
56 68 86
53 65 83
52 63 80
48 58 74
53 64 82
56 69 87
58 71 90
52 64 82
54 66 85
55 67 85
54 66 85
54 66 84
55 67 85
49 60 76
50 61 78
51 63 80
55 68 87
55 67 84
53 65 83
54 67 85
52 63 80
49 60 77
54 66 83
56 68 86
53 65 83
51 63 80
53 65 84
50 62 79
56 69 87
57 70 88
55 67 85
57 69 87
55 67 85
55 67 85
57 70 89
53 65 83
49 60 76
53 64 81
60 72 90
51 63 80
52 63 79
55 67 85
53 65 82
54 66 83
52 64 81
57 69 87
55 67 85
52 64 81
52 64 82
49 60 76
57 68 86
51 62 79
55 68 87
50 61 77
57 69 87
50 61 77
62 75 95
67 84 109
70 86 111
70 88 114
73 90 116
73 90 116
67 84 108
71 89 116
71 89 114
70 87 112
71 87 112
68 85 111
72 89 115
71 89 115
76 93 120
74 91 118
73 90 116
73 91 118
75 93 119
74 91 117
71 89 116
70 87 113
71 89 115
71 88 115
72 90 116
75 94 122
72 89 116
73 91 117
70 88 113
70 88 115
74 92 118
73 91 118
73 91 119
75 92 119
74 92 119
72 90 116
74 92 119
76 94 121
74 92 119
73 91 119
77 96 125
77 95 122
75 93 121
75 93 120
76 95 123
75 94 122
78 96 123
77 95 122
73 91 118
75 93 121
74 92 119
77 95 122
74 93 121
75 94 122
75 94 121
74 92 120
75 94 123
75 93 120
77 96 125
76 93 120
76 95 124
76 95 123
77 95 121
77 95 122
74 92 120
77 95 123
74 92 120
77 96 123
74 93 120
77 96 125
77 96 123
77 96 124
77 96 124
77 96 124
76 95 123
76 95 124
76 95 123
76 95 123
78 97 126
77 97 127
76 94 122
77 96 125
79 98 127
76 96 124
78 96 124
79 97 126
73 92 120
77 97 126
76 95 124
77 97 126
75 94 123
77 96 124
78 96 124
78 97 125
76 94 121
79 98 126
77 97 127
76 95 124
76 96 124
78 96 125
77 96 123
78 97 127
74 93 121
78 97 126
78 97 125
76 96 126
76 95 124
78 97 125
79 97 125
78 96 124
78 96 124
78 97 126
79 97 125
79 98 126
78 97 124
78 97 126
78 97 125
76 95 124
74 93 122
79 98 126
78 96 124
76 95 123
77 95 123
77 96 124
76 95 124
77 96 126
77 96 125
76 96 125
79 98 126
79 98 126
78 97 124
79 98 127
78 97 126
77 95 123
79 97 126
76 95 124
80 99 127
78 98 127
79 98 127
78 97 126
81 99 126
80 99 128
77 96 126
77 96 125
80 98 127
79 98 126
79 98 126
78 97 125
78 97 127
77 96 125
78 97 125
80 98 126
76 95 124
77 97 126
78 97 126
78 97 124
77 96 125
75 94 123
79 98 126
76 94 121
78 96 124
77 96 125
79 99 128
78 96 124
78 97 127
80 98 127
79 97 124
77 96 125
80 98 126
78 97 125
79 98 127
79 98 127
77 96 125
78 97 126
76 95 123
78 97 125
77 96 125
78 96 124
80 99 127
78 96 124
77 96 124
77 96 124
76 94 121
77 97 126
78 97 126
78 96 123
77 97 128
77 96 124
77 94 121
79 98 128
76 94 123
78 96 124
79 96 122
76 94 122
79 98 126
78 98 127
76 95 123
78 97 125
78 96 124
77 97 126
78 97 127
77 95 123
78 97 125
76 94 122
78 97 126
79 97 126
78 97 126
76 94 121
79 97 125
78 96 124
76 95 123
77 96 123
74 92 119
76 95 123
76 95 124
75 94 123
77 96 124
78 97 126
78 97 126
77 94 121
75 95 124
75 94 122
75 93 119
78 97 126
76 94 121
76 94 122
77 96 125
75 94 122
75 94 122
78 97 124
78 97 124
78 96 122
78 98 128
77 95 123
76 94 121
76 95 123
75 93 119
75 93 120
76 95 123
75 93 121
74 93 121
75 93 120
72 91 119
76 95 124
75 93 121
75 95 124
76 93 119
73 91 119
75 93 120
74 91 117
73 91 117
74 92 118
76 94 122
76 95 123
77 95 122
74 93 121
76 94 121
78 97 124
74 92 120
74 92 119
73 92 120
76 94 122
72 90 118
77 96 124
75 94 121
77 95 121
74 92 118
76 94 122
77 95 122
76 94 122
73 91 117
70 86 110
70 87 114
74 91 116
75 94 121
74 91 117
73 91 118
76 94 121
76 93 119
73 90 116
71 88 114
75 93 120
72 90 116
72 89 115
70 87 113
69 86 110
67 83 108
72 89 115
76 94 120
74 91 117
73 90 116
75 92 119
67 82 105
63 78 101
75 92 119
68 83 107
71 88 113
69 86 112
68 85 110
71 87 111
68 85 109
68 84 108
74 92 118
68 83 106
54 66 84
54 65 81
50 60 76
50 60 76
57 69 87
54 66 84
55 67 86
48 59 76
48 58 74
51 62 79
53 65 83
52 63 80
54 65 82
53 64 81
54 66 83
50 61 77
52 63 81
49 60 77
55 67 84
53 64 81
50 61 77
55 68 86
52 63 81
57 69 87
54 66 83
56 67 84
58 71 90
54 65 82
53 65 82
54 66 84
57 69 87
53 65 82
57 70 88
55 67 84
55 67 85
54 66 83
56 68 86
55 66 83
53 64 82
53 64 79
55 67 85
55 67 85
56 68 85
54 65 82
51 63 80
52 64 81
51 63 81
55 67 85
56 68 86
54 66 84
53 65 83
56 69 88
56 69 87
56 68 86
52 64 81
54 66 83
54 65 82
52 64 81
57 69 87
55 67 84
56 68 86
57 69 87
57 70 89
55 67 84
53 64 82
53 65 82
55 67 85
54 65 83
52 64 82
55 67 85
51 62 78
54 65 82
52 63 80
54 65 82
52 64 82
56 67 85
54 67 85
49 60 76
55 67 84
50 61 78
52 64 82
55 66 83
49 59 75
58 71 90
54 66 84
54 66 84
56 68 86
50 61 78
53 63 79
53 64 81
54 67 85
58 70 88
51 62 78
51 63 80
51 62 79
54 65 82
68 84 109
68 84 107
65 81 106
68 84 107
72 88 112
68 84 108
68 86 113
67 83 106
72 89 114
67 83 107
70 87 112
69 86 111
74 92 118
72 89 114
74 91 116
69 86 111
72 89 114
68 85 110
76 95 123
66 83 107
73 90 116
75 92 119
74 92 118
72 90 117
73 90 117
71 89 116
74 92 120
73 91 119
76 95 123
73 91 117
74 91 117
77 95 123
71 89 116
72 90 116
73 91 117
76 94 120
73 91 117
74 92 118
69 86 112
76 94 121
73 92 119
71 89 116
76 93 119
71 90 117
77 96 124
72 90 117
76 95 123
75 93 119
76 93 120
74 92 120
75 93 120
77 96 123
79 97 124
74 93 121
75 93 121
76 95 122
75 93 121
74 92 120
76 94 122
76 95 122
77 96 124
74 92 120
74 93 121
74 94 123
76 95 122
76 93 120
77 96 125
74 91 118
78 97 125
79 98 127
74 92 120
76 94 122
76 95 123
77 95 122
76 95 123
76 95 124
77 95 122
74 92 120
76 95 124
78 98 127
74 93 122
77 96 125
78 98 127
74 92 120
76 95 124
76 94 121
76 94 122
79 97 124
77 96 124
78 97 124
76 95 123
79 98 126
76 95 122
77 96 125
78 97 126
79 98 126
77 96 124
78 96 124
78 96 124
77 97 127
79 98 127
80 98 126
76 95 123
79 98 126
76 95 124
77 96 126
77 96 124
78 98 127
78 97 125
77 96 126
78 96 125
77 96 126
78 97 126
79 98 127
77 95 123
75 94 122
78 97 126
79 98 127
77 96 125
76 94 123
78 98 127
79 98 125
78 97 125
78 97 125
79 97 126
79 98 126
76 94 122
76 95 124
76 94 122
79 98 127
79 98 127
76 96 125
78 97 126
78 97 126
78 97 127
75 94 123
78 98 126
78 97 126
76 95 123
76 94 122
78 97 124
78 97 125
77 96 125
79 98 128
79 98 127
80 98 127
76 95 124
79 98 127
77 97 126
79 99 128
79 99 128
81 100 128
79 98 127
76 97 127
79 98 127
79 97 126
78 98 127
78 96 124
78 97 126
79 99 128
78 97 126
81 100 128
77 96 124
77 95 124
77 96 125
79 97 124
76 95 124
78 97 124
78 97 126
80 98 126
76 95 124
77 96 126
78 97 127
78 97 126
79 98 127
77 95 122
78 96 123
75 95 124
77 96 125
75 95 123
79 97 124
80 99 128
79 98 126
77 96 125
81 99 128
78 97 126
79 98 126
79 97 123
77 97 126
78 97 126
79 98 127
79 98 125
78 97 126
78 97 126
78 97 126
78 97 125
80 98 126
79 99 128
78 96 124
75 94 122
76 96 125
77 96 125
76 96 125
75 93 121
78 97 125
77 95 123
79 99 128
76 95 124
78 96 123
77 95 123
78 97 125
78 97 124
78 96 124
78 97 125
75 94 123
76 95 123
76 95 123
76 95 123
76 94 121
77 96 125
75 93 120
77 95 123
77 95 122
79 97 125
75 93 120
77 96 124
76 94 121
76 94 121
77 96 125
73 92 119
75 93 120
76 94 122
76 95 122
76 95 122
76 95 123
74 94 122
76 96 125
76 95 123
76 94 121
76 95 123
73 91 119
76 94 121
70 88 115
74 92 119
77 95 122
75 93 119
75 94 121
78 95 122
75 94 121
75 94 121
70 88 116
74 92 118
74 90 115
76 95 122
75 94 122
73 92 119
73 91 118
76 94 122
73 92 121
71 89 116
76 94 121
73 91 118
73 91 118
73 91 118
76 94 122
76 93 120
76 95 124
75 94 122
75 93 119
73 91 118
68 85 112
75 92 118
72 90 116
73 91 118
72 90 116
74 91 116
73 90 116
71 88 113
72 90 116
71 88 113
71 89 116
73 90 117
71 88 113
69 86 111
73 90 116
66 83 108
73 91 118
69 86 112
73 91 117
65 81 104
67 84 109
74 92 117
70 87 112
68 84 107
70 87 112
68 84 108
71 88 114
69 85 110
68 84 108
68 84 108
68 85 111
70 86 110
68 83 107
63 78 100
67 82 105
56 68 86
52 64 80
52 63 80
52 63 80
52 63 80
48 59 75
53 64 80
52 63 80
50 62 79
50 61 78
53 64 81
51 61 77
53 65 82
57 70 89
52 63 80
49 60 76
50 61 78
53 64 80
56 67 84
52 63 80
54 66 84
58 70 88
55 66 84
51 62 78
56 69 87
54 66 84
53 65 82
49 60 77
55 68 86
55 67 85
50 61 78
53 65 83
53 65 83
53 64 82
52 63 80
52 63 80
52 63 80
53 64 82
50 61 78
58 69 87
53 64 81
53 64 82
52 64 83
53 66 84
53 64 82
54 66 83
52 63 80
57 69 88
59 71 90
51 62 78
59 71 89
55 66 84
55 66 84
53 65 83
49 59 75
52 63 80
52 64 81
54 65 83
52 63 81
53 66 85
51 62 79
52 64 82
58 70 88
52 64 81
56 68 85
56 68 87
56 68 86
50 60 76
56 68 86
54 65 83
53 65 82
49 60 76
51 63 81
51 62 79
56 68 86
53 65 82
52 63 80
55 66 83
55 67 85
53 64 80
52 64 81
57 68 85
53 65 82
58 71 89
49 60 76
50 61 77
55 67 84
55 66 84
50 61 77
57 69 86
48 58 73
53 64 81
50 61 76
54 66 84
62 76 98
60 74 96
68 84 107
65 80 103
69 86 111
68 84 108
71 88 114
69 84 107
66 82 106
73 90 116
69 85 109
67 84 109
70 87 112
71 87 111
72 90 116
72 88 114
69 86 111
71 88 112
69 86 112
68 85 110
69 86 112
73 91 118
73 90 117
73 91 117
70 88 114
76 94 120
70 86 110
76 94 123
71 89 116
72 89 114
74 92 118
70 88 114
70 88 116
73 91 117
68 85 111
67 84 110
75 93 121
77 95 121
71 89 115
73 91 118
73 91 118
74 93 120
72 89 115
75 94 122
74 92 120
74 94 122
74 92 120
76 94 121
74 93 120
74 92 118
75 94 121
76 94 121
74 92 118
77 96 124
77 94 121
78 97 125
73 92 120
75 93 120
75 94 122
77 96 125
77 95 122
77 95 122
76 94 123
76 95 123
74 94 123
76 95 122
76 95 123
77 96 123
78 97 124
75 94 123
77 96 124
77 96 124
77 96 124
77 95 123
77 95 121
76 94 122
75 95 123
77 96 124
77 96 124
77 95 124
78 97 126
76 94 121
79 97 124
75 94 123
73 92 120
75 93 121
80 99 127
79 98 127
73 92 120
77 96 124
75 93 120
77 96 124
78 95 122
77 96 124
78 97 126
77 96 124
74 93 120
78 97 126
76 95 123
77 95 122
77 96 125
77 95 123
77 96 124
77 96 124
79 97 125
78 98 127
78 97 126
79 97 124
78 97 126
77 96 124
76 96 126
76 94 121
77 97 126
77 96 124
78 96 123
79 98 127
77 95 124
79 98 126
78 98 127
79 97 125
80 98 125
77 97 126
79 97 125
76 95 124
78 97 126
78 97 125
78 97 126
79 98 125
79 98 127
76 95 123
79 97 126
79 98 126
76 94 121
80 99 128
77 96 125
79 97 124
77 95 123
80 99 128
80 99 128
78 96 125
78 97 126
79 97 125
80 99 127
77 96 125
80 99 127
75 94 122
79 98 126
79 98 127
75 94 123
78 97 126
78 97 126
78 97 125
78 97 126
77 96 125
78 97 126
80 99 128
79 98 126
76 94 121
76 95 124
76 95 124
78 97 124
79 97 125
79 98 126
77 96 125
77 96 123
79 98 126
78 97 125
79 98 127
77 96 125
79 98 127
77 95 124
76 95 124
77 96 126
77 95 124
77 95 123
78 97 125
79 98 127
76 96 126
77 97 126
77 96 124
79 98 127
78 97 125
78 97 125
80 99 127
78 96 123
78 97 125
78 97 125
76 95 123
78 97 125
79 98 126
76 95 123
79 98 126
79 97 126
78 97 125
77 96 125
77 96 125
79 97 125
77 96 124
78 98 127
77 96 125
79 98 126
77 95 121
78 96 122
76 95 122
75 94 122
79 98 127
75 94 123
76 95 123
76 96 126
78 97 127
79 98 126
77 96 124
76 95 122
76 95 125
77 96 124
75 93 121
76 95 123
77 95 122
77 96 125
77 96 125
78 97 126
79 98 128
75 94 122
75 93 120
77 96 124
74 92 119
75 94 122
76 94 120
75 94 121
79 97 125
77 96 126
77 96 124
76 95 124
81 99 127
78 97 126
77 96 124
74 93 120
75 94 121
77 94 120
74 93 120
78 97 124
74 93 121
78 96 124
74 93 121
74 91 117
73 92 119
78 95 122
79 98 126
78 97 124
75 93 121
72 91 120
77 96 123
73 91 119
78 96 122
77 95 123
72 91 120
71 89 116
73 90 115
77 95 123
73 91 118
72 90 118
75 93 120
73 91 118
71 88 114
76 95 124
79 96 123
77 96 124
73 91 118
74 92 119
72 89 115
72 90 117
76 93 120
74 91 117
71 89 116
72 90 116
72 89 114
74 92 120
72 90 117
72 89 115
72 89 114
69 87 112
68 85 112
71 89 116
75 93 120
71 87 113
71 88 113
63 79 102
70 87 111
67 83 106
73 91 117
72 88 113
69 85 109
74 92 119
69 85 109
68 84 107
71 88 113
72 88 113
68 84 109
70 87 112
69 85 109
65 80 103
65 81 104
67 83 107
67 83 107
69 85 110
67 81 102
67 83 106
59 72 91
51 61 77
54 65 83
49 60 76
57 68 85
57 69 87
47 56 71
53 64 81
53 65 82
46 57 73
49 60 76
52 63 81
50 61 77
54 66 84
56 69 87
48 58 75
54 65 83
53 64 81
54 65 83
53 65 83
52 64 80
53 65 82
53 64 81
53 64 81
49 60 77
52 63 80
53 65 83
56 68 85
52 63 80
56 69 87
57 69 88
53 65 83
55 67 85
58 71 90
52 63 80
57 69 87
56 67 85
47 58 74
55 66 83
58 69 87
52 63 81
60 72 91
52 65 83
49 60 75
51 62 79
51 62 79
50 62 80
60 73 93
57 69 88
55 66 84
55 68 86
54 66 85
50 61 77
57 70 89
53 65 84
55 67 85
54 66 84
49 60 76
56 68 85
56 67 84
53 64 81
52 63 79
53 65 83
50 61 78
57 69 87
52 64 80
53 64 81
54 65 83
59 72 91
51 63 80
51 63 81
58 70 88
53 64 80
50 61 77
57 69 87
54 66 83
50 61 77
53 64 81
48 59 76
52 63 79
52 63 79
55 67 84
54 66 83
48 59 74
52 63 80
56 69 87
54 65 82
49 60 76
50 61 78
54 65 81
54 65 82
58 71 90
63 79 101
67 83 107
66 81 103
68 84 107
66 81 104
63 78 100
70 87 113
67 83 106
68 84 107
68 83 107
71 87 111
74 91 116
73 90 116
70 86 111
69 87 113
69 86 111
70 87 112
72 88 113
68 85 111
71 87 112
73 91 119
67 84 110
68 85 110
69 85 109
70 88 114
66 83 108
71 89 114
71 88 113
74 91 118
75 93 121
71 89 116
67 84 110
70 88 114
75 93 121
70 87 113
73 91 118
76 94 120
72 91 119
73 90 116
74 92 119
70 88 114
76 95 123
71 89 116
73 91 119
72 90 117
74 92 118
75 94 121
75 92 119
75 92 119
71 89 116
75 93 120
78 97 125
76 95 122
73 92 121
74 92 120
77 94 119
72 90 118
73 90 116
71 90 117
76 94 121
75 94 122
76 94 121
73 91 118
78 96 124
76 95 123
73 92 120
77 96 124
72 89 116
78 97 125
74 93 120
75 93 121
75 92 118
72 90 117
76 94 121
78 96 123
77 95 122
76 95 122
78 97 125
77 95 122
78 96 125
79 98 125
75 94 122
77 96 123
77 96 125
78 97 125
78 97 126
78 96 122
76 95 123
76 95 125
73 92 120
77 95 123
76 95 124
77 95 124
76 95 123
77 96 125
77 96 125
76 95 123
78 97 125
80 99 126
75 94 121
77 96 124
78 96 124
76 94 122
76 95 123
77 96 124
78 97 125
76 95 124
76 95 123
79 98 126
77 95 123
79 97 125
79 98 126
76 96 125
75 94 123
78 96 124
81 99 126
79 98 126
75 93 119
75 94 122
77 95 124
78 97 126
79 97 125
79 98 126
78 97 127
74 93 121
78 97 125
76 95 123
78 97 125
77 96 125
77 96 124
79 97 126
79 98 126
77 96 124
79 98 127
79 98 125
75 94 123
81 99 128
78 97 125
79 98 127
75 94 123
77 97 126
78 97 126
80 98 127
77 95 122
78 97 125
75 94 122
80 98 125
79 97 125
78 97 126
78 97 127
79 98 126
76 95 123
77 96 124
78 97 125
76 96 126
77 96 125
78 97 126
79 98 126
79 98 127
80 98 125
77 95 122
80 99 128
78 96 124
77 96 124
81 99 127
78 97 126
77 96 125
75 94 123
77 97 125
76 96 124
79 98 126
76 95 124
77 97 126
78 97 124
78 97 125
76 96 125
77 96 125
77 96 125
81 99 127
78 96 124
78 97 125
78 97 127
78 97 125
77 96 125
76 96 124
79 98 126
78 97 126
77 95 123
76 95 123
76 95 123
75 94 123
77 96 124
73 91 119
77 96 126
77 95 123
75 94 122
77 95 124
78 96 123
78 97 126
75 93 121
76 95 123
76 95 124
77 96 124
76 95 123
77 96 125
77 96 125
78 97 126
79 98 127
80 99 128
77 96 125
78 97 125
77 95 124
75 95 124
77 95 123
74 93 121
78 97 126
77 96 125
78 97 125
78 97 124
76 95 124
75 94 124
74 93 122
78 96 125
76 95 123
74 93 120
76 94 122
75 94 122
76 95 123
76 95 123
76 95 123
75 94 124
74 92 119
77 95 123
77 95 122
76 95 124
74 92 119
77 95 122
75 93 119
76 94 121
78 96 124
77 94 121
73 91 118
77 95 124
73 91 119
76 95 123
75 94 121
76 94 121
73 92 120
72 90 116
74 92 120
75 93 121
72 89 115
74 93 120
74 93 120
69 87 112
72 90 117
74 92 120
76 93 120
73 91 120
73 90 115
73 92 120
75 93 120
72 90 115
72 90 118
75 92 118
72 91 119
74 91 116
72 90 117
72 90 118
73 91 118
72 89 115
74 92 118
73 90 116
70 87 113
75 93 120
71 88 114
72 89 115
71 88 113
72 88 113
70 87 114
74 91 117
71 87 112
71 89 116
74 91 116
73 90 115
71 88 114
73 90 115
69 85 109
73 91 119
68 84 109
68 84 110
68 85 109
67 83 108
67 83 107
67 84 110
65 81 105
69 86 111
66 82 105
64 80 103
68 83 106
69 85 109
67 82 106
64 78 100
68 83 105
67 83 106
69 84 107
64 78 98
67 82 104
64 78 100
59 71 89
52 63 79
47 57 72
53 63 80
52 63 80
52 63 79
49 60 76
49 60 77
53 64 81
50 62 79
52 64 82
56 67 85
48 59 75
57 69 87
51 62 78
50 62 79
52 63 80
53 64 80
49 60 76
54 65 82
53 64 82
55 66 82
57 69 88
55 67 85
54 65 83
52 64 81
52 64 81
57 69 88
56 69 88
55 67 85
57 69 87
57 69 88
51 62 79
56 69 87
50 61 76
56 67 84
53 64 82
53 65 83
58 69 87
53 65 83
58 71 90
52 62 78
54 65 82
51 62 78
56 69 87
50 61 77
46 57 73
53 65 82
58 71 90
49 60 77
57 70 88
53 64 82
53 65 82
47 57 73
53 65 82
55 67 85
58 71 90
55 67 84
48 59 75
54 65 82
54 65 82
54 65 83
51 62 78
52 64 80
50 61 77
56 68 86
56 67 84
52 64 81
51 62 79
52 64 82
57 69 88
53 64 82
49 59 74
50 62 79
44 54 69
55 66 83
52 64 82
51 62 78
57 69 86
50 61 77
51 62 79
50 61 78
51 62 80
51 62 79
49 59 75
51 62 79
58 70 87
50 61 77
52 63 79
54 65 83
63 78 100
63 78 101
68 84 107
68 84 107
69 86 110
63 78 101
66 82 106
68 83 106
69 85 108
68 85 109
74 91 118
68 84 106
71 88 113
74 91 117
65 80 103
71 89 115
72 87 111
72 89 115
68 85 109
69 84 108
73 91 118
73 90 116
74 92 119
67 84 108
68 83 107
72 89 114
72 90 117
70 86 111
72 89 114
76 93 120
72 91 119
73 90 117
70 87 113
72 88 113
71 88 113
74 93 120
75 92 117
75 93 120
73 92 120
73 90 115
76 94 120
72 89 115
73 90 117
75 94 122
76 95 124
74 92 119
75 94 122
74 93 120
71 88 114
74 92 119
76 93 120
76 95 123
75 94 122
74 92 120
74 92 119
75 94 122
74 92 118
73 91 118
76 93 120
75 93 120
73 91 117
74 92 120
72 90 116
74 92 119
73 91 119
72 91 118
76 93 120
75 92 119
77 96 123
74 93 121
76 95 124
76 93 120
75 94 122
77 95 124
77 97 126
77 95 122
73 91 119
75 94 123
75 93 119
77 95 123
78 96 124
75 94 123
73 91 119
76 94 122
76 94 122
75 94 121
73 92 120
78 96 123
75 94 123
74 92 119
77 96 124
77 96 124
79 97 125
74 93 120
76 95 125
76 95 124
76 95 123
76 94 123
77 97 127
75 94 122
76 95 123
76 95 123
76 95 124
77 95 122
78 97 124
76 95 122
78 96 124
78 97 125
78 97 125
76 95 123
74 93 121
77 95 122
78 97 126
76 94 122
77 95 123
80 98 125
78 97 126
78 97 126
77 96 124
79 98 127
78 97 125
78 97 126
78 97 125
79 98 127
77 97 125
76 94 120
79 97 124
77 97 127
77 96 124
79 98 126
78 97 127
77 96 125
77 95 122
77 95 123
77 97 125
78 96 124
77 96 126
76 95 123
79 98 127
77 96 125
77 96 124
76 96 125
79 98 127
80 98 125
77 96 126
77 97 126
80 99 127
77 97 127
77 96 123
78 97 125
80 98 126
77 97 126
78 97 125
79 98 126
78 96 125
79 97 126
76 95 123
78 97 127
76 95 123
79 98 125
78 96 124
80 98 125
79 98 127
78 97 125
78 97 126
74 93 121
78 97 126
78 97 126
76 94 122
78 97 125
75 94 122
79 98 126
81 99 126
77 96 125
76 95 123
78 98 128
77 96 124
77 96 123
78 97 126
78 97 125
77 96 124
78 97 125
79 98 125
77 96 124
78 97 125
77 96 124
77 96 124
77 96 125
78 97 126
79 97 124
77 96 124
76 95 124
79 98 127
78 96 125
81 99 128
77 96 124
79 98 126
77 96 124
77 97 126
78 96 124
77 96 126
79 98 126
75 94 122
77 96 124
75 94 121
78 97 125
78 98 126
78 97 125
76 95 124
78 97 125
78 96 122
80 97 123
76 95 124
78 97 125
77 96 124
76 96 125
75 94 121
76 94 122
75 94 123
77 96 124
75 93 122
79 97 125
78 96 124
77 96 124
78 96 123
73 91 118
77 95 122
75 93 121
77 96 125
78 97 126
75 93 120
76 94 121
73 91 118
74 93 121
76 94 120
74 93 121
74 92 118
73 91 117
76 93 120
74 93 121
76 94 120
75 93 120
76 94 122
76 95 123
76 94 120
76 94 122
73 92 121
74 93 121
76 95 122
76 95 122
76 95 123
76 94 121
75 94 122
75 93 120
75 93 121
74 92 118
74 92 118
76 94 120
75 93 120
70 87 114
73 91 117
72 89 115
75 93 121
75 93 119
73 91 118
74 92 118
72 90 116
72 90 117
73 90 117
74 92 118
76 94 120
74 92 118
70 87 112
70 86 111
74 91 116
74 92 119
72 89 115
76 94 121
73 91 118
70 87 113
72 89 115
69 87 114
68 85 110
69 85 109
70 87 112
75 93 119
71 88 114
71 87 112
73 90 115
71 88 113
73 89 114
66 82 105
66 82 106
68 85 110
73 90 115
70 87 112
68 85 110
68 85 110
69 86 110
67 83 106
69 85 109
65 80 103
62 75 95
67 84 109
67 82 105
67 82 104
63 78 100
68 84 108
62 76 98
60 74 95
62 76 97
52 63 80
50 60 75
51 62 78
52 64 80
51 62 79
48 58 72
47 56 71
53 65 82
47 57 73
53 64 81
55 68 86
49 59 74
56 68 86
52 63 80
51 62 78
55 67 85
50 61 78
51 62 78
51 61 77
49 59 75
51 63 80
52 63 80
55 67 84
54 66 83
51 62 78
54 65 82
52 63 80
55 66 84
53 63 80
48 59 74
53 64 81
53 64 80
51 61 77
51 61 77
49 60 77
54 66 83
55 66 83
56 68 85
53 64 81
51 62 79
53 65 82
53 65 82
52 64 81
54 66 84
57 69 87
54 66 83
53 64 81
52 62 79
50 61 78
51 63 80
56 69 87
51 62 78
54 66 83
48 59 76
47 57 72
52 64 81
53 65 81
50 60 76
54 65 83
52 63 80
51 62 78
52 63 79
51 63 80
54 65 83
61 73 92
54 66 83
52 63 80
52 63 80
55 67 84
52 62 78
50 61 78
56 69 87
50 61 77
57 69 86
56 67 85
46 56 71
51 62 78
56 67 85
52 64 81
50 61 76
51 62 79
56 68 87
48 59 74
49 59 74
51 61 77
50 61 77
53 64 80
54 66 82
65 80 103
60 74 95
63 77 100
65 80 103
62 76 98
65 79 100
69 85 109
68 83 105
63 77 99
63 78 99
61 76 97
70 86 110
69 85 110
67 82 106
68 85 110
67 83 106
69 85 108
70 87 111
70 86 112
68 84 109
71 88 114
68 84 108
69 85 109
67 83 108
69 86 111
72 90 117
72 90 115
72 90 116
68 85 110
71 87 112
73 91 118
71 88 114
73 90 117
71 88 114
71 89 116
74 91 117
70 88 114
72 89 116
72 90 116
73 91 118
79 97 124
70 88 115
73 92 120
72 89 115
73 91 117
69 86 112
72 91 118
75 94 121
76 94 121
75 92 119
73 91 119
76 95 123
71 89 116
76 95 123
76 94 120
74 92 119
76 95 124
72 91 119
75 93 120
76 94 121
75 94 121
78 97 126
76 94 121
73 92 119
74 92 119
71 89 114
74 92 119
75 92 119
75 92 119
74 93 121
72 91 118
76 94 122
78 97 126
78 97 126
75 94 122
74 92 119
77 95 124
76 95 122
77 96 124
76 94 122
76 94 121
75 94 122
76 94 122
73 92 121
73 91 118
79 98 126
77 96 124
77 96 124
78 97 127
78 98 127
76 94 122
76 94 122
78 96 124
76 94 122
77 95 122
77 96 125
78 97 126
76 95 124
76 95 123
76 95 124
76 95 123
77 97 128
76 95 123
76 95 123
75 94 123
76 96 124
77 96 125
78 96 124
77 96 124
76 95 123
79 97 126
79 97 125
76 95 124
79 98 126
76 95 124
76 95 122
76 95 123
77 96 125
77 97 126
76 95 124
76 95 123
75 95 124
78 97 126
75 94 122
78 97 125
77 96 124
78 97 126
77 96 125
79 97 125
79 98 127
76 95 123
78 97 126
78 96 124
78 97 127
75 94 123
79 99 128
77 96 124
79 98 126
79 97 126
77 96 126
80 98 125
79 98 126
77 96 126
79 98 126
78 97 126
78 97 125
79 98 127
77 97 126
79 98 128
77 96 125
80 98 125
77 96 125
77 97 128
76 95 124
79 97 125
77 96 125
78 96 123
79 98 126
75 94 123
78 97 124
78 97 125
75 95 123
77 96 124
78 97 126
79 98 127
78 97 126
79 98 126
79 98 127
77 96 126
77 96 124
81 99 128
76 96 126
79 98 127
77 96 125
77 96 125
77 95 123
76 96 125
75 94 124
77 96 124
77 95 122
79 97 124
80 98 126
78 96 123
78 97 125
79 98 127
76 95 124
78 97 126
76 95 123
78 98 127
80 99 126
75 95 123
77 96 125
75 94 123
77 96 124
78 97 126
77 95 122
79 97 125
78 97 126
79 97 125
75 93 121
76 95 124
77 95 122
77 96 124
76 95 122
75 94 123
77 96 125
78 96 123
79 98 126
77 96 125
77 96 125
76 95 123
77 95 123
75 93 119
78 98 127
76 94 122
74 93 121
74 93 121
76 95 124
77 97 126
78 98 127
76 94 120
75 93 119
75 94 122
77 96 124
80 98 125
77 96 124
75 93 120
74 92 120
76 94 121
77 95 122
76 94 122
75 94 122
78 97 125
73 91 119
75 94 121
75 94 122
79 97 125
77 96 123
75 94 123
73 92 122
75 94 124
74 93 121
75 94 122
76 94 121
76 94 122
72 90 117
75 94 122
73 91 119
77 95 123
73 91 119
77 96 123
79 97 124
72 90 117
78 97 125
76 94 120
73 91 118
75 93 122
73 91 117
75 92 119
73 90 117
77 96 124
68 86 111
74 92 119
74 92 119
73 91 116
74 91 117
75 94 122
72 90 116
75 93 119
72 90 117
72 89 116
75 92 118
72 90 116
73 91 119
69 85 109
74 91 116
71 88 114
71 87 113
70 87 112
72 90 116
71 87 112
67 83 108
73 90 114
71 88 113
73 90 116
69 85 110
72 89 114
69 86 112
66 82 106
68 85 110
71 87 112
72 89 115
68 84 108
71 86 109
67 83 107
71 88 113
67 83 107
73 90 115
67 82 105
71 88 112
66 82 105
67 83 106
69 86 110
65 80 103
65 80 102
66 82 105
62 77 100
66 81 103
68 82 104
65 80 103
63 78 99
62 77 99
67 82 104
51 62 79
45 55 69
53 64 80
52 63 78
48 58 73
54 65 82
50 61 77
52 63 80
55 67 84
51 62 78
51 62 78
51 61 77
49 60 77
55 68 86
56 67 85
49 60 76
53 65 82
54 65 83
53 64 81
53 64 80
49 60 76
54 65 83
53 64 81
52 62 78
56 68 86
56 68 87
49 59 74
51 62 79
53 65 82
53 65 81
52 63 79
50 61 77
54 66 83
54 65 83
56 67 85
55 67 85
55 67 84
55 66 83
53 65 83
50 60 76
50 61 77
59 71 90
56 68 87
53 65 82
52 64 81
54 66 83
51 62 78
53 64 81
52 64 82
53 65 83
55 66 83
51 63 80
55 66 83
51 61 78
53 64 81
54 66 84
52 63 79
47 58 73
51 62 78
55 67 85
53 64 82
49 59 75
51 63 80
50 61 77
52 64 81
54 65 83
49 61 77
56 68 86
48 59 74
47 58 73
48 59 75
50 61 77
57 69 88
51 62 77
47 57 72
56 68 86
53 63 80
52 63 79
52 63 79
49 59 74
51 61 77
51 62 78
49 60 76
51 62 79
44 53 67
53 64 81
60 74 95
68 83 107
60 74 95
66 81 103
67 82 105
65 80 101
64 79 102
65 80 104
65 81 105
63 77 99
71 87 112
70 86 110
70 86 111
70 85 109
72 88 113
65 81 104
68 84 108
65 80 103
69 85 109
65 80 103
72 89 116
64 79 103
67 83 108
66 82 106
73 90 115
70 87 112
67 82 106
67 82 106
73 91 119
68 84 109
69 85 109
70 87 112
76 93 120
72 89 116
70 87 113
72 91 118
73 90 115
74 92 118
74 92 120
73 91 118
72 90 115
72 90 116
74 92 120
73 90 116
76 94 121
71 88 113
73 91 118
69 88 116
74 91 118
73 92 120
75 92 118
74 92 118
73 91 118
72 91 119
75 94 121
70 89 116
74 92 120
76 94 122
76 94 122
75 94 121
74 93 122
72 90 117
70 88 114
74 92 118
76 95 123
73 91 117
75 94 121
77 96 124
76 94 121
79 98 127
76 94 121
74 93 121
74 93 122
77 96 123
76 95 123
75 93 121
77 96 123
77 96 123
76 95 123
75 94 121
75 94 122
78 97 125
77 96 124
76 94 122
79 98 126
74 92 119
79 97 125
76 94 122
78 97 126
76 94 120
78 97 125
75 93 120
78 96 123
76 97 127
76 94 122
74 92 120
78 97 125
76 95 124
74 93 121
78 96 123
78 97 124
73 91 120
78 96 123
76 95 124
78 97 125
77 96 125
77 95 123
73 91 117
74 93 121
79 98 127
77 96 126
75 94 123
79 97 125
78 97 125
78 96 124
78 96 124
78 97 125
76 95 124
78 98 126
78 97 126
73 92 120
76 95 124
77 95 123
79 98 126
76 96 125
78 97 125
78 97 125
78 97 126
80 98 125
76 95 123
78 97 125
78 97 125
78 96 124
78 97 126
77 97 127
76 95 123
78 97 127
78 98 127
77 96 124
77 96 125
80 98 126
79 98 126
78 97 127
79 98 126
76 94 122
78 96 124
77 97 127
75 93 120
77 96 123
75 94 121
76 96 125
78 97 124
76 95 123
80 99 127
80 99 127
80 99 127
76 95 124
79 98 126
78 98 127
79 98 126
76 96 127
78 98 127
79 98 127
76 95 124
77 97 127
75 94 124
78 97 125
78 97 126
76 94 122
77 96 124
78 98 127
76 94 121
78 96 124
78 97 125
78 97 124
77 96 125
79 98 127
78 96 123
77 96 126
76 94 122
78 96 125
77 97 126
79 97 125
79 98 127
79 98 127
77 96 125
78 96 125
76 95 124
80 99 127
78 97 126
78 96 124
78 98 127
79 98 125
77 96 124
75 94 123
76 95 125
76 94 123
76 95 123
74 94 122
76 94 121
77 96 125
76 95 124
78 96 124
76 95 125
76 95 123
75 94 123
78 97 125
78 96 123
78 96 124
75 94 123
78 96 124
75 93 120
78 97 126
77 96 125
78 97 125
77 96 123
76 94 122
75 94 122
77 95 123
79 97 125
77 95 122
77 96 124
76 94 121
78 96 123
75 92 117
77 95 123
76 95 124
75 92 119
76 95 124
76 95 122
74 93 121
75 94 122
75 94 122
77 96 124
75 93 121
77 96 124
78 96 123
73 91 118
75 94 122
74 93 121
72 89 116
75 93 121
77 97 126
77 95 122
73 92 120
76 94 121
75 93 121
72 90 117
74 93 120
74 93 121
74 90 115
75 93 119
76 94 120
75 94 122
72 90 116
74 92 119
73 90 116
76 94 121
75 93 120
70 87 112
74 92 118
73 92 120
77 96 124
72 90 117
71 88 115
71 89 116
76 94 121
74 91 117
72 89 116
74 91 117
68 85 111
73 90 116
75 94 122
72 90 116
68 84 108
69 86 111
74 92 118
71 89 115
72 89 114
73 90 117
72 89 116
68 85 110
75 92 118
70 85 109
70 87 113
71 87 112
70 88 114
71 87 112
69 87 113
70 86 111
68 84 109
70 87 112
69 84 107
65 81 104
65 81 105
64 79 102
69 86 111
65 81 104
66 81 104
65 80 103
63 78 100
69 85 110
63 79 103
66 82 105
65 79 101
61 75 97
65 81 104
63 78 99
65 80 102
56 69 89
61 74 95
64 78 100
60 73 93
59 72 90
63 77 98
59 72 91
47 58 73
53 63 79
52 64 81
52 64 81
51 62 78
51 62 78
56 67 85
48 58 74
52 63 79
53 65 82
48 59 75
53 64 81
53 64 81
50 61 78
50 60 76
54 65 81
51 62 78
52 62 79
48 58 74
55 67 85
53 64 81
52 63 80
53 65 82
50 61 77
47 58 73
47 57 72
49 59 75
53 65 82
54 66 84
56 68 86
51 63 80
54 65 82
46 57 73
49 60 77
51 62 79
51 62 79
54 66 84
53 64 81
52 63 80
55 67 84
50 61 77
53 64 82
55 67 84
50 61 77
52 64 81
51 62 78
51 62 79
55 67 85
51 62 79
50 61 78
54 66 84
55 66 84
53 64 81
57 69 87
47 58 73
50 61 78
50 61 76
51 62 79
47 58 74
54 65 83
53 65 82
54 67 85
50 61 77
51 62 80
49 60 76
50 61 77
47 58 73
52 63 81
52 64 82
52 63 80
50 61 78
57 68 85
52 63 79
53 65 82
48 58 72
48 58 74
56 67 84
52 63 79
46 56 71
54 65 82
49 59 74
47 56 71
59 72 90
60 74 94
58 72 92
61 76 97
64 78 100
63 78 100
66 81 104
62 76 97
58 72 92
63 78 101
66 82 105
65 80 103
73 90 115
67 82 105
65 80 103
67 82 106
72 88 113
68 83 106
67 82 106
71 88 115
70 86 111
69 86 111
70 86 110
71 89 114
68 84 109
71 88 114
69 85 109
69 85 110
71 88 114
69 86 111
67 83 107
72 90 117
74 93 122
70 87 113
70 87 111
67 83 108
71 88 114
67 83 108
75 93 120
73 90 116
69 86 111
75 91 117
70 87 113
73 90 117
75 94 121
73 91 117
76 94 120
70 88 114
69 87 114
73 90 116
73 91 118
77 95 122
71 89 115
75 93 119
76 93 119
73 90 117
75 94 123
76 94 122
75 93 118
73 91 118
74 91 118
73 92 120
76 94 121
76 94 121
75 93 119
73 91 119
77 95 122
71 89 116
73 91 118
74 92 120
74 93 121
71 89 115
77 95 122
78 97 124
77 95 121
76 95 122
75 93 120
74 93 122
76 94 122
73 91 117
75 95 125
73 92 121
77 95 123
78 97 124
76 95 123
75 93 121
76 94 122
72 91 119
77 96 123
77 96 123
77 96 124
76 94 121
78 96 124
76 94 122
73 92 120
76 95 124
77 97 127
74 92 121
74 93 122
76 94 122
78 97 126
76 95 122
77 97 126
80 97 123
75 94 123
78 96 124
76 95 124
76 95 123
75 93 120
76 95 124
76 95 123
77 95 122
78 98 126
76 94 121
77 96 124
78 97 126
76 95 124
76 95 124
76 95 123
75 94 123
75 94 123
76 95 123
77 96 125
79 98 126
76 95 124
77 96 124
78 97 125
80 98 126
75 94 123
78 97 126
77 96 124
77 96 124
78 97 125
79 97 124
77 96 124
79 98 127
78 98 127
76 95 124
76 96 125
77 96 125
78 97 125
79 98 127
77 97 126
79 98 126
75 94 122
80 99 128
79 97 125
76 94 121
76 95 124
77 96 124
76 94 122
75 94 122
78 96 124
78 97 126
78 97 126
77 96 125
76 95 123
76 94 121
77 96 125
78 97 126
79 98 126
76 96 125
79 98 128
77 96 125
78 96 123
77 96 125
78 98 127
77 97 126
77 96 125
80 98 126
78 96 124
77 96 126
79 98 127
78 97 125
79 97 125
80 99 128
76 95 123
78 97 126
78 97 125
77 96 125
76 95 123
77 96 124
79 98 127
74 94 122
77 96 124
77 96 124
78 97 125
76 94 122
78 97 125
77 96 124
78 98 127
77 96 124
78 97 125
79 97 125
76 95 124
76 95 124
77 96 124
79 97 126
79 97 125
78 96 123
78 97 125
77 96 126
77 95 122
76 95 124
77 96 124
78 97 126
77 95 123
77 97 128
75 93 121
77 95 123
77 96 124
77 95 124
78 97 125
77 95 123
76 95 122
77 95 123
77 96 124
77 96 124
75 94 123
77 95 123
76 94 122
78 97 125
76 95 122
75 93 120
76 95 123
74 92 119
76 94 122
75 94 122
77 96 124
77 95 123
75 93 121
74 92 120
79 97 124
76 94 122
77 95 122
75 92 119
76 94 122
73 92 120
75 94 122
76 95 122
77 95 124
78 97 126
73 91 118
76 93 120
74 93 122
74 92 119
74 93 120
75 93 120
76 94 122
73 91 117
75 92 119
75 93 121
77 96 123
76 94 122
74 92 118
71 89 115
69 87 112
77 95 122
71 89 115
70 88 115
74 93 122
70 87 114
71 88 114
69 87 113
72 90 117
70 87 114
77 96 124
74 91 116
72 88 113
70 88 114
73 90 116
69 85 110
71 89 116
76 93 120
71 88 114
73 90 116
74 93 121
69 86 111
71 88 115
71 88 114
73 89 114
74 92 119
74 92 119
72 89 114
69 85 110
68 85 110
67 83 107
68 84 109
67 83 108
68 84 109
74 91 118
66 82 107
69 85 108
70 86 110
71 87 112
69 84 108
70 86 110
69 86 112
70 86 110
64 79 101
70 86 111
66 81 104
69 86 110
64 80 103
64 79 102
64 79 101
64 79 102
64 78 100
68 84 107
63 78 101
61 75 96
63 76 97
67 82 105
66 81 103
67 82 104
57 70 90
59 71 90
59 72 92
53 64 81
53 64 80
51 62 78
52 63 80
51 63 81
49 59 73
49 59 75
49 60 76
55 66 83
51 62 77
49 59 75
48 59 75
51 62 78
51 62 79
51 62 79
54 65 82
48 58 73
51 62 79
48 59 76
57 69 87
52 63 79
52 63 79
50 61 77
56 68 85
53 64 81
54 66 82
52 64 82
52 62 78
51 62 79
52 63 80
51 61 78
51 61 78
50 60 76
52 63 80
56 68 86
49 59 74
51 62 78
57 69 86
49 60 77
52 63 80
51 62 79
54 66 83
52 63 80
48 58 74
52 64 80
54 66 82
51 63 80
51 62 78
50 61 78
52 62 78
50 61 78
51 62 79
48 59 76
55 67 85
52 63 80
52 64 81
50 61 78
46 56 72
54 66 84
49 60 76
52 64 81
53 64 81
52 63 79
50 61 77
53 64 79
51 61 77
48 59 75
47 58 73
50 60 76
47 57 73
52 63 80
57 69 86
47 57 72
52 64 81
50 61 77
48 59 74
49 59 75
54 65 83
51 61 77
43 53 67
50 61 76
58 71 90
60 74 94
60 74 94
63 78 99
60 74 95
71 88 112
65 79 102
61 75 96
58 72 93
61 75 96
67 82 104
60 74 95
68 84 107
60 73 93
61 74 95
71 86 109
63 78 101
66 82 105
68 83 106
66 81 104
71 88 113
64 79 100
70 86 111
69 86 110
68 84 108
71 88 113
69 85 110
68 84 108
70 86 110
72 88 113
69 86 112
71 89 116
71 88 113
73 90 116
70 87 113
65 81 105
73 90 115
70 87 114
76 93 119
71 89 115
69 85 109
74 91 116
72 90 116
72 90 116
74 91 118
75 93 121
68 86 112
72 91 118
72 90 117
73 91 117
71 89 115
72 89 116
72 89 114
71 89 116
75 93 119
73 91 118
76 94 120
75 94 122
73 90 117
74 92 118
74 92 119
76 95 122
72 90 118
76 94 122
73 90 115
74 92 120
77 95 123
74 93 121
72 90 116
76 94 121
74 92 120
74 92 120
76 94 121
76 94 122
74 92 118
76 94 122
73 92 120
75 94 121
73 91 119
77 96 125
75 94 121
70 88 115
75 94 121
76 95 123
77 97 126
71 89 115
74 92 119
73 91 117
76 94 122
75 93 121
76 94 122
78 96 123
75 93 120
78 96 124
73 91 118
77 95 122
78 96 123
78 97 126
77 96 125
77 95 123
77 95 123
76 95 123
73 92 120
75 94 124
78 97 125
77 96 124
76 95 124
75 94 122
76 96 125
77 96 124
77 94 120
75 93 121
78 96 123
77 95 122
76 96 124
77 96 125
79 97 125
77 96 125
74 93 121
79 97 125
75 94 123
78 97 125
74 93 122
79 98 126
79 97 124
79 98 127
78 96 124
76 94 122
77 96 124
77 96 124
78 97 127
78 97 125
74 93 122
75 94 122
77 96 125
76 94 122
78 96 125
77 96 124
78 97 125
79 98 126
81 98 125
77 95 122
78 96 125
78 97 126
80 99 127
78 98 128
78 97 125
77 96 124
78 98 127
79 98 126
77 95 123
78 97 127
75 95 124
79 98 127
75 95 124
79 98 128
78 97 126
78 97 125
76 95 125
77 95 123
78 97 125
77 96 125
77 95 123
78 97 124
76 95 123
77 96 124
78 97 125
80 99 127
79 98 126
77 96 124
77 95 122
79 98 127
79 98 125
76 94 121
79 98 127
79 98 127
78 97 125
78 97 125
76 94 121
75 94 121
78 96 124
77 96 124
75 94 122
79 98 127
79 98 126
77 96 123
80 98 126
79 98 127
79 98 126
78 96 124
80 99 127
78 95 122
76 94 122
79 98 125
76 95 123
78 97 126
78 96 123
79 98 126
78 97 124
75 94 122
78 97 124
77 96 124
80 98 126
77 95 123
77 95 122
78 97 125
76 94 121
75 94 121
77 95 121
75 94 123
77 94 121
76 95 123
78 97 126
78 97 125
76 95 123
74 92 120
79 98 125
78 96 123
74 92 121
79 97 124
76 94 122
75 93 121
73 91 118
76 95 123
74 93 121
79 97 125
76 96 125
80 98 125
74 92 120
73 91 118
76 94 121
76 95 123
72 89 116
74 92 118
77 96 123
73 90 117
76 94 122
76 94 121
74 92 120
79 98 126
75 94 123
75 93 120
74 92 118
75 94 122
74 92 119
76 95 123
72 90 116
77 96 123
74 93 121
77 94 119
71 88 113
73 91 118
78 96 123
74 92 118
76 93 120
75 94 123
71 89 116
73 91 119
75 92 118
74 92 120
72 90 117
74 92 118
75 92 118
74 92 118
71 89 115
72 89 116
68 85 110
69 86 112
72 90 116
72 89 114
76 94 120
70 88 114
72 89 116
73 91 118
69 86 112
71 90 117
74 92 118
73 91 117
73 90 116
73 90 116
71 88 114
67 83 108
67 84 110
74 93 120
69 86 112
68 86 111
70 87 113
72 89 114
71 88 113
71 87 111
68 84 108
69 86 111
70 87 112
69 86 111
68 84 108
65 81 105
70 85 108
66 82 106
68 84 107
66 81 102
62 77 99
67 83 107
68 84 107
67 83 106
66 82 106
66 81 105
64 78 99
62 76 98
61 74 94
57 70 90
67 82 103
66 82 107
63 77 97
62 76 96
62 76 97
60 74 95
65 79 99
54 65 82
54 66 83
56 69 88
54 66 84
50 61 76
50 60 75
46 56 71
49 59 74
50 60 76
54 65 82
48 58 73
43 52 66
52 63 80
52 63 80
54 66 84
51 62 77
51 62 79
57 68 86
57 69 87
51 62 79
53 64 81
50 60 76
47 57 73
52 64 81
49 59 74
49 60 76
52 63 80
55 68 86
52 64 81
51 62 80
55 68 86
49 59 75
50 61 78
49 59 75
50 60 76
56 68 86
49 60 76
54 65 83
52 64 81
55 67 83
52 63 79
56 67 85
55 67 84
52 63 80
45 55 71
49 60 77
51 62 78
52 63 79
55 67 85
53 65 83
46 56 70
50 61 78
50 61 78
53 65 83
51 62 80
54 66 83
53 65 82
52 63 79
52 63 79
52 63 79
48 58 74
51 61 78
52 62 77
48 58 73
52 63 79
47 57 73
54 65 82
50 60 75
52 63 79
50 60 76
48 58 74
49 60 76
50 60 76
52 64 81
45 55 69
51 62 78
53 65 82
51 61 77
46 56 71
47 57 72
43 52 66
53 64 80
57 69 88
59 72 91
57 70 89
56 68 87
57 69 88
60 74 93
63 78 99
64 78 99
63 78 99
57 70 90
66 80 102
67 83 106
70 86 110
66 82 104
63 77 97
70 86 109
64 78 100
69 85 109
66 82 105
71 88 113
59 74 95
70 87 113
69 85 110
66 83 107
70 86 109
70 86 110
70 87 112
73 90 115
65 81 104
70 86 110
65 81 105
71 87 111
67 84 109
72 89 114
73 90 116
69 85 109
73 91 117
72 89 114
69 86 111
71 89 115
69 84 108
72 89 114
70 86 111
71 88 114
71 88 114
70 87 114
75 92 118
72 89 113
71 87 113
72 90 117
74 92 120
73 91 117
70 87 114
68 86 113
68 84 109
75 92 118
71 89 115
70 88 113
74 92 120
74 93 120
76 95 122
73 91 118
70 88 115
74 92 119
77 95 121
76 94 121
74 93 121
75 92 119
76 93 120
75 93 120
73 91 118
76 94 120
75 94 122
76 94 121
73 91 116
76 94 121
74 92 118
76 94 121
74 93 121
73 90 116
77 95 122
74 93 122
75 93 120
75 92 119
77 96 123
73 91 117
71 90 117
75 93 120
75 93 121
72 90 117
75 94 121
78 97 125
75 93 120
75 94 122
75 92 118
75 94 123
76 95 123
74 92 119
77 97 127
76 94 122
73 91 118
76 94 122
78 97 125
80 99 127
79 97 125
75 94 122
79 97 125
77 96 125
77 96 123
72 90 117
78 96 123
77 96 126
77 96 125
78 97 124
77 96 125
80 99 128
77 95 123
76 93 120
75 94 122
76 95 123
78 97 125
76 95 122
76 95 123
77 96 124
76 95 124
78 97 125
76 95 123
80 98 125
75 94 121
77 97 126
78 97 126
76 95 124
78 97 125
79 98 126
77 96 124
77 96 124
78 96 123
78 97 126
76 95 124
80 98 125
76 94 122
76 95 124
77 96 124
78 97 124
74 94 123
79 98 126
78 98 126
78 97 125
77 95 124
79 98 126
76 95 123
78 97 126
78 98 127
79 98 127
75 94 123
77 95 122
77 97 127
76 95 123
79 98 127
79 98 128
78 97 127
78 97 125
78 97 126
80 98 126
76 94 122
75 93 120
77 96 124
78 97 124
76 94 122
80 99 127
78 97 126
76 96 125
77 97 125
79 98 127
76 95 123
79 97 125
74 93 122
77 96 123
78 97 125
78 96 124
75 94 122
78 97 126
78 97 124
78 97 127
79 98 126
78 96 124
78 97 127
77 96 125
78 97 125
77 96 124
77 95 123
78 97 126
76 94 121
75 94 121
78 98 127
77 94 120
77 95 124
78 97 126
77 96 125
76 95 122
79 98 126
77 95 123
78 96 124
76 94 122
77 95 122
77 96 124
76 94 121
75 94 123
76 94 122
76 94 122
74 93 121
76 95 123
74 92 119
77 95 123
76 95 123
78 97 126
77 96 123
77 95 123
75 94 122
75 93 121
76 95 124
75 94 121
77 96 125
75 93 120
78 97 125
73 92 120
75 93 119
77 95 121
75 94 121
75 93 120
74 93 120
75 93 119
77 96 125
75 93 120
74 93 120
74 92 118
75 93 120
73 92 119
77 95 122
72 90 116
73 91 117
75 93 121
75 93 120
73 90 116
74 91 118
76 94 122
77 97 126
77 95 122
73 92 121
75 93 121
74 92 119
75 93 120
74 91 117
78 95 122
73 92 119
75 93 121
77 95 122
71 88 114
72 89 115
72 89 116
72 89 115
73 92 119
72 90 116
71 88 114
74 92 119
72 89 115
73 91 118
72 89 114
71 89 116
75 92 119
71 88 114
71 88 113
72 89 113
70 87 114
71 89 115
74 92 117
73 90 116
74 92 120
73 90 117
65 81 105
69 85 110
69 85 109
70 86 110
68 84 108
72 89 115
71 89 115
69 85 110
75 92 118
71 88 114
70 86 111
70 87 112
72 89 115
71 87 112
66 82 106
70 87 112
65 79 100
63 78 101
69 85 108
64 80 104
65 79 101
67 82 106
64 80 103
65 80 102
65 80 102
65 79 101
64 78 100
69 86 111
68 84 107
62 77 99
63 78 99
62 77 100
68 83 106
65 79 101
66 81 104
64 79 102
62 75 95
56 68 87
58 70 89
58 71 91
52 63 80
62 76 97
56 68 87
57 69 87
52 63 79
52 62 78
48 58 73
46 56 71
49 59 73
46 56 70
48 59 74
42 52 66
50 61 77
55 66 83
57 69 87
49 59 74
50 61 77
53 64 81
51 62 79
54 65 81
55 66 82
49 59 75
52 63 79
53 65 82
51 62 78
48 58 73
51 62 78
44 54 68
56 67 84
52 63 79
52 64 80
48 58 74
55 66 83
48 58 73
52 64 82
50 60 76
58 69 86
46 56 71
56 68 86
47 58 73
48 58 74
51 61 77
53 64 81
50 61 77
51 62 78
51 62 79
51 62 78
53 64 81
48 59 74
53 64 81
49 60 76
50 61 78
51 62 78
51 62 79
49 60 76
51 61 77
51 61 77
53 63 79
50 61 77
50 61 77
50 60 76
51 61 78
51 63 80
54 65 81
50 61 78
53 64 81
48 59 75
52 63 78
52 63 79
50 61 78
48 58 74
50 61 77
53 64 81
52 62 77
48 58 73
51 61 77
52 62 77
50 60 76
45 55 70
56 67 83
55 67 85
59 71 90
60 73 92
57 69 87
54 66 84
58 72 92
55 68 87
64 78 99
65 80 102
64 78 99
61 74 93
63 76 97
58 72 92
63 77 99
61 75 96
61 75 97
64 79 101
64 79 103
67 83 107
68 84 108
67 82 105
68 85 109
65 80 102
69 86 111
71 87 112
67 83 106
63 79 103
68 84 108
66 82 105
69 84 108
69 86 111
69 86 110
69 85 110
71 87 112
66 81 104
68 84 107
73 90 116
68 84 109
69 86 110
68 85 111
69 86 111
68 85 110
75 92 118
70 87 112
71 89 115
72 88 113
73 91 117
68 84 110
68 84 108
69 87 113
69 87 113
71 89 115
70 87 114
75 93 121
74 91 116
72 90 116
73 91 119
76 93 120
73 92 120
68 84 108
75 93 120
68 85 111
75 92 118
75 94 121
71 89 117
75 93 120
75 93 120
71 89 116
75 93 121
72 90 117
74 92 119
76 95 123
75 93 121
73 92 120
70 87 112
74 92 119
74 92 120
73 90 117
75 93 119
76 94 121
69 87 113
75 94 123
73 91 118
76 94 121
71 89 116
77 96 124
74 93 121
75 94 122
73 92 120
74 92 120
74 94 123
76 95 124
74 93 120
75 93 120
78 96 123
77 96 124
74 93 120
77 95 122
78 97 125
75 94 123
75 93 121
78 96 124
79 98 125
77 95 123
75 94 121
78 97 124
73 91 119
74 92 119
79 98 126
76 95 123
74 93 122
76 95 123
76 95 124
78 96 123
76 96 125
76 94 121
79 98 127
76 95 122
78 96 124
76 94 123
79 98 126
78 97 125
77 96 125
78 97 124
79 98 126
73 92 120
76 95 124
80 99 128
75 94 121
79 98 128
79 99 128
76 95 124
79 97 124
75 94 122
78 96 125
77 96 124
76 95 123
78 97 126
78 97 126
78 97 125
78 97 126
77 97 126
76 96 126
81 99 128
76 96 124
76 95 123
79 98 126
80 98 126
78 96 123
77 97 127
79 98 126
77 96 124
77 96 124
78 97 126
76 94 122
78 97 126
78 97 126
76 95 123
74 92 119
77 96 124
78 97 126
78 96 124
79 98 128
80 99 127
77 96 124
81 99 127
78 97 125
76 96 125
78 96 123
81 99 127
76 96 127
77 95 123
78 96 123
78 97 125
79 97 125
79 98 126
76 94 122
78 97 125
79 99 128
77 97 126
78 97 125
77 97 125
78 97 125
75 94 123
77 96 125
77 96 124
75 93 119
76 96 125
79 97 124
75 95 123
74 93 121
76 95 123
77 96 124
80 98 125
75 93 119
76 95 124
77 96 125
75 94 122
75 95 123
78 97 126
79 97 125
74 93 120
77 96 124
77 95 122
77 96 123
78 98 128
75 94 122
77 96 126
78 97 125
77 96 124
77 96 124
77 96 125
78 97 126
76 94 121
77 96 124
77 95 123
76 94 122
75 93 121
76 94 121
77 95 122
77 95 123
75 93 121
75 94 121
76 94 121
75 94 123
75 94 123
77 96 123
77 96 123
76 94 121
75 93 121
73 91 119
74 92 119
76 93 119
76 93 119
77 95 123
77 96 123
77 95 123
73 91 118
71 89 116
77 95 123
72 90 117
75 92 119
72 90 117
76 94 122
72 91 119
77 95 123
73 92 120
76 94 122
79 98 127
71 89 115
74 91 115
77 95 122
74 94 122
76 94 122
74 92 118
75 93 120
74 91 118
71 88 113
70 87 113
72 90 117
75 92 118
74 92 119
72 89 114
70 87 114
74 92 118
69 85 110
73 91 118
73 91 118
70 87 112
75 92 118
71 88 115
77 96 124
72 90 116
76 94 120
70 87 112
71 88 112
74 91 117
73 91 117
73 89 114
72 90 117
67 84 108
71 88 113
74 92 118
68 84 109
68 83 106
72 89 115
70 87 112
66 82 107
71 87 112
70 87 113
71 88 112
70 85 109
67 84 108
64 80 102
65 80 103
67 82 105
66 82 106
62 77 98
68 84 107
71 88 113
70 86 111
63 77 99
69 84 108
65 79 102
67 82 106
68 83 105
60 75 96
65 80 102
60 75 97
61 75 96
59 73 94
62 76 98
59 72 91
62 75 95
64 79 101
58 71 92
54 67 85
66 81 103
62 75 96
54 67 86
56 68 87
56 68 86
59 71 90
64 78 98
53 64 81
49 60 76
44 53 67
45 55 70
49 59 75
47 57 72
50 61 76
49 59 74
46 56 71
55 66 83
45 56 71
51 61 78
45 55 69
51 61 78
52 63 78
50 61 78
50 60 76
49 59 75
55 66 82
49 60 76
52 63 79
52 63 79
49 59 75
53 64 81
53 64 81
51 62 78
49 59 75
48 58 74
48 59 75
55 67 84
52 63 80
51 62 79
53 65 81
53 64 80
51 62 78
48 59 74
51 62 78
50 61 77
47 57 73
49 59 76
52 64 81
53 65 82
52 64 80
55 67 84
55 66 84
50 61 77
52 63 80
53 64 82
51 62 79
54 65 82
50 60 76
53 65 82
52 63 80
45 55 70
52 62 78
51 61 77
56 68 85
55 67 84
52 63 79
52 63 79
48 59 76
49 60 75
54 65 82
47 57 72
51 61 76
56 67 84
46 55 70
51 61 77
45 55 70
53 65 81
54 65 81
50 60 75
45 54 69
43 52 67
50 61 77
62 75 95
56 68 86
51 61 77
61 73 92
53 65 84
58 71 90
61 75 95
60 73 93
64 79 101
61 74 93
62 76 97
61 74 94
59 72 91
66 80 103
62 77 100
59 73 95
65 80 101
66 81 104
64 80 104
63 78 100
63 78 101
67 82 104
69 84 107
68 84 109
67 83 107
69 84 107
65 81 104
68 84 108
68 83 105
70 87 112
70 86 110
68 86 111
72 88 113
70 86 110
72 88 112
70 86 110
69 85 109
69 86 111
69 86 112
73 89 115
73 90 116
73 90 115
69 86 111
73 90 116
71 88 113
69 86 111
72 89 115
68 84 108
73 90 116
72 90 115
72 88 113
75 93 119
70 88 116
72 89 114
73 90 116
72 90 117
74 91 118
74 91 118
69 86 111
71 87 112
77 96 123
74 91 118
69 86 112
71 88 115
74 93 122
75 94 122
77 95 122
78 96 124
72 90 117
76 94 121
75 93 121
75 93 120
72 91 120
75 92 117
72 89 115
74 93 120
73 91 119
76 94 120
77 96 124
72 89 116
77 94 120
75 93 121
74 93 120
78 96 122
76 94 121
72 90 118
75 93 120
76 94 121
73 92 119
78 97 124
75 94 123
71 88 114
75 92 118
75 92 119
74 92 118
78 96 123
78 95 122
73 91 119
74 93 122
77 96 124
77 96 124
76 94 121
77 96 124
77 95 122
76 95 124
76 94 122
76 95 123
74 92 119
73 91 119
77 95 123
75 94 123
76 95 124
78 97 126
75 93 120
76 95 123
77 96 125
78 97 124
78 96 124
75 93 120
75 93 119
76 95 123
76 96 125
78 97 125
78 97 125
78 97 125
75 94 122
77 96 123
79 97 125
79 98 126
77 96 124
75 94 122
75 94 121
76 95 124
78 96 125
78 97 124
75 94 123
76 95 124
77 95 123
78 97 125
77 96 124
76 95 123
77 96 124
77 95 122
77 97 126
80 99 127
76 95 123
77 95 123
77 96 124
77 96 124
76 95 123
79 98 127
76 96 125
80 98 126
77 95 123
77 97 125
77 95 123
75 94 122
79 97 126
78 96 124
78 97 126
76 95 124
78 97 126
75 95 123
77 95 123
77 96 125
76 94 122
80 99 128
78 98 127
79 97 125
77 96 125
75 95 124
77 96 124
77 96 124
77 96 125
78 97 124
79 98 125
77 97 126
78 98 127
79 98 127
79 98 127
76 95 124
78 97 125
76 95 123
76 95 122
77 96 126
76 95 123
79 98 126
78 96 125
78 97 126
79 98 126
77 95 124
81 99 127
79 98 125
76 95 124
78 97 125
76 95 124
80 98 126
77 95 123
76 95 124
77 96 125
74 93 122
76 95 123
75 93 120
76 95 124
78 97 126
75 94 122
75 94 122
78 97 125
78 96 123
79 97 125
76 94 122
78 97 127
73 92 120
74 92 119
74 93 122
76 95 122
76 94 121
77 95 123
75 95 124
77 96 123
75 93 120
74 92 119
76 95 122
76 94 121
75 93 120
72 90 117
76 94 122
77 95 122
78 96 123
77 95 123
77 95 123
77 96 124
76 95 122
78 96 123
75 94 122
74 92 119
74 93 120
75 93 120
75 93 120
74 92 118
77 95 121
75 94 122
75 93 120
72 90 117
74 92 118
75 93 120
72 91 119
76 94 121
76 93 119
74 92 118
74 92 119
71 88 114
75 93 121
75 93 121
71 89 116
74 93 120
77 95 123
73 90 116
74 92 118
75 94 122
71 89 115
73 91 119
74 92 119
74 92 118
73 90 115
72 89 115
73 91 118
70 87 111
72 89 114
72 90 117
72 90 116
71 87 113
75 92 118
73 90 115
72 90 117
71 89 116
70 87 112
73 90 116
72 89 114
71 87 112
69 86 112
71 88 113
69 86 112
69 84 108
68 84 109
70 87 112
72 89 114
72 88 114
69 84 108
70 86 111
66 82 107
70 85 108
65 81 105
67 82 104
71 87 112
70 87 111
69 85 107
69 84 107
65 79 101
67 83 107
69 85 108
65 81 104
68 84 107
66 81 104
59 72 93
68 83 106
63 78 101
63 78 101
65 80 102
70 85 107
60 75 96
62 77 98
63 78 99
62 76 96
59 73 94
62 76 96
62 76 96
59 73 93
62 75 94
59 72 92
59 72 91
52 64 81
62 75 96
59 71 89
52 63 79
61 74 93
50 61 77
50 61 78
49 59 74
46 55 70
46 56 71
47 57 73
43 53 66
42 51 66
48 59 74
47 57 72
53 65 82
47 57 73
49 59 73
47 57 71
45 55 69
49 59 75
48 59 75
50 61 76
56 67 85
47 57 72
53 65 81
50 60 76
53 64 81
52 63 79
47 58 73
49 60 75
54 65 81
50 61 76
51 62 78
52 63 78
50 60 76
52 63 81
54 65 81
52 64 80
53 64 80
47 57 72
51 63 80
50 61 78
53 64 81
49 59 75
53 64 81
47 58 74
50 61 77
51 62 78
51 61 77
52 63 79
51 62 78
52 63 80
52 63 79
50 60 76
51 62 79
49 60 76
47 57 72
49 59 74
47 58 75
51 62 78
51 62 78
51 61 77
51 61 76
53 64 82
54 65 82
51 61 77
56 67 85
51 62 79
51 61 76
47 57 73
55 66 83
53 64 81
47 57 73
48 58 73
43 52 65
50 60 76
56 68 85
56 68 86
50 60 76
58 70 89
62 74 93
60 73 92
54 66 84
61 74 94
58 70 89
62 75 96
61 75 96
59 72 92
68 83 106
65 79 100
61 75 95
67 82 104
61 75 96
61 76 98
63 77 98
62 75 95
63 79 101
70 85 108
61 75 97
69 84 107
58 71 92
67 83 106
62 76 97
59 73 94
68 84 107
62 77 99
70 87 111
72 89 114
68 83 106
74 92 117
70 87 113
68 84 108
66 82 106
70 86 110
64 80 103
70 87 112
66 83 107
70 87 113
73 91 117
71 88 113
70 87 112
71 88 114
67 84 109
70 86 112
70 87 112
70 87 111
72 88 112
73 90 114
71 88 114
70 87 112
72 89 114
73 91 118
75 93 120
73 91 116
71 88 114
75 93 119
73 90 115
73 90 116
71 89 116
73 90 115
73 90 117
74 92 120
74 92 118
74 92 119
75 93 120
75 93 122
73 90 116
76 94 122
74 92 119
77 94 121
76 94 121
75 94 122
75 92 118
71 89 116
74 91 117
76 95 123
75 94 122
72 89 116
73 92 120
74 92 118
74 93 122
76 94 122
73 91 118
74 92 120
77 96 123
78 96 123
77 95 123
74 91 117
74 93 120
76 94 122
79 97 125
74 92 118
77 96 124
79 97 124
77 95 122
79 97 125
77 96 125
74 93 121
74 93 121
76 95 123
77 95 123
72 91 119
75 93 120
76 95 123
75 94 122
78 97 126
76 96 125
73 93 122
77 96 123
77 95 123
77 96 123
78 97 125
76 93 120
75 94 123
78 97 124
76 95 123
76 95 123
77 96 123
73 92 121
76 95 125
78 97 125
78 97 125
77 96 125
77 96 124
77 96 124
79 98 126
77 96 123
78 97 126
76 95 124
77 96 123
77 96 125
79 98 126
71 89 116
77 96 124
77 97 126
78 96 124
77 96 124
79 97 125
77 96 123
77 96 126
75 95 124
78 97 125
78 97 126
78 96 124
76 95 123
77 96 125
77 96 125
77 96 124
76 95 124
76 95 123
79 98 126
78 97 125
77 95 122
79 98 126
78 97 124
77 96 125
78 96 124
77 96 123
76 95 124
77 97 126
78 97 126
77 97 126
78 97 127
79 98 126
76 94 122
76 95 123
79 97 125
78 96 123
77 95 122
78 96 124
77 97 126
76 94 122
78 97 125
77 96 125
76 95 124
76 94 122
78 96 123
76 95 123
79 97 125
74 92 119
79 97 124
78 97 126
76 94 122
76 95 123
76 96 125
75 95 124
75 94 123
77 95 122
78 96 124
78 96 124
78 97 127
76 94 121
77 95 122
75 93 121
77 96 125
77 95 122
76 94 121
79 98 125
76 94 122
74 93 122
77 96 125
75 93 120
78 96 123
77 96 124
78 96 123
74 92 120
76 95 124
77 96 125
77 97 126
77 96 125
78 97 126
77 96 124
74 92 119
78 97 125
75 93 121
76 95 122
71 89 117
76 94 121
77 97 125
76 94 120
77 96 124
76 95 124
76 94 121
74 93 121
77 95 122
71 90 117
74 93 120
75 93 120
74 92 119
77 97 126
75 94 122
76 94 121
74 92 119
75 94 121
76 95 125
76 95 123
76 94 121
74 92 119
75 93 121
72 90 117
73 91 118
74 92 120
75 93 120
77 94 120
76 94 122
74 91 118
74 91 117
70 87 113
73 92 120
70 88 115
74 92 120
72 90 116
72 90 116
72 90 116
73 90 116
72 90 117
73 91 117
75 94 121
74 92 119
72 90 116
69 86 111
73 90 116
72 90 115
70 87 112
71 87 113
75 92 118
72 90 116
75 93 121
70 87 112
71 89 116
73 91 117
74 92 118
67 84 110
72 88 113
70 88 115
70 87 112
69 87 114
72 89 115
72 88 113
72 89 114
72 90 117
72 89 114
65 81 105
70 87 112
69 86 111
70 85 109
66 82 106
68 84 109
65 80 103
69 84 107
64 80 104
66 81 104
72 88 113
72 89 114
68 84 108
64 78 99
69 85 108
66 81 105
70 86 109
66 82 107
64 80 105
66 81 104
65 79 101
61 77 99
60 75 98
57 70 89
60 74 94
62 76 97
62 76 97
66 80 102
62 75 95
62 76 97
58 71 90
64 78 99
60 73 93
60 73 92
60 73 93
61 74 94
55 67 85
62 75 95
52 64 81
52 63 80
48 57 72
57 69 86
53 64 80
55 67 84
55 66 83
53 63 79
46 55 69
48 57 72
45 55 69
52 62 78
47 56 71
50 61 77
46 55 70
49 59 75
52 62 79
49 60 75
55 66 82
47 57 72
48 58 73
47 58 73
50 60 75
52 64 80
54 65 81
48 59 74
48 58 74
53 64 80
47 57 72
51 62 77
49 59 74
48 58 74
49 59 74
45 54 68
48 58 74
48 59 75
50 60 76
47 56 70
47 58 73
54 66 83
48 59 75
50 61 77
46 56 72
53 65 82
46 56 71
45 55 71
45 55 70
50 61 77
52 63 79
58 70 87
53 64 80
59 71 89
51 62 78
47 57 72
53 63 80
47 58 73
52 63 78
50 60 75
52 63 78
55 66 83
49 60 76
49 60 75
48 58 73
44 54 68
46 56 70
46 56 70
44 54 69
45 54 69
41 50 64
47 56 71
47 57 72
54 65 82
46 56 71
48 58 74
54 65 81
51 62 79
58 71 89
59 71 90
59 72 90
49 60 76
54 66 83
57 70 88
53 64 82
60 73 92
59 72 91
59 73 93
63 76 97
62 76 97
64 78 100
59 72 91
64 78 99
59 73 93
59 73 95
57 70 89
62 76 96
64 79 102
67 82 105
61 74 95
65 80 103
66 80 102
67 83 107
66 80 102
65 80 103
69 85 109
64 79 101
64 80 103
65 80 102
63 78 100
64 79 102
67 82 104
68 84 109
69 86 111
68 84 108
68 85 109
69 85 108
68 84 108
68 84 108
69 85 110
69 85 109
67 84 109
65 82 107
68 84 109
66 81 104
71 88 114
70 87 111
73 92 119
72 89 115
72 88 113
70 86 111
71 88 115
73 90 116
69 85 108
70 87 112
74 92 118
73 91 118
70 89 116
71 89 115
71 87 112
75 92 119
72 89 114
74 91 118
70 87 113
72 89 115
73 91 119
76 93 118
74 92 118
75 92 119
76 94 121
76 94 122
72 90 117
75 92 116
73 92 119
72 89 116
74 92 119
73 92 121
74 93 120
75 94 122
76 94 120
75 94 123
74 93 121
76 94 121
75 93 120
75 92 118
77 95 122
75 93 121
73 90 116
75 94 121
74 92 119
73 92 120
76 94 121
76 94 121
73 92 119
74 92 119
71 89 116
79 97 124
79 97 124
77 95 122
76 95 122
74 93 121
78 96 122
76 94 120
77 95 123
76 95 124
79 98 126
74 92 120
75 93 121
72 90 117
79 97 124
77 96 124
76 95 124
76 93 120
75 94 122
76 94 121
76 95 122
76 95 122
77 96 124
73 91 118
76 94 122
75 95 123
77 96 124
74 92 120
79 98 125
77 95 123
79 98 126
79 97 124
75 93 121
78 97 126
78 97 126
76 94 121
77 96 124
76 95 123
76 94 122
79 97 125
77 96 124
78 97 126
78 97 126
75 94 122
80 98 126
77 95 123
78 97 125
75 92 119
78 97 125
77 95 122
79 98 125
77 94 121
78 97 125
77 96 124
77 96 123
76 95 124
77 97 125
75 93 120
76 95 124
78 98 126
77 96 125
78 95 122
78 96 124
77 96 124
77 96 124
77 96 124
78 96 124
77 95 123
76 95 122
76 96 125
77 95 123
80 99 127
76 95 124
77 96 125
78 96 124
77 96 125
79 97 125
77 96 124
77 96 125
78 97 126
79 97 126
74 93 121
76 95 124
78 97 126
76 95 123
79 98 126
78 95 122
77 96 124
78 96 124
75 94 124
75 94 122
77 96 124
75 94 122
79 98 126
76 95 123
77 95 123
77 96 124
78 97 125
77 97 126
77 95 123
76 95 122
73 92 120
78 96 124
79 97 125
79 98 125
76 95 124
77 95 123
76 94 121
77 96 126
74 92 120
77 96 124
78 97 125
75 94 121
77 95 121
77 96 126
74 93 121
76 94 122
77 97 127
74 93 121
75 94 122
77 95 122
76 95 123
75 93 122
76 95 123
77 95 122
74 92 120
75 93 121
73 90 116
74 93 121
74 93 121
73 91 118
76 95 123
74 93 120
76 95 123
74 94 123
75 93 120
75 93 120
76 95 123
74 92 120
78 96 122
77 95 123
75 94 122
74 91 115
75 93 120
73 91 117
76 94 122
73 92 119
73 91 117
74 93 120
77 96 123
73 91 118
74 92 119
75 94 121
74 92 119
72 89 116
71 88 115
78 96 123
74 93 120
76 94 120
76 94 120
74 92 120
76 94 121
73 91 117
71 88 114
72 89 115
75 93 120
75 92 118
72 89 115
70 87 113
74 92 119
69 86 112
72 90 116
68 86 112
74 91 117
65 82 108
70 86 110
74 91 117
68 85 111
70 86 112
68 86 113
71 89 115
76 94 122
73 90 116
73 90 116
68 84 107
76 93 119
68 83 107
70 88 114
70 87 113
69 85 110
67 83 108
68 84 108
70 86 112
72 88 113
69 85 108
66 83 107
69 85 109
68 84 108
68 85 111
71 87 112
67 83 106
68 84 107
64 79 101
71 87 110
65 80 102
68 84 108
62 76 97
65 79 101
66 81 105
62 77 98
60 74 96
62 76 98
63 78 100
58 71 91
66 81 104
60 74 95
65 79 102
64 77 98
61 75 96
63 78 99
64 78 98
60 73 93
62 75 95
63 76 97
56 68 86
61 75 95
56 69 88
60 73 93
57 69 87
54 66 84
54 65 82
53 65 83
58 70 87
51 62 78
54 65 82
51 62 77
52 62 78
46 55 70
45 54 67
45 54 69
50 60 76
54 64 80
48 58 73
53 63 78
54 64 80
48 59 74
48 58 73
53 63 79
48 58 74
45 55 69
51 62 78
46 57 72
47 57 73
46 56 70
47 57 72
49 59 75
47 57 71
52 63 80
55 66 84
51 62 78
52 62 78
50 61 77
47 57 73
51 61 77
49 59 75
47 57 72
50 61 78
51 61 76
47 57 73
48 58 74
54 65 82
50 60 75
51 62 77
52 63 80
51 62 78
57 68 85
50 60 76
45 55 70
50 61 76
51 61 76
48 58 73
48 59 74
49 59 74
56 67 83
44 55 70
47 58 74
56 67 83
50 61 77
54 65 82
49 59 74
49 59 74
49 59 74
50 60 76
46 55 70
46 56 70
44 53 67
51 61 76
41 50 63
47 55 69
49 58 73
48 57 72
52 62 77
51 62 77
53 64 80
53 64 81
62 74 93
53 63 79
55 66 83
54 66 83
54 66 83
57 70 88
57 70 88
60 73 92
63 76 97
56 68 87
60 73 93
64 78 99
58 70 89
62 75 96
60 75 97
65 79 100
65 80 102
59 73 94
60 74 95
67 82 105
62 76 97
64 78 99
64 79 101
70 86 110
66 83 107
67 82 106
62 77 98
69 85 110
64 80 103
66 81 105
64 80 103
71 87 111
61 75 97
72 90 117
66 82 105
66 83 108
65 81 104
70 86 111
71 87 112
67 84 108
70 86 110
68 83 107
69 86 111
70 87 114
73 90 116
72 90 117
70 87 113
71 88 113
73 90 117
67 83 107
69 86 111
70 86 109
70 87 112
75 93 120
73 91 117
70 87 113
69 85 108
70 87 111
69 87 113
75 94 121
71 88 113
72 90 116
74 92 120
74 92 119
74 92 118
72 88 113
74 91 118
74 91 117
71 90 118
73 91 118
73 91 118
71 89 115
74 92 119
75 94 123
73 91 119
74 93 121
74 93 122
75 93 120
73 91 118
70 86 111
73 91 118
72 90 117
77 95 123
76 94 122
76 93 119
75 93 120
73 92 119
71 89 115
73 91 120
74 92 118
74 92 119
74 92 119
76 95 123
75 94 122
77 94 121
75 94 122
73 92 121
77 96 124
74 93 120
75 93 119
76 94 122
78 96 123
78 96 123
76 95 123
74 93 122
77 95 124
76 94 121
76 94 121
77 95 123
74 93 121
77 94 120
75 94 122
73 92 121
77 96 124
76 93 119
77 96 125
78 97 125
76 95 123
76 94 121
76 94 122
77 95 124
77 96 124
76 96 126
75 93 121
77 95 121
76 95 122
77 96 125
78 97 125
76 94 122
74 93 121
74 92 119
81 99 128
78 96 123
78 97 125
79 97 124
76 94 122
80 99 127
76 95 123
76 95 124
77 96 125
78 97 126
76 95 124
75 94 123
78 97 126
79 97 124
78 97 125
78 98 127
78 96 123
78 97 127
77 96 124
77 95 122
78 97 126
75 94 122
76 95 124
77 95 122
76 95 123
76 95 124
76 95 124
78 96 124
77 96 126
76 95 123
78 97 125
75 94 121
74 94 124
77 96 123
78 97 126
75 95 124
78 97 125
77 97 126
78 97 125
80 98 127
78 97 124
77 96 124
77 95 123
80 98 126
78 97 125
77 95 123
78 96 124
79 98 126
77 96 125
78 97 125
77 96 124
77 96 124
79 97 125
77 95 122
75 93 121
77 96 124
77 95 122
76 94 121
77 96 124
78 95 122
77 96 124
75 94 121
77 96 123
77 96 124
77 96 124
76 95 124
75 94 123
77 96 124
75 94 123
79 97 124
75 94 122
71 90 117
76 95 123
77 97 125
74 93 121
76 94 121
73 91 119
75 94 121
71 89 116
74 92 119
73 92 120
79 97 125
71 88 114
74 93 120
75 93 122
77 95 121
72 90 118
74 92 119
75 94 122
78 96 124
79 98 127
74 92 119
74 92 118
76 94 120
77 95 123
75 93 120
72 91 118
71 89 115
75 93 120
75 94 121
74 92 120
74 91 117
76 95 123
77 96 125
75 93 120
76 96 125
74 92 120
74 92 119
77 95 124
78 96 124
77 95 122
78 96 123
74 92 119
73 90 117
72 91 118
75 93 122
70 88 114
76 94 122
73 90 117
72 89 114
74 92 119
72 90 117
74 92 120
74 92 119
75 94 121
74 92 120
73 91 116
75 93 121
70 87 112
74 92 119
74 92 120
69 86 111
73 91 117
70 88 114
71 89 115
70 88 114
73 92 119
69 86 110
71 88 114
71 88 114
68 85 110
73 91 117
70 88 114
71 88 114
70 89 117
72 88 113
72 90 116
73 90 115
66 82 105
71 88 113
70 87 113
74 91 116
71 88 114
68 85 111
70 87 112
70 87 112
70 86 110
67 83 107
67 83 107
69 86 111
68 84 108
73 90 116
68 83 107
70 86 111
64 79 102
71 87 112
70 86 109
68 84 108
66 82 105
64 79 101
64 78 99
70 86 110
65 82 106
62 76 97
68 84 108
64 78 99
58 71 90
57 69 88
64 80 102
61 74 94
60 73 91
59 71 89
62 76 96
62 75 95
60 73 93
59 73 93
58 69 87
60 74 95
57 70 89
61 74 94
63 77 97
52 64 81
53 64 80
55 67 84
56 67 84
46 55 70
48 58 73
56 67 84
52 62 78
52 62 78
49 59 74
51 61 76
46 54 68
49 59 74
47 56 71
41 50 63
46 55 69
48 58 72
45 54 68
44 53 68
48 57 72
46 55 70
46 55 69
46 56 71
49 60 76
48 58 73
50 61 77
50 60 75
43 52 66
48 59 75
48 58 73
49 59 74
48 58 74
49 59 73
51 62 78
48 58 73
50 60 75
51 61 76
53 64 80
51 62 78
42 51 65
52 63 80
50 60 76
50 61 76
50 61 77
52 63 79
53 64 80
45 55 70
49 58 73
52 62 79
49 60 76
53 64 80
48 59 75
53 64 81
48 59 75
48 57 72
48 59 74
47 57 71
51 61 77
50 61 77
43 52 66
45 55 70
51 62 77
50 61 76
43 52 65
44 53 66
42 50 63
49 59 75
46 55 69
46 55 68
44 54 68
43 52 64
52 63 79
52 62 78
54 65 82
51 61 77
47 57 72
51 62 77
54 66 83
58 70 86
60 73 93
56 69 87
58 70 89
55 66 83
57 70 88
59 72 92
61 73 93
63 76 96
60 73 91
59 72 92
60 73 93
64 78 99
61 75 95
67 81 102
60 74 94
62 76 96
62 76 97
61 75 96
58 71 90
60 74 95
60 73 92
58 72 93
63 78 99
67 83 106
67 82 104
65 80 103
66 80 103
68 84 107
69 86 111
72 89 115
66 82 105
66 82 106
65 81 106
65 80 102
68 85 110
69 85 109
70 86 110
70 86 110
70 87 112
71 87 110
69 85 108
75 93 119
69 85 110
69 85 109
68 85 110
71 88 114
70 87 112
65 80 103
72 88 114
68 85 110
70 87 112
70 87 113
70 87 112
72 89 114
74 92 119
71 89 116
70 88 115
71 89 115
72 88 113
73 91 116
72 89 115
70 88 114
71 89 116
69 87 114
71 89 115
70 87 112
74 91 117
71 88 114
74 92 119
75 92 119
72 89 116
73 92 119
70 87 113
73 90 116
74 91 117
75 92 117
74 92 119
73 91 118
76 94 121
71 88 115
78 97 124
74 93 120
74 93 120
74 92 119
74 93 122
74 92 120
77 96 123
73 91 117
76 94 121
75 92 119
74 93 120
75 93 121
72 90 116
76 94 121
76 94 121
76 94 121
75 94 123
75 94 121
73 91 117
77 96 124
77 95 122
77 95 122
75 94 122
78 96 124
76 94 122
77 95 123
77 96 124
77 95 123
75 95 124
75 93 119
74 93 120
77 95 123
77 96 124
74 93 121
74 92 120
78 97 125
76 95 123
75 92 118
73 91 119
78 96 125
75 94 123
76 94 122
75 93 120
77 96 124
78 96 124
76 94 122
76 95 124
75 93 122
77 96 123
78 96 122
78 97 126
75 94 123
78 96 124
77 96 124
76 94 122
77 95 122
78 97 124
80 99 127
76 94 120
78 97 126
76 95 123
76 95 123
77 97 126
76 95 123
76 94 122
77 95 123
77 95 123
79 98 126
78 97 125
77 96 124
77 95 123
77 97 126
78 97 126
76 95 123
79 97 125
78 96 124
77 95 123
78 97 126
77 96 125
77 96 125
76 93 120
76 94 123
79 98 126
78 97 126
76 95 122
79 98 126
77 96 124
78 97 126
75 94 121
77 97 126
79 98 126
76 95 124
77 96 124
78 96 124
77 97 126
75 94 122
76 96 125
76 95 122
77 96 125
78 97 126
76 94 122
77 96 123
76 95 124
75 94 122
76 95 123
73 91 117
73 92 120
76 94 122
76 94 122
76 94 123
77 96 125
78 95 122
74 92 119
77 95 124
75 94 121
77 95 122
78 97 126
74 92 121
78 97 125
73 91 117
77 95 123
75 95 123
79 98 127
78 96 124
77 96 124
78 97 124
77 95 123
77 95 123
74 93 121
75 94 122
75 94 122
76 95 122
76 94 121
77 96 124
73 91 118
73 91 117
76 94 121
74 93 120
74 93 121
76 95 123
75 93 120
78 96 123
76 95 124
78 96 123
75 93 120
74 92 118
75 94 121
74 92 119
75 93 118
75 93 120
73 91 118
78 96 123
73 91 118
77 95 122
73 91 118
73 91 119
75 95 123
73 91 118
75 92 117
77 95 123
76 95 123
73 92 120
73 90 116
71 88 113
72 90 116
73 91 117
72 90 118
76 93 120
73 91 118
72 89 114
74 92 119
75 92 119
74 92 119
72 90 117
72 89 113
76 94 120
72 89 115
71 89 114
71 88 114
74 92 118
72 91 118
71 89 116
70 86 110
70 87 113
71 88 114
70 88 115
70 88 114
71 89 115
74 92 120
67 83 108
68 85 110
70 87 113
72 88 113
68 83 106
71 88 114
71 88 114
69 85 110
67 83 107
71 87 113
69 85 109
70 88 114
70 88 114
72 88 113
71 88 113
67 83 108
67 83 106
71 88 113
71 88 112
62 78 102
60 74 95
64 79 102
67 82 106
67 83 106
67 83 107
69 86 111
70 85 109
62 78 101
67 82 105
69 84 107
70 85 109
61 75 97
64 79 102
66 81 105
67 82 105
62 76 97
57 70 89
62 76 97
61 75 96
61 74 93
58 71 91
56 68 85
66 80 102
60 74 95
56 68 85
61 73 92
63 76 95
58 71 91
58 71 90
58 70 89
56 69 87
53 65 82
59 72 91
61 73 92
49 59 75
64 77 97
47 58 73
49 60 76
49 59 75
52 63 80
48 58 72
41 49 62
51 61 76
46 55 70
45 54 68
38 46 57
46 56 70
50 60 76
45 54 67
44 53 67
47 56 70
46 56 70
47 57 72
47 57 72
48 57 72
47 57 71
43 52 66
50 61 76
49 59 74
48 58 73
48 58 73
43 53 67
43 52 66
47 56 70
46 55 69
45 54 68
47 57 72
47 57 73
47 57 72
51 61 77
51 62 78
51 61 77
50 60 76
48 58 72
49 60 76
45 54 68
51 61 77
50 60 75
48 58 74
47 56 71
54 64 80
49 59 73
48 58 73
50 60 76
51 61 77
52 63 79
46 56 71
48 58 73
48 57 72
48 58 73
45 54 68
51 61 77
47 56 70
46 55 69
45 55 69
48 57 72
51 61 76
47 56 71
49 59 74
47 57 72
48 58 72
49 59 74
52 62 78
48 57 72
52 63 78
52 62 78
48 58 73
55 66 82
53 63 77
53 63 78
53 64 81
56 68 86
55 67 85
53 65 82
53 64 81
63 76 96
59 71 89
53 65 81
54 66 84
59 72 90
60 74 95
61 74 94
59 72 92
57 70 88
64 78 98
66 81 102
61 76 97
62 76 98
63 77 100
61 75 97
66 81 104
62 77 99
66 81 103
69 85 109
66 80 101
61 76 98
67 81 103
62 77 100
64 80 103
67 83 108
69 86 110
66 81 104
66 81 105
66 81 104
66 82 106
64 79 102
64 80 103
64 80 103
65 81 105
71 88 115
72 88 112
72 88 113
67 82 105
71 87 112
67 83 107
72 89 114
65 80 104
67 83 108
70 87 113
69 86 111
66 82 106
72 89 115
72 88 113
71 87 111
74 91 118
72 89 116
70 86 111
74 91 117
73 90 117
74 91 117
67 83 107
73 92 119
74 92 119
73 90 115
71 88 114
70 87 112
74 91 118
76 94 121
78 96 123
67 84 109
73 91 116
75 92 119
76 94 122
72 89 116
73 91 117
74 91 117
72 89 116
76 94 121
77 95 121
73 90 117
77 95 124
74 93 121
75 93 120
78 97 124
75 92 119
77 94 121
76 94 121
74 92 119
77 96 124
74 91 118
75 94 124
72 90 116
79 96 123
75 93 120
76 95 122
75 93 121
75 93 121
77 95 122
74 92 117
75 93 120
73 91 118
76 94 122
76 95 122
74 91 117
74 93 121
78 97 125
73 91 118
73 91 118
77 96 123
76 94 121
76 92 118
73 91 119
75 93 120
76 95 124
77 95 123
76 93 120
71 88 114
79 97 125
77 96 124
76 95 123
77 95 123
77 95 123
73 90 116
76 95 123
74 93 121
78 96 124
75 94 122
76 95 123
78 97 125
77 96 125
79 98 127
77 95 122
79 97 124
77 96 125
76 94 121
76 94 121
77 95 123
79 97 124
79 97 125
76 95 124
79 98 125
76 95 123
79 97 124
76 94 122
74 94 124
78 96 123
79 98 127
76 95 123
76 96 125
76 95 123
76 96 124
78 97 126
77 95 122
78 96 123
79 97 125
77 96 124
78 97 125
77 96 125
78 96 125
77 95 122
78 97 125
77 96 124
76 95 123
77 95 123
78 97 126
74 92 119
75 94 123
77 96 125
79 97 125
77 95 122
76 96 125
78 97 126
79 98 126
74 93 121
79 98 126
77 96 123
74 92 119
77 96 124
79 97 124
78 97 125
77 96 125
75 95 125
78 97 125
76 95 122
77 96 124
78 97 125
77 96 124
74 93 121
75 94 122
78 96 123
78 97 125
76 94 121
79 96 123
76 95 123
78 96 125
77 96 125
75 94 121
74 93 122
75 93 120
75 93 120
76 95 123
74 92 118
76 94 122
78 95 121
77 95 121
77 96 125
76 95 123
74 92 119
72 90 116
74 92 120
77 95 122
76 95 124
77 95 122
76 94 121
72 90 116
76 94 120
73 91 118
72 90 117
76 94 122
76 95 122
74 92 118
75 94 122
76 94 121
79 97 126
75 93 120
76 95 123
70 87 113
74 91 118
74 92 119
75 93 120
75 93 119
75 94 122
78 97 126
72 90 116
71 89 116
73 91 118
74 92 118
72 90 116
72 89 115
71 89 117
76 95 123
72 89 115
75 94 123
74 92 120
75 93 120
75 94 122
74 92 118
75 93 120
70 88 114
72 90 117
71 89 115
73 90 117
74 92 119
72 90 115
75 93 119
73 91 117
74 92 119
70 88 114
74 92 120
71 89 115
75 93 121
72 88 113
77 96 124
71 89 114
69 86 111
68 85 110
72 89 115
71 89 115
70 87 112
70 87 113
72 88 113
73 91 118
70 87 112
72 90 118
72 89 115
69 86 112
67 83 107
68 84 108
67 83 106
68 83 107
73 90 117
70 87 111
70 87 111
68 85 110
70 87 111
66 82 107
68 85 110
73 90 114
68 84 108
63 79 103
65 80 102
69 84 108
72 88 113
66 82 106
64 80 103
62 77 99
67 83 106
68 84 106
63 78 101
63 78 100
66 82 105
66 81 105
63 78 102
66 81 103
59 72 92
59 73 93
67 82 105
64 79 100
61 75 95
63 77 98
65 80 103
59 72 92
64 79 102
56 68 87
61 74 95
63 77 98
56 68 87
56 68 87
56 69 87
61 74 94
52 63 79
55 67 85
50 61 77
48 58 73
52 63 80
55 66 82
51 62 79
50 61 77
50 61 77
53 64 81
51 61 76
49 59 74
43 52 65
49 59 73
47 57 72
44 53 67
48 57 71
53 63 78
43 52 65
47 57 71
48 57 72
42 51 65
50 60 74
49 59 74
45 55 69
45 54 69
45 55 69
46 56 71
50 60 76
44 53 67
48 58 73
47 57 72
48 58 72
44 54 69
49 59 75
47 57 72
50 60 76
43 52 66
45 54 69
48 57 71
47 57 72
46 55 69
43 52 65
47 56 71
45 55 70
47 57 72
49 59 74
48 58 72
50 60 75
55 66 83
41 50 63
50 60 76
49 59 73
45 54 68
45 54 68
49 59 74
47 56 70
46 56 70
48 58 73
46 55 70
47 56 70
46 55 70
46 56 69
47 56 70
45 54 67
42 51 63
40 49 61
41 50 62
48 58 72
49 58 72
46 54 66
42 50 62
46 56 71
53 64 80
50 59 74
51 61 77
53 64 80
54 65 81
46 56 71
57 69 87
57 69 86
58 70 89
55 67 84
51 62 78
57 69 86
57 69 87
59 71 90
59 72 91
62 76 97
58 70 89
61 75 94
59 72 91
60 73 94
61 74 94
64 78 100
61 75 96
60 73 94
62 77 99
59 72 92
63 77 99
64 79 101
65 81 104
65 81 104
62 75 96
66 82 107
67 83 106
70 87 112
70 85 109
64 79 101
69 85 108
64 80 103
62 76 98
64 79 101
69 86 110
69 84 108
68 83 106
68 84 108
66 82 106
71 87 111
62 77 99
69 85 109
66 82 105
71 86 109
71 88 112
71 88 114
72 88 113
68 85 109
67 83 107
73 90 115
67 83 108
71 89 116
70 87 112
65 81 105
68 85 110
68 85 110
69 86 111
74 91 117
73 90 117
72 90 117
71 87 111
73 90 115
71 88 114
71 88 113
76 95 122
73 91 117
73 91 117
73 90 115
74 92 120
75 92 118
74 92 118
75 93 121
71 88 114
73 91 117
76 95 122
71 88 112
73 91 118
72 89 115
71 89 117
70 88 114
72 90 116
75 92 119
72 90 116
72 89 114
72 89 116
73 91 118
74 92 118
76 94 120
75 92 118
75 94 122
76 94 121
74 92 120
74 92 119
79 97 124
76 95 122
75 93 120
77 95 122
74 93 122
76 95 123
78 96 122
74 92 120
74 93 121
75 94 121
73 91 118
75 94 121
72 90 117
77 96 124
75 94 121
76 94 122
73 91 118
78 96 125
76 94 120
77 95 123
76 94 122
75 93 121
75 93 120
76 95 123
74 93 122
76 94 122
75 94 123
76 95 123
74 93 120
74 93 121
76 94 121
77 95 123
78 97 126
78 96 121
78 97 126
78 97 124
77 95 123
76 96 125
78 96 125
78 97 126
78 96 124
76 95 123
76 94 121
78 98 127
77 95 123
76 94 122
73 90 117
76 95 123
74 93 121
75 94 122
75 94 123
76 94 122
78 96 123
77 96 124
77 96 124
76 95 124
76 95 124
77 96 124
76 95 123
76 94 122
78 97 125
77 96 124
78 97 126
76 95 123
77 95 123
76 95 122
77 96 124
78 96 124
77 96 124
76 95 122
78 97 126
72 91 120
75 95 126
74 92 120
77 96 125
78 98 126
78 97 126
75 93 120
77 97 126
76 95 124
76 94 121
77 95 123
78 97 125
77 96 124
75 94 123
77 96 123
75 94 122
75 93 122
78 97 126
76 94 121
78 96 124
77 96 124
77 97 126
75 94 123
78 97 125
75 94 122
76 94 122
78 97 125
78 97 124
79 98 126
80 99 126
78 97 125
79 98 127
75 93 121
77 95 122
76 95 124
76 95 123
76 95 123
75 93 121
76 95 124
74 92 120
76 95 124
76 95 123
73 92 119
75 94 121
77 95 122
78 97 125
74 93 121
74 92 120
74 93 121
76 95 123
76 94 122
77 95 123
74 91 118
74 92 120
74 93 121
77 95 122
76 94 122
77 96 125
74 92 120
77 96 124
77 95 122
73 90 117
76 94 119
74 91 117
74 93 120
78 96 123
75 93 121
76 94 121
76 94 121
75 93 120
73 91 117
75 92 119
78 97 124
73 90 117
77 96 123
73 90 116
72 89 115
75 94 121
78 97 125
72 90 117
70 88 115
75 93 120
72 90 115
72 90 116
74 93 120
73 90 117
71 89 116
71 89 115
70 87 113
72 90 117
75 93 119
75 92 118
73 90 116
74 91 116
72 90 116
72 90 116
69 86 112
75 93 119
70 88 115
70 88 114
73 91 118
76 94 122
70 87 112
74 92 119
75 94 122
72 89 114
72 90 116
72 90 116
71 88 114
71 87 111
71 87 113
68 85 110
72 88 112
71 88 113
73 89 115
68 84 109
69 86 112
70 86 110
75 92 118
72 89 114
71 87 112
69 86 110
69 85 109
66 81 103
72 89 115
72 88 113
67 83 107
68 83 106
65 81 104
64 78 101
67 84 109
66 81 104
69 84 108
66 81 104
65 80 102
68 84 109
66 82 105
61 76 97
67 82 105
68 84 109
64 79 101
63 77 99
65 81 104
64 78 100
58 72 93
65 79 100
56 69 88
55 67 86
65 79 100
53 65 82
62 76 95
59 72 91
56 69 88
64 78 98
57 69 87
50 61 78
60 73 93
62 75 95
57 69 87
55 68 87
55 67 85
53 64 81
51 61 77
51 62 79
54 66 83
47 57 72
59 71 90
52 63 80
53 64 80
50 59 74
54 65 81
53 63 79
41 49 61
42 50 63
41 49 61
41 49 60
43 51 62
43 51 64
46 56 69
42 50 63
47 57 71
49 59 74
44 54 68
46 56 70
46 55 70
42 51 64
57 67 83
51 61 76
51 61 77
46 55 69
46 56 72
48 58 73
46 56 70
49 59 75
49 59 74
44 53 67
53 64 80
43 52 66
44 53 67
46 55 69
47 57 71
47 57 72
50 60 76
48 58 72
44 53 67
47 57 71
46 56 70
46 55 70
45 55 69
45 54 68
46 56 70
49 59 74
42 51 63
47 56 70
51 61 76
48 58 72
43 52 66
45 54 68
41 50 63
43 52 66
42 51 63
43 51 63
36 44 55
33 39 49
39 47 57
43 50 62
47 55 69
41 49 61
51 61 75
51 61 75
49 58 72
43 51 64
55 66 82
56 68 84
46 56 71
52 63 80
51 61 76
53 64 80
51 62 78
54 65 82
53 64 81
59 72 91
56 68 86
52 64 81
56 68 86
57 69 88
61 74 93
54 67 85
61 74 93
53 65 83
59 72 93
64 78 99
60 74 94
65 80 102
60 74 95
65 80 101
67 81 103
64 79 101
64 77 97
62 76 97
66 80 102
62 75 96
62 76 97
66 82 105
61 75 97
69 86 110
70 86 111
69 85 110
68 84 108
70 86 111
67 82 106
66 82 105
68 84 108
68 83 107
71 87 111
63 78 100
68 84 109
70 86 110
67 82 106
71 87 111
69 85 109
68 84 108
73 89 115
71 88 114
68 85 110
71 87 111
75 92 117
70 86 110
72 89 115
71 88 115
74 91 117
71 88 114
68 85 111
65 81 104
67 83 107
69 86 111
71 88 113
69 86 110
72 89 115
69 86 112
75 94 122
74 92 117
73 92 120
67 85 112
71 87 112
76 94 121
73 91 117
72 90 116
73 92 120
70 87 112
73 91 118
73 91 118
73 90 115
74 92 119
73 90 117
76 92 117
73 92 121
75 93 120
75 94 121
76 94 121
71 90 117
76 95 122
73 92 120
76 94 121
77 94 120
76 95 122
74 92 119
77 96 125
74 92 120
75 93 120
77 95 123
74 92 120
76 95 123
75 94 121
74 92 119
73 90 117
77 96 124
76 95 124
75 94 122
76 94 121
73 91 118
75 94 122
75 93 120
74 92 119
77 94 121
76 95 123
76 95 124
72 91 118
73 91 118
78 96 124
76 95 123
75 94 123
74 92 119
76 94 121
74 93 121
77 95 122
73 92 121
79 97 124
75 94 122
78 96 124
77 96 125
76 95 122
77 95 122
74 93 120
77 95 123
76 95 123
77 96 124
77 96 124
76 94 122
77 95 123
74 93 120
77 95 122
79 98 127
76 95 123
78 97 125
77 96 123
74 92 119
79 97 125
76 95 123
77 95 123
75 94 123
80 99 127
77 97 125
74 92 120
76 95 122
77 97 126
78 96 123
78 97 125
76 95 122
78 97 125
75 94 123
79 98 126
76 96 126
77 95 122
77 96 124
77 96 125
77 96 124
79 97 124
75 94 122
77 96 124
75 93 120
75 94 122
78 97 126
79 97 126
76 95 123
77 95 123
76 94 122
77 95 124
75 94 122
77 96 124
76 95 124
76 94 122
75 96 126
76 94 121
74 94 124
76 95 124
79 98 126
74 92 120
79 98 127
78 97 124
77 96 124
79 97 125
75 93 120
74 92 120
76 95 124
75 95 124
76 95 124
74 93 123
77 95 122
80 98 124
75 94 122
76 95 123
75 92 118
75 94 122
75 92 118
76 94 121
77 96 124
76 95 123
75 93 120
78 96 123
75 93 121
79 97 125
76 95 124
76 94 122
78 97 125
76 94 122
75 93 121
77 96 123
76 94 122
72 91 120
77 96 124
77 95 123
75 94 122
72 90 116
73 91 119
76 94 121
77 95 121
75 93 121
75 93 120
75 93 121
75 93 120
75 94 123
74 93 121
78 96 123
76 95 124
74 92 120
75 93 120
75 94 123
73 91 118
74 93 120
76 94 121
76 94 122
71 89 115
73 92 120
74 93 122
72 89 115
73 90 116
73 91 118
73 91 117
73 91 119
77 95 122
73 91 118
71 89 115
75 93 122
72 91 118
74 93 122
77 95 123
75 92 118
74 92 119
72 89 114
72 90 117
73 91 118
73 92 119
77 95 121
74 92 119
73 90 116
72 88 112
72 90 116
72 90 116
74 92 117
74 90 115
74 91 117
72 90 117
71 88 113
70 87 113
72 89 115
67 83 107
71 88 113
68 85 110
71 88 114
71 89 116
70 87 112
71 86 110
70 86 109
74 91 117
67 82 105
70 86 112
68 84 108
68 84 108
68 82 105
68 84 108
68 85 111
64 79 101
65 82 106
70 87 112
64 79 101
68 84 109
60 75 97
65 80 103
65 80 103
64 79 103
66 82 105
69 84 106
71 88 113
66 80 102
66 81 104
62 77 99
61 75 97
64 79 101
66 81 103
64 79 103
65 81 104
65 80 102
61 74 94
65 80 102
57 70 90
63 78 100
55 68 86
62 76 96
53 65 83
63 77 98
66 80 102
61 73 93
62 75 94
58 70 89
55 66 83
54 66 83
56 67 84
57 69 88
58 71 89
55 67 84
56 67 84
53 64 81
55 66 83
54 64 81
49 59 74
44 54 68
53 64 79
52 63 78
49 58 73
44 53 66
48 57 71
50 60 76
45 53 67
47 56 70
41 49 60
40 47 58
42 50 63
41 48 60
45 53 66
41 48 59
40 47 59
44 52 65
38 46 58
43 52 65
44 53 66
50 59 74
42 50 63
49 59 73
46 55 69
45 54 68
40 49 62
46 56 70
45 54 68
47 56 70
49 58 73
44 53 66
43 52 66
48 58 72
47 57 71
45 54 69
46 55 69
47 56 71
45 54 68
46 55 70
49 59 74
46 56 71
43 52 65
44 53 67
47 57 70
44 53 66
47 56 70
48 58 72
43 52 66
46 55 69
42 51 64
44 53 66
41 49 61
39 47 59
41 48 60
37 44 55
37 44 55
43 51 64
47 56 69
43 51 64
46 54 67
47 56 70
48 57 71
47 56 70
48 58 72
45 54 67
45 54 68
53 63 79
47 56 71
46 55 69
55 66 83
56 68 85
50 61 77
57 69 86
53 64 80
58 70 89
51 61 77
59 72 90
56 68 85
60 72 91
48 60 76
60 73 92
55 67 84
57 69 87
58 71 89
60 74 95
65 78 99
61 75 96
60 74 94
58 71 90
63 77 99
63 77 99
62 75 96
62 76 98
61 75 97
59 73 94
65 79 101
65 80 102
66 82 106
66 81 104
64 79 101
65 80 103
68 84 107
65 80 104
65 81 105
70 87 112
66 82 104
69 85 109
67 82 105
72 90 116
69 85 108
67 83 108
70 86 110
67 82 106
68 84 109
70 86 111
69 85 109
70 86 111
68 85 109
68 84 109
69 86 112
66 83 108
70 87 113
72 89 113
69 86 112
69 85 110
70 86 112
69 86 112
70 87 112
74 91 117
72 89 116
68 84 109
73 89 113
71 88 114
74 92 118
70 87 113
74 92 117
67 85 111
74 91 117
72 90 118
71 89 116
76 95 122
75 94 123
70 87 112
73 91 118
75 93 121
73 90 117
73 91 118
71 88 114
75 93 119
73 90 115
77 95 122
74 91 118
76 93 119
70 88 113
74 92 118
77 94 120
71 89 115
72 89 114
73 91 118
72 89 114
73 90 117
71 89 115
73 91 119
75 94 122
74 92 120
74 92 119
73 91 119
73 91 118
74 91 117
76 94 121
72 90 117
75 93 120
73 92 120
76 95 123
75 93 120
77 96 123
76 94 122
76 94 122
73 91 118
76 93 119
74 91 118
74 92 118
74 92 120
76 94 121
76 95 124
75 93 121
74 93 122
76 94 121
76 95 123
71 88 114
76 94 121
74 92 120
77 96 125
76 96 125
77 95 123
77 94 121
77 96 124
79 98 125
76 94 121
73 91 119
76 94 121
78 96 124
76 95 123
76 95 124
78 97 125
75 93 121
78 96 124
75 94 123
76 94 121
76 94 122
80 98 126
77 96 125
78 96 125
75 93 121
78 97 125
76 94 121
74 92 120
77 95 123
77 95 122
77 96 124
77 94 121
78 96 124
77 96 124
78 97 124
81 99 127
76 95 123
78 96 124
78 97 124
78 96 125
73 92 119
77 95 122
72 91 120
79 97 125
75 94 123
78 97 125
77 96 125
80 98 127
77 96 124
77 96 125
75 93 121
77 96 125
76 95 122
79 98 126
77 96 125
78 97 125
78 96 123
74 92 120
76 95 125
74 92 119
78 96 124
77 95 122
77 95 123
77 95 122
78 97 126
78 97 125
74 94 123
76 94 121
77 97 127
78 96 125
76 95 123
75 93 121
73 91 118
77 95 123
78 96 123
77 96 124
76 95 122
76 95 124
77 96 125
75 94 122
75 94 122
73 91 118
77 96 124
77 95 122
76 95 123
73 92 120
77 95 122
76 94 120
80 99 128
76 93 120
76 94 122
76 95 122
76 95 123
75 94 121
75 92 119
76 94 122
76 95 122
76 94 121
75 93 120
77 94 121
77 96 124
73 91 117
77 96 123
73 91 117
75 93 120
76 95 123
75 93 120
72 91 118
70 87 112
70 89 117
70 88 115
75 93 120
73 90 117
74 91 117
77 96 124
74 92 119
69 87 113
75 94 121
73 92 120
75 94 122
76 94 120
72 90 117
72 90 117
73 91 117
72 90 118
73 90 117
72 89 116
75 93 120
67 83 108
74 92 119
75 93 121
72 90 117
70 88 115
71 89 116
71 88 113
72 90 118
72 90 118
69 86 112
73 90 116
69 87 113
71 87 111
77 96 125
73 90 115
72 91 119
71 89 116
75 92 119
73 91 118
74 92 118
74 92 119
68 84 107
72 89 115
72 90 117
73 91 117
72 89 114
69 86 111
74 90 116
61 76 98
68 84 107
68 85 111
69 85 109
72 90 116
66 82 105
63 78 100
71 88 114
67 83 106
70 86 110
67 83 106
63 79 103
67 83 106
66 82 106
66 82 106
65 81 104
69 85 110
66 81 104
67 82 105
68 84 108
65 81 104
67 83 107
66 80 102
66 82 105
63 77 99
58 72 92
64 79 102
64 80 103
68 84 108
56 69 89
58 71 91
63 77 97
64 78 100
61 75 97
65 79 100
64 78 100
59 72 91
59 73 93
66 80 102
62 76 97
58 71 91
54 66 83
61 75 95
59 71 89
49 60 77
58 71 90
58 71 89
63 76 96
57 70 89
57 69 87
51 61 77
52 63 80
46 56 70
59 71 90
48 57 72
54 64 80
46 56 71
47 56 70
53 64 80
39 47 58
45 54 68
47 56 69
49 58 72
45 54 67
47 56 70
46 55 68
40 48 60
48 56 68
46 54 68
51 60 74
35 41 50
48 57 70
34 41 51
37 44 55
39 47 58
44 52 65
43 52 64
43 52 66
44 53 67
44 53 66
50 60 76
40 49 61
46 55 70
43 51 64
51 61 76
41 49 62
47 56 71
46 55 69
41 50 63
43 52 64
47 56 70
50 60 75
42 51 64
42 51 64
46 55 68
46 55 69
40 49 61
40 49 62
47 57 71
41 49 61
41 49 61
48 58 72
44 52 65
37 45 56
37 44 55
39 46 57
42 49 60
44 52 64
37 44 54
40 47 59
44 52 64
54 64 79
43 52 64
46 55 68
41 49 61
49 59 73
46 55 69
48 58 73
48 58 73
50 60 76
47 56 70
50 60 75
54 65 81
46 56 70
51 62 78
53 64 81
50 60 75
58 70 89
58 70 89
49 59 75
58 71 89
60 72 90
58 71 89
57 69 87
60 73 91
67 82 104
60 73 92
65 79 101
56 69 87
62 75 95
59 71 91
64 78 100
59 73 93
60 74 94
62 75 95
60 72 91
56 70 90
65 80 103
63 79 102
69 84 106
62 76 97
66 82 106
66 81 104
71 87 111
64 79 101
68 83 104
66 81 104
69 85 108
63 78 101
65 80 103
67 82 105
63 78 101
66 82 106
69 84 107
70 85 108
66 81 104
67 84 110
69 85 108
73 90 116
67 83 106
69 85 110
68 84 107
70 87 112
70 87 113
59 73 93
69 86 111
69 86 111
67 83 107
68 84 108
69 85 109
71 87 112
71 89 115
69 86 111
69 85 110
71 88 113
75 92 118
74 92 118
71 89 114
67 84 109
67 84 109
72 90 117
69 86 111
70 87 112
71 88 113
73 90 116
74 92 119
74 90 115
72 90 117
74 91 117
74 92 119
74 91 118
71 88 114
74 92 118
74 92 118
76 93 120
73 92 120
76 94 121
74 91 117
72 91 119
75 93 119
74 93 121
76 94 121
74 92 119
75 93 121
73 91 118
74 92 118
75 94 122
74 92 120
76 94 120
72 89 115
75 93 121
71 88 114
75 93 120
75 94 122
74 91 116
73 91 118
76 95 123
75 93 121
74 91 117
77 95 123
74 92 119
71 89 115
76 95 123
73 91 118
72 90 116
74 92 118
73 91 118
74 92 119
79 97 125
76 94 123
76 94 121
79 98 126
76 93 120
78 97 125
73 91 119
77 96 123
76 94 121
77 96 125
78 96 123
71 90 118
76 94 122
79 98 127
76 95 123
76 94 121
73 92 121
76 95 123
77 95 123
76 95 122
77 95 123
79 97 124
76 95 124
76 95 123
77 95 123
77 95 122
76 94 122
75 94 123
76 94 122
77 96 124
77 96 125
77 96 124
74 92 120
75 94 122
78 97 125
77 96 125
76 94 123
78 97 126
75 95 124
78 97 126
76 94 122
78 96 124
78 97 126
77 95 123
78 97 125
78 96 124
77 96 125
77 95 123
79 98 126
79 98 126
76 94 121
76 94 122
77 96 124
77 96 125
78 97 126
76 95 123
77 96 125
78 96 124
78 97 125
78 96 122
77 95 123
76 94 122
78 97 124
76 94 122
76 94 121
77 96 124
79 98 125
80 99 127
78 96 122
76 94 121
74 93 121
79 98 126
73 92 120
73 91 118
75 94 122
76 95 123
76 95 122
76 94 121
74 93 120
74 93 121
75 93 120
74 93 121
76 95 124
78 97 125
74 93 122
74 92 119
75 93 120
76 94 121
76 95 124
78 96 124
73 91 118
75 93 119
77 95 123
76 95 122
77 95 121
73 91 118
75 94 122
76 94 121
75 94 122
76 94 122
74 93 120
79 97 124
75 93 120
74 93 121
75 92 119
76 94 121
74 93 122
78 95 121
73 90 116
76 93 120
75 93 121
75 93 120
74 92 118
74 93 120
74 92 120
75 94 122
75 94 121
71 89 116
74 91 118
72 90 116
71 88 113
74 91 116
72 90 116
73 92 119
72 90 116
73 91 118
75 94 122
75 93 120
75 93 120
70 87 112
72 89 116
72 90 117
72 89 114
71 88 114
73 91 117
72 90 116
72 89 116
73 90 117
77 95 122
69 86 111
72 88 113
67 84 109
69 86 112
72 90 117
68 84 108
71 87 113
74 91 118
71 89 114
75 93 119
72 90 117
73 91 117
73 90 115
70 87 113
74 91 117
71 88 114
69 86 112
71 88 112
70 87 113
73 91 117
71 88 114
68 84 108
70 87 112
69 84 107
71 87 113
66 81 105
69 86 111
70 87 112
72 88 112
70 86 111
71 88 112
69 85 109
61 77 100
69 85 110
71 87 112
67 82 105
71 87 112
66 82 105
65 80 103
67 82 104
68 83 105
62 76 99
65 80 104
63 77 99
66 80 102
68 83 106
63 77 98
62 76 97
67 83 106
63 77 97
64 78 100
65 81 104
56 70 89
64 79 102
65 79 101
62 75 95
57 70 90
68 82 104
60 73 93
62 75 95
61 73 92
58 72 92
55 68 86
58 70 89
56 69 88
60 73 93
59 72 92
60 72 90
49 59 75
61 74 94
51 62 79
56 68 85
55 66 83
50 61 77
56 68 86
50 61 77
51 62 77
51 61 76
46 56 71
53 63 79
52 62 77
46 55 68
54 65 80
46 54 67
48 57 72
35 42 52
49 58 72
47 56 69
46 54 67
45 54 67
53 62 76
42 50 62
44 52 64
42 50 61
37 44 54
45 53 65
38 44 54
37 44 54
35 42 51
42 49 60
35 42 51
38 46 56
38 45 56
45 53 66
44 53 66
43 51 64
42 50 62
42 50 63
43 52 65
40 48 60
44 53 66
40 48 59
45 54 67
43 51 64
45 54 67
43 51 64
46 55 69
42 50 63
40 49 61
42 50 63
43 51 63
38 46 57
36 43 54
34 41 50
38 45 56
34 41 50
44 51 62
36 43 53
33 39 48
34 40 50
38 45 56
43 51 63
34 40 49
42 50 62
37 43 53
45 53 66
48 57 72
53 63 78
47 56 70
48 57 72
49 59 73
50 60 75
50 59 74
50 60 75
55 67 83
52 63 78
57 68 85
47 57 72
51 62 77
54 65 81
52 62 78
54 64 80
61 74 92
55 66 83
54 66 83
56 68 85
62 75 94
62 75 95
56 69 88
54 66 84
61 74 94
56 68 87
64 78 100
63 78 99
58 71 90
58 70 88
60 73 92
56 68 86
65 79 100
64 78 101
62 77 99
65 80 103
60 74 96
64 79 102
65 80 102
66 81 104
65 80 102
64 78 99
62 77 99
65 81 104
62 77 98
65 81 104
65 81 106
61 76 99
68 84 108
70 86 111
67 83 108
62 76 98
67 82 106
65 80 104
67 84 108
65 81 105
64 79 101
66 83 108
72 90 116
72 89 114
68 85 110
70 87 112
71 87 111
67 83 106
73 89 114
70 88 114
71 87 112
74 90 115
70 86 110
74 91 117
70 87 111
70 86 110
73 90 116
72 89 114
74 90 116
75 93 119
72 89 115
73 91 118
72 90 117
70 87 113
73 91 117
69 85 111
74 92 117
71 89 115
71 88 115
74 92 118
68 85 110
70 87 112
69 86 112
74 92 119
73 90 115
75 93 119
74 92 118
76 94 121
73 90 115
74 92 120
70 87 112
70 87 112
72 89 116
72 90 117
74 91 117
74 92 120
69 86 111
72 91 119
72 90 116
75 94 122
73 90 116
73 92 121
74 91 116
75 94 123
71 88 114
77 95 123
74 93 120
74 93 122
76 95 123
74 92 119
75 94 123
75 93 119
75 94 121
75 94 121
72 89 115
75 92 119
73 91 119
72 89 115
75 92 119
75 92 119
76 94 122
77 95 122
74 91 118
75 93 120
74 93 120
76 94 122
76 95 123
75 93 120
72 91 118
74 93 121
77 96 125
75 94 122
75 94 121
78 96 124
76 95 122
76 94 122
74 92 119
76 95 124
77 96 124
75 93 120
76 95 123
76 95 123
79 98 126
77 96 124
78 97 124
75 93 120
76 94 122
77 97 126
76 94 122
77 95 121
76 94 121
77 96 124
76 94 122
78 96 124
75 93 121
76 95 122
76 94 121
77 96 124
78 96 123
76 95 123
75 93 119
78 97 126
77 95 122
78 95 122
79 97 123
78 96 123
78 96 124
78 97 125
78 96 124
80 97 124
76 94 122
78 97 126
75 94 123
78 96 124
75 93 121
77 94 121
76 94 122
76 95 122
78 97 125
78 97 125
77 95 122
78 97 126
75 93 120
72 90 117
78 96 123
76 94 121
77 96 126
77 95 121
76 95 123
76 95 123
76 96 125
75 94 123
75 94 122
78 97 126
78 97 125
76 95 124
75 94 123
76 95 124
76 95 122
76 93 120
76 94 123
79 97 124
76 95 123
75 93 120
76 94 122
77 96 124
77 95 122
75 93 120
76 95 122
80 98 125
75 93 120
77 96 125
73 91 118
74 93 121
75 93 120
74 91 117
78 97 125
76 94 121
77 95 123
74 92 120
75 93 120
73 91 118
76 94 122
75 93 120
77 96 123
77 95 123
75 93 121
74 93 121
72 90 117
71 89 115
77 95 122
75 93 121
75 93 120
75 93 120
74 93 121
73 90 116
76 95 124
73 91 118
74 92 118
70 86 111
74 92 119
76 94 122
74 92 118
73 91 118
74 92 119
74 91 117
75 93 120
73 91 118
76 94 122
76 93 118
74 92 120
72 90 117
72 90 116
71 88 114
75 93 120
74 93 120
73 90 117
74 93 120
71 89 115
70 87 113
75 92 118
71 89 116
74 91 117
70 88 114
72 89 115
69 87 113
69 86 111
73 90 117
71 88 113
69 86 112
70 86 111
68 84 110
68 85 110
69 85 110
70 87 113
72 90 116
72 90 117
68 85 109
71 87 112
70 86 111
69 86 112
67 82 105
70 87 113
71 87 112
69 86 110
72 88 114
66 82 106
71 88 113
70 86 111
71 88 113
70 86 110
68 83 106
69 85 109
66 82 105
68 83 107
63 78 101
69 84 108
68 84 108
64 79 101
63 78 100
68 83 106
62 78 100
63 79 102
62 77 100
65 80 103
68 84 107
69 85 109
62 76 98
68 84 107
63 77 99
66 80 102
62 75 95
63 78 100
58 71 91
63 77 97
62 75 95
60 74 94
61 75 95
58 70 89
61 75 95
62 75 95
60 73 93
63 77 97
58 71 90
59 71 89
58 70 88
64 78 99
53 65 82
57 68 86
54 65 81
56 68 86
53 65 82
55 67 84
53 64 80
50 61 77
51 61 76
49 58 73
43 52 65
51 61 76
49 59 73
42 50 62
42 50 62
38 46 57
51 61 76
40 48 60
46 55 68
40 48 60
46 55 68
39 47 59
39 47 58
41 49 61
45 53 66
42 49 61
39 46 57
39 46 56
33 39 48
43 51 63
34 39 48
28 33 40
42 49 60
26 30 37
39 46 56
34 40 49
32 37 46
31 36 45
33 39 48
35 41 51
27 33 40
31 36 45
40 48 59
30 36 44
39 46 57
36 43 54
35 41 50
32 38 46
36 42 52
33 39 47
36 42 51
36 42 52
33 39 47
38 45 55
36 42 52
37 43 53
39 45 55
39 46 57
45 53 65
36 42 52
39 46 57
41 49 60
43 51 63
39 46 56
42 49 61
49 59 73
47 56 69
48 58 73
43 52 65
53 63 77
56 67 83
46 55 68
54 64 80
47 57 70
50 60 76
47 57 71
54 64 81
52 62 77
57 69 87
56 66 83
53 64 80
57 69 87
54 65 81
55 67 83
49 59 75
56 68 85
63 77 96
59 72 91
63 77 98
59 72 92
57 70 89
55 67 85
62 75 96
57 69 87
61 75 95
60 74 94
64 79 101
60 73 93
64 79 101
68 83 104
56 69 88
66 81 105
61 75 95
61 74 95
64 78 99
62 77 99
68 83 105
65 80 103
65 79 100
64 79 101
65 80 102
64 79 103
65 81 105
71 86 110
67 82 105
62 76 98
64 80 103
70 86 112
70 86 110
65 80 103
64 78 99
68 83 105
67 83 108
72 88 113
68 85 110
69 86 110
69 85 108
68 85 110
71 87 112
71 88 113
67 83 107
65 81 106
68 84 109
69 85 110
70 86 111
73 90 116
73 90 115
68 86 111
72 89 114
69 86 111
72 89 115
73 91 116
71 88 113
72 89 115
67 85 111
70 88 113
73 90 116
73 91 119
76 94 122
69 85 110
72 90 116
69 85 110
74 92 119
69 86 110
74 92 120
71 88 114
74 92 118
71 89 116
70 87 112
70 87 113
69 87 114
68 86 112
77 95 122
75 94 121
74 91 117
68 84 109
76 94 121
68 86 112
73 90 116
71 89 115
76 93 119
70 88 114
76 93 120
72 89 114
75 93 119
74 92 119
76 95 123
73 90 116
77 95 123
75 93 120
77 95 123
71 90 117
75 94 122
77 96 124
75 94 121
72 90 118
73 92 119
75 93 119
71 87 112
74 92 120
73 91 117
75 93 119
75 92 118
73 92 119
74 93 121
77 95 123
77 95 123
76 95 124
77 96 124
75 93 121
75 93 120
75 93 120
76 95 124
73 92 119
74 91 117
78 96 124
74 93 121
75 94 122
75 94 122
76 95 124
79 97 125
75 94 121
76 94 120
77 96 123
75 94 122
76 95 124
76 95 122
76 95 122
79 98 127
74 92 119
77 96 124
75 94 122
75 93 122
76 95 123
74 92 121
77 95 123
76 94 121
75 94 122
76 95 123
73 91 118
76 94 121
76 95 124
76 94 123
78 97 126
76 94 121
77 95 122
78 97 124
79 98 126
79 98 126
77 96 124
78 96 124
77 96 123
76 95 122
74 92 120
77 96 124
78 96 124
76 94 122
76 95 124
76 95 123
75 93 120
74 94 123
75 94 122
76 94 122
75 93 119
75 93 120
75 94 121
78 97 125
76 94 122
78 97 124
75 94 123
76 94 121
76 94 122
78 97 126
77 95 122
76 94 122
76 95 123
79 98 125
73 92 120
75 94 122
76 94 122
77 95 124
75 94 122
76 94 121
74 92 120
77 95 123
77 96 124
77 96 126
74 92 119
77 96 125
74 93 120
78 97 124
74 93 121
75 93 121
75 93 121
75 94 121
74 93 120
74 93 121
76 95 124
75 94 122
71 89 115
74 92 119
75 92 119
77 95 123
71 90 118
72 89 114
75 93 120
74 91 118
71 89 117
72 90 118
75 94 122
75 92 118
72 89 115
74 91 118
73 91 117
76 94 120
77 95 123
74 91 117
74 92 119
74 92 119
71 89 115
74 92 120
72 89 115
72 89 114
73 92 120
77 95 122
78 96 125
75 94 122
74 92 119
71 87 112
72 90 116
74 92 120
71 88 113
72 89 115
75 94 121
75 93 121
72 90 116
70 88 114
72 90 116
71 89 116
74 92 118
72 89 116
74 92 119
73 91 118
72 89 115
73 89 114
67 84 108
70 87 112
71 89 115
74 91 116
74 93 120
70 88 115
69 87 113
71 88 113
69 87 113
70 86 110
71 88 112
67 84 109
67 82 106
71 87 112
68 84 108
67 83 108
69 85 109
73 90 116
71 89 116
68 85 110
68 84 109
65 80 104
70 86 110
67 82 105
67 83 107
71 88 114
71 87 112
71 86 109
63 78 100
64 80 104
66 82 105
66 80 101
71 88 114
67 82 105
71 86 110
68 84 108
71 88 113
66 82 106
70 86 110
59 72 93
67 82 105
62 76 98
64 78 99
61 76 98
60 73 93
61 75 96
64 78 98
63 78 101
63 77 97
64 78 98
60 73 94
63 77 98
63 77 97
62 75 96
57 69 87
60 74 94
61 74 94
63 77 98
61 75 96
58 71 89
60 73 92
63 77 97
56 68 86
60 72 90
54 66 83
61 74 93
57 69 88
53 64 81
54 64 81
57 69 87
53 64 81
49 59 74
53 64 80
49 59 74
55 67 85
51 60 75
49 59 74
52 63 79
49 59 74
44 53 67
47 56 69
49 59 73
46 55 70
52 62 76
49 58 72
48 58 72
48 58 72
48 58 71
42 50 62
50 59 73
40 47 59
45 54 67
43 51 63
44 52 64
38 45 55
38 45 55
40 47 57
36 42 52
38 44 54
36 42 52
32 37 46
32 38 46
34 40 48
36 43 53
38 45 55
33 39 48
30 35 43
30 35 43
35 41 51
36 43 53
32 37 46
39 46 56
34 40 49
36 43 53
39 46 56
40 46 57
39 46 56
35 41 50
41 48 60
40 47 58
38 45 56
39 46 57
39 46 57
41 49 60
38 45 55
37 44 55
38 45 56
48 57 71
38 45 55
44 52 64
46 55 68
41 49 61
49 58 72
50 60 74
46 55 69
43 52 65
49 59 74
42 51 65
48 58 73
48 57 72
48 58 73
53 64 81
52 62 78
55 66 83
48 57 71
46 55 69
59 71 89
58 71 89
58 70 89
61 75 95
58 70 87
56 68 87
59 72 90
55 67 84
60 73 92
54 66 83
58 71 89
55 68 87
63 76 96
54 66 84
60 74 94
63 76 97
59 71 90
64 78 99
60 74 95
66 81 103
64 78 98
64 79 100
67 81 104
62 76 97
61 75 95
64 78 100
63 78 101
67 83 107
70 86 110
66 82 107
68 84 108
67 82 106
64 79 102
66 82 106
64 79 101
69 85 110
67 83 107
68 84 107
67 82 106
67 84 110
68 85 109
69 85 110
67 83 106
68 83 107
68 84 108
73 89 114
68 84 107
67 83 106
70 87 112
73 90 116
71 87 113
70 86 111
74 91 116
70 86 111
68 85 110
71 87 112
69 85 109
72 89 115
69 86 110
68 84 109
67 84 108
67 84 109
69 85 109
71 88 115
71 87 112
70 88 114
73 91 117
73 91 118
77 94 121
72 90 117
69 85 110
74 92 119
78 96 121
76 92 117
76 94 121
76 94 120
70 87 113
74 92 120
70 87 111
77 95 122
69 86 111
75 93 119
73 91 119
71 90 117
72 90 116
72 90 116
73 91 117
73 91 118
73 92 120
75 92 118
73 91 117
70 89 116
72 90 116
74 92 119
72 90 117
72 90 116
74 92 118
71 88 113
74 92 119
77 95 122
74 92 120
72 89 115
72 91 118
74 92 120
76 93 119
76 95 122
75 92 119
75 93 120
75 92 119
71 89 116
76 95 123
74 92 118
76 95 122
73 92 120
76 95 123
72 91 120
76 93 119
77 96 123
74 94 123
76 95 124
75 95 124
77 96 125
75 93 120
69 87 115
73 91 120
75 92 119
76 94 120
73 92 121
79 98 126
74 92 119
73 92 120
74 92 120
77 95 122
78 97 125
77 96 125
75 93 121
76 95 124
79 98 126
75 94 122
76 95 123
75 93 122
79 98 126
77 96 125
76 95 123
76 95 122
77 96 125
80 98 126
76 95 123
76 95 123
77 96 125
78 96 124
75 93 120
77 96 124
76 95 124
77 95 124
77 96 125
76 95 124
75 93 121
78 96 124
78 96 124
77 95 124
77 95 123
79 97 125
75 94 122
79 98 126
77 95 123
78 97 124
79 96 122
75 93 121
78 96 125
80 98 125
74 92 120
75 94 123
75 94 122
76 95 123
77 96 124
76 94 122
74 92 119
77 96 124
78 96 123
78 96 122
77 96 124
76 94 121
77 95 122
76 94 121
77 96 123
77 95 123
77 95 124
73 91 118
76 94 121
75 93 121
77 96 125
73 93 121
76 94 122
76 95 123
75 94 122
75 93 120
78 97 124
74 93 121
77 96 124
73 91 120
76 95 122
75 92 119
76 94 121
75 93 120
75 94 122
74 93 122
74 92 119
74 92 120
78 97 125
75 93 121
77 96 123
77 95 122
74 93 121
76 94 120
72 91 118
76 95 123
77 96 123
75 94 121
75 94 122
73 91 117
74 93 121
74 92 120
76 94 120
75 94 123
76 95 123
72 90 116
73 91 117
73 90 117
72 90 116
77 95 122
76 93 120
71 89 117
76 95 123
70 87 114
73 91 119
76 93 120
73 90 117
71 89 116
70 87 113
74 93 120
76 93 119
74 92 120
72 89 115
72 91 120
73 90 116
71 89 115
74 92 120
74 91 116
75 92 118
71 89 116
73 90 116
69 86 111
70 87 112
76 94 122
73 89 114
70 88 115
70 87 112
71 88 112
70 86 110
71 88 113
68 85 111
72 89 115
67 83 108
70 87 112
70 86 110
66 81 105
70 87 113
69 85 109
72 88 113
68 84 108
72 89 114
70 87 113
70 86 112
67 83 107
73 89 114
68 84 107
68 85 110
70 87 112
70 86 110
66 81 105
64 80 103
73 89 114
72 89 115
68 84 107
69 85 109
66 82 106
67 82 105
65 79 101
66 81 103
67 83 106
70 86 109
61 76 98
64 79 102
64 79 101
59 73 94
68 84 109
68 84 107
61 75 97
67 81 103
58 71 92
61 75 96
60 73 93
66 80 102
58 72 93
62 76 97
63 77 98
62 76 97
59 72 93
62 75 95
63 76 96
59 71 90
61 74 93
59 72 91
56 69 87
67 82 103
61 74 94
53 64 81
55 68 87
59 71 90
55 67 84
56 67 85
53 65 82
57 68 85
53 65 82
56 67 84
50 61 77
48 57 72
50 60 75
52 63 80
52 62 78
45 54 68
52 63 79
48 58 72
41 49 60
47 56 70
47 57 71
53 63 78
38 46 57
40 48 60
48 57 71
52 62 76
49 58 72
46 55 68
41 49 60
41 49 61
45 53 64
39 46 56
44 53 65
34 41 50
39 45 55
34 40 49
36 42 52
45 53 65
37 43 53
37 43 53
40 47 58
38 44 54
35 42 51
40 47 57
32 38 47
32 38 47
36 42 51
35 41 51
41 48 59
33 39 48
37 43 53
34 40 50
30 35 43
38 45 55
38 45 55
37 44 55
41 49 60
40 47 58
36 43 53
42 50 62
53 63 78
35 42 52
39 46 57
40 48 60
47 56 69
39 47 58
45 54 67
46 55 69
49 58 73
45 53 66
42 50 62
50 60 75
44 53 65
46 55 68
43 52 65
54 65 81
54 64 80
56 68 85
45 55 69
55 66 83
55 66 82
51 62 78
52 63 79
49 60 75
50 61 77
55 66 83
57 68 86
53 63 80
62 76 95
64 77 98
60 73 93
55 66 84
59 72 91
61 75 95
63 75 94
60 72 91
62 75 95
56 68 86
61 75 95
64 78 100
61 75 95
65 80 101
59 73 93
65 80 101
61 74 94
63 78 100
64 79 101
67 83 107
61 75 96
66 81 103
67 82 105
63 78 100
66 81 103
67 82 106
67 82 106
59 72 92
71 86 110
64 80 103
69 86 111
63 79 102
69 85 109
65 81 104
63 79 102
64 79 100
72 89 114
69 84 108
59 74 97
70 86 112
70 86 111
65 80 103
70 86 112
69 86 110
66 83 107
69 85 109
68 84 108
66 81 103
72 89 115
68 84 109
68 84 108
74 91 117
71 87 112
71 88 114
71 87 111
75 93 120
70 87 112
73 90 117
69 85 109
70 87 112
73 91 118
71 87 113
70 86 112
74 92 119
72 90 116
73 91 118
71 88 113
73 90 116
70 88 114
74 91 118
74 91 117
72 89 115
71 89 116
75 92 117
70 87 112
75 92 119
74 92 119
73 91 119
71 89 115
71 88 114
73 90 116
71 88 115
68 85 110
70 88 116
76 94 121
69 85 110
74 91 117
72 89 116
76 93 120
70 88 115
73 91 118
73 90 116
73 90 116
76 95 123
77 95 122
73 91 117
75 93 119
74 92 119
75 92 119
73 91 118
78 97 124
72 91 118
76 94 121
75 94 122
73 91 118
74 93 121
76 95 124
75 93 120
74 93 120
73 92 120
74 92 118
76 95 124
75 94 122
75 94 122
71 89 117
74 92 120
76 93 120
76 94 120
75 94 123
75 94 121
76 93 120
75 94 123
75 93 120
77 95 123
74 93 121
74 92 119
75 94 121
76 95 123
75 94 123
76 94 121
75 94 122
77 95 123
75 94 122
74 93 121
75 94 123
75 94 122
77 95 122
76 95 123
76 94 120
75 93 120
74 93 121
73 92 119
78 97 125
80 99 127
78 96 123
77 96 125
79 98 126
74 93 120
77 95 121
78 97 125
77 96 124
76 94 121
78 96 122
78 96 124
77 96 124
75 93 120
77 96 124
75 93 121
75 94 121
79 97 124
77 97 125
78 96 124
75 95 124
77 95 122
77 96 125
77 95 123
75 94 122
74 93 121
76 95 123
74 93 120
77 96 126
77 95 124
76 95 124
76 95 123
76 95 124
80 98 125
75 93 121
74 93 120
74 93 122
76 95 123
76 95 124
75 94 122
77 96 124
77 95 122
74 92 120
75 93 121
70 88 114
78 97 126
77 95 121
77 95 123
76 95 123
78 96 124
74 92 120
78 96 122
77 95 121
75 93 120
77 96 125
77 95 122
75 94 121
75 94 122
74 92 119
75 94 121
75 93 121
72 90 117
78 96 123
77 95 123
72 91 118
75 94 122
78 96 123
77 96 124
72 89 115
77 96 125
70 87 113
75 93 120
72 90 118
76 95 122
72 90 117
77 95 123
70 87 112
72 90 117
74 92 120
73 91 117
76 94 120
70 87 112
73 91 118
72 89 115
71 88 113
74 92 120
73 90 117
73 91 117
74 92 119
74 92 119
75 92 118
73 90 116
69 87 113
72 89 114
73 91 118
72 89 115
77 95 122
72 90 116
69 86 111
71 89 114
75 94 121
71 89 115
72 90 116
72 89 115
68 84 107
74 91 117
73 90 116
72 89 114
74 91 117
71 88 114
73 92 120
66 83 107
71 87 112
70 87 111
71 87 111
76 94 121
71 88 113
69 85 109
70 87 113
70 87 113
72 88 113
66 82 106
70 87 112
76 92 117
67 82 105
67 82 106
64 79 102
70 87 113
71 88 112
68 85 110
68 85 111
67 82 105
71 88 112
67 83 108
65 80 103
66 81 105
66 81 103
67 82 104
70 87 112
66 82 107
71 87 112
64 79 102
70 87 112
66 81 103
71 88 112
67 81 103
67 82 105
67 82 104
65 80 104
62 76 97
63 78 100
67 82 105
67 81 102
62 77 99
61 75 95
59 72 92
66 80 102
63 77 99
59 73 93
62 75 95
62 76 97
59 73 93
60 73 94
63 77 98
60 73 93
61 75 95
59 72 92
51 62 78
58 72 93
52 64 82
61 74 94
63 76 96
58 71 90
53 64 82
56 68 86
58 70 88
54 66 84
56 67 84
51 62 79
49 59 74
61 73 91
51 62 78
52 63 80
52 62 77
47 57 71
46 55 69
54 65 82
47 57 71
53 64 80
46 55 68
44 53 66
49 59 73
51 61 76
47 57 70
45 55 68
48 58 72
48 57 70
40 48 59
41 49 61
47 56 69
48 57 70
41 48 60
41 49 60
40 47 58
43 51 63
36 43 53
38 44 55
44 52 65
36 43 53
41 48 60
38 45 55
34 39 48
35 41 51
36 42 52
34 40 49
36 42 52
32 38 46
35 42 52
38 45 55
45 53 65
42 50 61
35 41 51
44 52 64
43 51 62
37 44 54
41 48 60
40 47 58
39 46 56
42 50 62
43 51 64
43 51 63
42 50 62
42 51 63
44 53 66
48 57 70
42 50 62
49 58 72
51 61 76
53 63 78
47 56 71
47 57 70
49 58 72
49 59 73
44 53 67
46 56 70
53 64 80
48 59 74
50 61 78
49 60 75
48 58 72
56 67 83
47 57 72
53 64 82
52 63 80
54 65 82
54 65 82
58 69 87
58 70 88
55 66 83
57 69 88
59 72 92
57 70 89
62 75 95
60 74 94
60 73 93
58 71 90
62 76 97
60 73 92
63 76 96
60 74 95
65 79 100
68 83 104
63 78 99
67 82 104
66 80 103
67 82 104
67 83 107
66 80 103
62 76 97
65 79 102
61 76 97
66 80 102
63 78 100
65 79 101
69 85 110
67 82 106
65 80 103
70 85 109
66 82 105
67 82 105
67 83 106
68 84 109
64 80 104
66 82 106
70 86 109
70 86 112
66 82 106
70 85 108
70 86 111
67 83 108
70 87 114
69 87 113
70 86 111
67 82 106
70 87 113
68 85 110
68 84 108
63 80 105
70 87 114
70 87 112
66 83 108
64 80 103
70 87 112
74 92 119
71 88 113
70 88 115
75 93 122
70 87 112
67 83 106
68 85 109
72 88 112
74 91 116
69 87 114
73 90 116
73 90 117
76 93 119
72 89 115
73 89 113
70 86 112
72 89 115
73 89 114
74 93 120
67 84 110
72 89 114
71 88 114
76 95 123
72 89 115
72 90 117
72 89 115
73 90 117
74 92 120
74 92 119
74 92 119
72 90 117
71 89 116
72 89 115
74 92 120
76 94 121
74 92 119
75 92 119
71 89 116
76 95 123
75 93 121
79 98 125
73 91 118
73 90 116
71 88 115
73 92 119
76 95 124
71 90 118
76 95 123
72 91 119
72 91 118
73 92 121
75 93 119
73 90 116
78 96 124
75 93 120
70 88 116
74 93 121
78 97 125
75 93 121
75 93 121
73 91 118
75 94 123
75 94 121
75 94 121
77 95 123
75 93 121
75 93 120
79 97 124
73 91 118
78 96 123
78 97 125
73 91 118
76 94 121
79 97 125
75 93 121
76 95 123
79 96 123
77 95 123
76 95 122
73 93 122
77 96 124
74 93 122
75 94 121
80 98 126
76 95 123
73 92 120
77 96 124
78 95 122
74 93 120
79 99 128
78 97 125
76 94 121
76 94 122
75 94 122
75 93 121
74 93 122
79 98 127
76 94 122
76 95 124
77 95 123
75 93 121
74 92 121
75 93 120
75 94 122
76 94 121
77 96 124
75 93 120
77 96 123
73 91 118
74 93 120
76 94 121
75 94 121
73 93 122
77 95 123
76 95 124
76 95 122
74 93 121
79 97 124
76 95 123
78 96 123
78 97 125
77 95 123
76 94 122
73 92 120
77 96 124
75 93 120
76 94 122
75 93 120
76 96 125
76 95 122
78 97 125
78 96 123
74 93 122
75 94 122
72 90 117
76 94 121
76 94 122
75 93 119
76 94 121
75 93 121
73 92 120
77 95 122
77 95 123
78 96 124
73 92 120
76 95 123
76 94 122
74 93 121
78 96 123
75 93 120
76 95 124
77 95 124
76 93 120
76 95 123
73 92 119
72 90 118
77 95 122
74 94 122
76 94 121
77 96 123
74 91 117
71 89 117
72 90 118
77 95 122
75 92 118
76 93 120
73 90 116
75 93 121
75 93 121
73 91 118
71 89 116
70 86 110
75 94 121
76 93 120
75 93 119
76 93 119
73 91 119
73 90 116
73 91 117
73 91 118
75 92 118
73 90 115
68 84 108
69 86 112
73 90 116
70 87 113
69 86 112
68 86 112
71 88 114
71 89 116
73 90 117
75 92 118
75 93 121
75 93 120
75 93 120
71 89 116
73 90 115
68 85 111
69 86 111
71 88 113
72 89 116
71 87 112
70 87 113
73 90 116
71 87 112
68 84 108
69 87 113
70 86 109
71 87 112
70 86 110
70 86 110
68 85 110
71 89 115
71 89 116
69 86 111
68 84 109
69 86 112
73 90 115
71 88 114
70 86 110
68 83 106
68 84 108
69 85 108
64 80 104
68 85 110
67 82 106
63 78 100
68 84 107
64 79 102
64 80 103
68 84 107
65 80 104
69 84 108
74 91 116
68 83 106
65 81 104
65 80 103
64 79 102
64 78 99
65 79 101
61 76 97
69 84 107
58 71 91
69 84 108
55 68 87
65 80 102
60 75 96
58 72 92
61 74 95
59 73 92
62 76 96
58 71 91
59 73 93
64 79 102
62 76 96
54 65 82
60 73 93
58 71 90
56 67 85
57 69 87
56 68 87
57 69 86
51 62 78
57 69 87
52 62 79
55 66 84
53 65 82
54 64 80
53 64 81
52 63 78
55 67 85
50 61 76
48 58 73
52 63 80
54 65 81
52 62 77
44 53 65
50 61 76
48 57 72
52 62 78
49 59 73
46 55 68
54 64 79
40 48 60
42 50 62
43 51 63
42 50 61
44 52 65
41 49 60
42 50 61
44 53 65
47 55 68
44 52 63
40 48 59
38 45 56
43 51 63
40 48 59
43 51 62
37 43 53
41 48 59
47 56 70
41 49 61
34 40 49
41 48 59
41 49 60
40 48 59
41 48 59
50 59 74
44 52 63
39 47 58
39 47 57
42 50 62
42 50 62
43 51 63
41 49 61
46 54 67
38 45 55
42 49 61
43 51 62
43 51 64
45 54 67
45 54 67
42 50 62
50 59 74
48 57 72
48 58 72
46 55 67
49 59 74
45 54 67
47 57 73
54 65 81
50 59 74
50 61 77
49 59 73
51 61 77
54 64 81
50 60 75
59 72 91
57 69 86
60 72 91
53 65 81
50 61 78
59 71 90
60 73 91
57 70 89
55 67 86
62 75 94
60 73 92
57 69 87
57 69 87
58 71 91
61 76 97
62 76 98
64 78 99
57 69 87
61 75 96
63 77 98
61 75 96
58 71 90
67 82 104
59 73 93
63 77 98
62 76 97
62 76 98
66 81 103
65 79 101
59 74 95
60 74 95
62 77 99
64 79 101
67 82 105
64 79 102
65 80 103
68 83 106
71 87 111
66 81 104
68 83 106
71 86 109
66 82 107
68 83 104
68 84 108
66 81 105
64 79 101
71 88 114
69 85 108
70 86 109
67 83 107
74 90 116
66 82 105
67 82 105
67 83 107
70 87 112
69 86 110
67 82 106
72 89 114
68 85 110
69 86 111
68 85 111
67 83 107
69 85 110
74 91 117
71 88 114
71 88 113
68 84 108
72 89 115
72 89 116
68 85 110
73 90 114
73 91 118
71 88 114
72 91 119
72 90 116
72 90 117
73 91 117
72 90 116
70 87 112
71 89 115
74 91 118
73 90 115
69 87 114
72 89 115
72 90 116
74 91 117
71 89 116
73 91 118
72 89 113
74 91 118
75 93 121
72 90 117
71 88 115
74 93 120
77 94 120
72 90 117
78 96 122
73 91 119
76 94 121
72 90 116
75 93 120
76 95 123
73 91 117
73 91 117
76 94 123
75 93 119
75 93 119
76 94 121
75 93 120
75 93 120
75 94 122
72 90 116
77 94 121
74 93 120
73 91 119
77 96 123
75 94 122
75 93 120
75 94 121
75 93 120
76 94 120
75 94 121
76 94 122
76 94 120
72 90 116
76 94 122
76 94 120
74 91 118
73 91 118
78 96 123
73 91 119
75 94 123
77 95 121
74 92 118
78 97 126
75 93 121
74 92 119
74 92 118
77 96 123
77 95 123
72 91 119
74 91 117
78 96 123
75 93 120
71 89 115
77 95 122
78 97 125
77 95 123
76 95 122
78 97 125
76 96 125
76 95 124
78 97 126
74 93 121
74 92 120
76 94 122
76 94 121
76 94 122
76 94 122
72 90 117
74 93 120
74 91 117
73 92 119
76 95 124
78 97 127
78 97 126
79 97 125
78 97 125
79 97 123
75 93 120
78 97 126
77 96 124
77 96 124
77 96 124
75 94 122
77 95 122
76 95 122
75 93 121
77 96 125
74 93 120
77 95 122
77 96 124
77 95 122
75 93 121
76 93 120
75 93 122
73 91 118
76 95 123
76 95 122
73 91 118
74 93 121
74 93 120
76 95 122
78 97 126
77 96 124
76 94 121
74 93 122
75 93 121
73 91 118
75 93 121
76 94 121
77 95 124
76 94 122
72 89 115
77 94 121
75 93 120
75 93 120
78 97 125
79 97 125
78 97 125
74 92 119
72 91 120
75 94 123
73 92 120
77 95 122
75 93 121
77 94 121
75 93 120
75 93 120
75 94 122
74 92 119
75 93 121
73 91 119
75 93 120
73 91 118
74 92 120
74 93 120
72 89 115
73 91 118
71 89 116
75 94 122
75 93 121
73 90 115
72 90 117
73 91 117
74 92 118
74 91 117
75 93 120
74 91 117
72 90 116
72 90 116
73 89 114
76 94 121
76 94 121
72 89 114
64 79 103
74 92 119
73 90 116
73 91 116
71 89 115
73 90 116
75 93 119
71 88 114
69 86 112
69 86 110
71 88 114
71 88 112
72 90 116
73 90 117
74 92 118
75 92 118
70 88 114
72 89 114
70 87 112
69 86 111
69 86 112
68 84 107
72 89 116
70 86 112
73 90 116
66 82 106
72 88 112
68 84 108
71 87 112
70 87 112
70 87 112
68 85 110
71 87 111
71 87 112
67 83 107
69 86 110
71 86 110
68 84 109
70 87 112
70 86 110
68 83 106
68 83 106
68 84 108
66 82 104
63 79 102
66 82 105
67 82 104
68 84 108
69 85 109
66 82 106
73 89 114
64 79 101
70 86 110
65 80 103
63 76 96
57 70 90
60 74 96
62 77 99
62 76 97
66 82 106
64 79 100
64 79 100
64 79 101
61 74 94
62 75 95
62 75 95
62 77 98
57 70 89
57 70 90
66 79 100
59 71 90
58 70 88
56 68 86
58 71 91
60 72 92
52 64 81
52 63 80
61 74 93
60 73 92
59 72 91
55 66 83
52 63 78
53 65 82
57 69 87
55 66 84
59 72 91
44 53 67
52 62 78
56 67 84
54 65 82
51 61 75
52 62 78
54 65 81
52 62 78
49 59 74
47 57 71
48 58 73
55 66 83
43 51 63
57 68 85
42 50 63
50 60 76
47 57 71
42 50 62
47 56 69
52 62 77
42 49 60
45 53 66
36 43 53
46 54 67
45 53 67
44 53 66
39 47 58
41 48 60
46 54 67
42 50 62
46 55 68
44 52 64
42 49 61
39 46 57
41 49 60
39 46 57
43 51 63
38 44 55
38 46 57
40 48 59
38 46 57
42 50 61
42 51 63
43 51 63
40 48 60
39 47 57
46 55 68
44 52 64
42 50 62
44 52 65
44 52 64
52 62 76
50 59 73
47 56 70
51 61 75
47 57 71
48 58 73
45 54 68
46 55 68
47 57 72
51 61 76
51 60 75
53 64 80
52 63 78
55 67 84
47 57 73
53 64 80
59 70 87
52 63 80
53 64 80
52 63 79
56 67 83
57 68 85
56 68 86
56 67 85
62 75 95
58 71 91
52 64 81
61 75 95
62 76 96
62 75 94
60 73 93
61 73 92
65 80 102
59 71 91
63 77 98
65 79 99
61 74 94
57 70 89
65 80 103
60 73 93
60 73 92
63 77 98
62 77 99
66 80 102
60 75 97
65 80 103
64 79 100
67 83 106
68 84 108
65 80 103
63 76 97
64 79 102
65 79 100
58 72 92
63 79 103
64 78 100
64 79 102
65 80 103
66 81 104
69 84 108
65 81 104
67 83 106
71 86 109
65 81 105
68 84 108
69 85 108
68 84 108
70 86 110
68 85 109
65 80 103
72 90 116
68 84 109
68 84 107
73 89 115
72 88 113
65 80 103
66 81 104
62 77 100
73 90 115
68 84 108
72 90 116
69 86 111
75 91 116
68 84 107
71 89 114
69 86 111
68 85 110
70 87 112
70 86 111
72 89 115
70 87 111
72 89 116
72 88 113
67 84 109
72 90 116
72 89 114
71 88 113
73 91 119
73 91 118
73 91 118
74 90 115
70 87 113
72 90 116
71 88 114
76 94 121
74 91 118
73 91 117
77 94 120
69 87 114
66 83 109
73 93 121
70 88 115
74 92 120
72 89 114
74 91 118
76 94 122
74 92 120
75 94 121
74 91 118
75 92 118
73 91 117
75 94 122
75 92 118
77 96 123
74 93 122
74 93 121
73 91 120
72 89 115
79 97 124
74 92 120
78 96 123
73 89 115
73 90 116
76 94 122
74 93 121
75 93 120
74 92 119
75 93 119
75 94 122
74 91 118
75 94 122
75 92 118
75 94 121
74 92 118
77 95 121
75 93 121
75 93 120
75 95 124
76 95 124
76 93 120
77 96 124
75 93 121
73 91 119
75 92 117
77 96 123
78 97 124
75 93 121
74 93 121
76 95 123
76 93 119
78 96 124
73 91 118
78 97 125
75 94 122
76 95 123
74 93 121
74 93 120
76 94 122
75 93 120
77 95 123
73 92 120
76 95 124
73 91 119
79 98 126
75 94 123
76 94 121
76 95 123
76 95 122
78 97 126
77 95 123
75 93 120
76 95 124
77 96 124
76 95 123
79 97 125
79 97 125
76 95 123
78 97 124
77 95 123
74 93 121
75 93 120
77 96 125
76 95 124
77 95 123
76 94 122
73 91 118
76 95 123
78 97 125
78 97 125
76 94 122
77 96 125
76 95 123
77 95 124
78 97 125
74 92 120
74 92 119
77 95 123
74 93 121
74 92 119
73 91 118
74 93 121
75 94 122
76 95 124
75 93 119
77 96 124
77 95 124
79 97 124
76 94 121
73 91 117
78 96 123
76 94 121
75 93 120
76 94 121
77 95 123
75 93 120
75 93 121
78 95 121
73 92 121
75 93 121
77 95 122
73 91 117
75 93 121
78 96 123
77 96 125
74 92 119
76 95 124
75 93 119
76 94 122
74 93 122
75 93 121
75 93 120
76 94 122
73 90 117
76 93 120
74 91 117
73 91 119
77 94 121
74 93 121
73 90 116
72 90 116
74 93 121
74 92 119
75 93 120
74 92 118
72 90 115
74 92 120
73 91 119
68 85 111
76 93 118
76 94 120
68 86 113
73 90 116
73 90 117
71 88 115
67 84 108
71 89 114
72 90 116
67 83 108
72 90 116
71 89 116
71 87 113
69 87 114
72 90 118
74 92 119
70 88 115
74 92 118
71 89 116
71 88 114
74 91 118
71 88 114
72 89 116
69 86 111
70 87 113
72 89 115
73 90 117
75 93 120
69 85 111
68 85 110
75 93 119
70 87 112
68 84 109
68 85 110
66 81 104
68 83 106
71 88 112
66 83 107
69 85 109
67 83 106
68 85 111
64 80 104
69 85 109
64 79 101
61 76 98
69 85 110
70 88 113
65 80 103
62 77 100
67 83 106
67 83 106
69 85 108
66 81 104
66 81 104
67 82 104
67 82 105
66 82 105
64 79 102
71 87 110
63 77 99
66 81 103
65 79 100
66 81 103
62 76 97
66 82 106
67 82 105
61 75 95
64 79 101
65 80 102
59 72 91
68 83 105
67 82 105
61 76 97
62 75 95
55 67 85
55 67 84
63 76 97
58 70 88
55 68 88
62 75 94
58 70 89
59 72 91
60 73 92
64 77 97
58 70 87
56 68 86
57 69 87
54 66 83
57 68 86
55 67 84
50 61 78
56 68 86
54 65 82
50 60 76
54 65 82
51 62 78
49 59 74
54 65 83
54 65 81
51 61 77
46 56 70
54 64 80
48 58 72
48 58 72
52 62 78
51 61 76
47 57 71
42 50 63
46 56 70
49 58 73
48 58 72
44 53 66
40 48 59
41 49 61
45 53 66
46 55 68
45 53 65
39 46 57
38 45 56
45 53 66
43 51 64
46 54 67
45 53 65
41 49 61
37 45 56
41 49 60
42 50 62
40 47 58
33 40 50
42 50 62
50 59 73
40 47 59
38 45 56
49 57 71
43 51 63
43 51 64
46 54 68
49 59 73
44 53 65
43 52 66
45 54 66
39 47 58
51 60 75
40 48 60
45 54 67
49 58 73
48 57 71
47 57 71
52 62 77
50 60 75
48 58 74
48 57 72
48 58 72
52 62 78
55 66 82
54 65 82
51 62 78
61 73 92
52 62 78
56 68 85
59 72 92
53 64 81
52 63 79
53 64 81
54 66 84
50 60 75
55 66 84
59 71 90
59 71 91
65 79 100
59 71 89
63 75 94
62 75 95
56 68 86
63 77 97
64 79 100
67 82 105
59 72 92
62 75 96
61 75 96
62 75 95
65 80 104
62 76 96
64 78 99
64 79 101
63 76 96
60 74 94
59 71 90
62 76 97
65 80 102
62 75 96
63 76 97
60 74 95
65 80 103
64 80 103
64 78 100
65 81 104
65 82 106
67 83 106
63 77 98
66 81 105
64 80 103
68 83 106
64 79 103
64 79 100
70 87 112
70 87 113
70 86 111
68 84 109
69 85 109
69 86 110
62 77 99
68 85 109
68 84 109
66 82 106
70 87 112
68 85 110
74 91 118
66 82 107
69 86 110
69 86 111
67 84 108
74 91 116
71 88 112
72 89 115
70 86 111
71 88 113
73 90 117
72 89 115
72 89 115
69 86 111
75 92 118
70 87 113
70 86 109
72 89 115
75 93 120
71 87 111
71 89 114
69 86 110
70 87 112
68 84 109
70 87 112
72 89 115
71 88 114
72 88 114
74 92 119
72 89 116
73 91 118
72 89 115
73 91 118
73 91 118
73 90 116
75 92 118
72 91 119
73 91 118
72 90 116
79 97 124
77 94 121
74 92 118
76 93 120
77 94 121
72 90 117
76 94 122
70 88 114
74 92 120
75 93 120
74 92 119
71 88 114
77 96 123
74 92 119
74 93 120
74 92 119
75 94 122
71 88 115
78 97 125
73 92 120
75 93 120
74 91 117
75 93 121
70 87 114
75 94 122
74 93 121
78 95 122
74 93 121
77 95 123
74 92 120
75 93 121
72 90 118
76 95 123
73 90 117
74 92 120
75 93 119
74 91 118
77 96 124
75 94 122
75 94 122
76 95 123
76 94 121
75 94 121
75 93 121
78 97 125
75 93 120
75 92 119
73 92 121
74 92 119
77 95 121
76 95 122
79 98 128
76 95 123
75 93 121
77 96 125
75 94 122
73 92 121
76 93 118
74 93 122
76 93 119
75 94 122
77 96 124
78 97 125
71 89 116
77 95 123
78 96 123
77 95 123
76 95 124
77 96 124
74 92 120
76 95 123
74 93 121
75 94 123
78 97 124
75 93 121
75 94 122
76 94 122
76 94 121
77 96 124
70 88 114
76 94 121
79 98 127
76 94 122
76 95 122
77 95 122
76 94 121
77 96 125
74 93 121
78 97 124
73 91 118
75 93 122
78 97 124
76 95 124
74 92 120
79 96 121
74 93 122
75 93 120
74 92 119
75 92 118
76 95 123
77 96 123
73 91 118
76 94 122
75 93 119
74 93 121
76 96 125
76 93 120
75 93 121
72 90 117
74 93 121
76 94 122
73 90 115
76 95 124
75 93 120
74 92 119
73 90 116
74 93 121
75 95 123
73 91 117
76 95 124
76 94 121
74 91 118
73 90 116
73 91 118
72 89 115
71 88 115
78 96 124
74 91 118
75 93 119
74 91 118
76 94 122
77 95 121
77 96 124
73 90 117
73 90 117
72 88 114
72 90 116
73 90 116
75 92 118
76 94 122
70 88 114
73 90 117
75 93 120
74 93 120
72 89 115
73 90 116
74 92 119
76 94 121
74 92 119
71 88 113
72 90 116
74 92 119
73 91 117
73 91 118
70 87 114
75 92 119
73 92 121
70 87 112
74 92 119
74 92 119
72 89 114
72 91 118
72 88 111
69 85 109
71 88 113
71 87 112
72 91 119
65 81 106
70 86 111
69 85 109
68 84 108
71 88 113
75 91 115
63 78 100
71 87 112
68 85 111
69 85 108
69 87 113
72 89 114
69 85 110
66 82 105
68 85 110
67 83 107
68 85 109
68 85 110
66 82 105
71 87 111
67 83 107
68 84 108
73 90 115
69 86 111
68 86 111
65 80 104
66 81 105
66 82 106
67 83 107
68 84 106
66 82 105
65 79 101
71 87 112
65 81 105
60 74 95
64 79 100
61 75 95
61 75 97
62 76 96
65 81 103
66 81 103
62 76 97
64 79 101
63 77 99
63 77 98
59 73 92
58 71 90
64 80 102
62 76 97
68 84 107
62 75 96
61 75 96
58 71 91
57 69 88
61 75 95
58 71 92
54 68 88
59 71 90
55 67 85
53 64 81
53 65 82
64 77 96
58 71 89
60 72 92
53 63 78
50 62 78
58 70 87
55 66 83
55 67 85
57 69 86
58 70 87
50 60 76
52 63 79
56 67 84
49 59 75
54 65 82
54 64 80
46 55 70
51 61 76
49 59 75
55 66 82
49 59 73
54 64 80
45 54 67
51 60 74
54 64 79
46 55 69
48 57 71
49 59 73
49 59 74
41 50 62
47 56 69
46 56 70
46 55 68
49 59 73
43 52 65
43 51 63
45 53 65
41 49 61
42 51 63
44 52 65
45 53 66
42 49 61
43 51 64
45 53 65
46 55 68
41 49 60
40 48 61
47 56 69
46 55 68
44 53 65
50 60 75
42 51 63
43 52 65
49 58 72
50 59 73
46 54 67
47 57 71
43 52 64
51 60 74
41 49 62
45 54 67
49 59 73
50 60 75
51 61 77
50 60 75
52 62 78
56 67 84
53 63 79
51 62 78
59 72 90
55 66 83
52 63 79
49 59 74
51 61 77
50 60 76
56 69 87
56 67 84
62 75 94
53 63 80
50 60 75
52 63 79
53 64 81
51 62 79
57 69 87
60 72 92
64 77 98
64 78 100
63 76 95
58 71 91
57 70 89
56 68 87
61 74 94
59 72 92
65 80 103
63 77 98
57 70 90
59 73 92
59 72 92
62 76 97
58 71 91
66 81 104
59 73 93
66 81 102
64 79 102
68 84 109
62 77 99
63 78 99
66 81 105
60 74 94
68 84 107
58 72 92
68 84 107
65 80 103
63 77 99
68 84 108
64 79 100
64 79 101
68 83 105
72 88 112
69 85 108
69 85 109
64 79 101
70 87 112
69 86 111
64 78 100
66 82 106
70 86 110
70 86 109
72 89 116
72 88 113
67 82 105
69 87 113
71 89 116
71 88 114
67 84 108
66 82 106
70 87 113
67 83 108
68 85 110
71 88 113
66 83 107
73 90 115
73 90 116
72 90 117
69 86 112
71 88 112
69 85 110
75 94 122
69 86 113
70 88 115
71 88 113
72 88 114
71 90 117
70 87 113
72 89 115
73 91 117
68 85 110
68 84 108
75 92 118
72 90 116
69 86 111
69 86 111
72 90 117
74 92 119
70 87 113
71 89 115
70 87 113
75 93 121
74 92 119
71 88 115
73 90 116
72 90 117
73 91 118
71 89 116
72 89 115
72 89 114
75 94 122
75 93 121
74 92 119
72 90 118
72 89 116
73 90 116
75 93 121
76 95 122
72 89 115
73 90 115
71 89 116
74 92 119
72 91 120
72 90 116
72 90 117
75 93 121
73 92 119
76 93 120
75 93 121
72 89 116
72 89 115
73 90 117
76 94 122
74 92 120
75 92 119
75 93 119
78 97 125
76 93 120
78 96 123
75 93 121
73 90 117
74 92 119
72 90 116
76 94 120
77 95 123
74 93 120
75 93 121
73 91 119
75 94 122
76 95 123
77 95 123
77 96 123
73 92 119
75 94 121
73 92 120
77 95 124
76 95 123
76 94 122
76 95 124
75 94 123
77 95 122
76 95 124
75 94 123
75 93 121
78 96 123
78 96 124
75 92 119
74 93 121
75 93 119
74 93 121
76 94 120
75 93 120
75 93 120
75 94 123
75 93 122
75 94 122
77 95 122
76 95 123
77 96 125
75 93 119
74 92 119
76 94 121
75 93 120
75 93 121
75 94 121
77 96 125
75 93 121
76 95 123
75 94 122
76 95 123
76 95 122
75 94 121
77 95 121
76 95 124
76 95 124
76 94 121
75 93 120
79 98 126
75 94 122
72 91 119
76 95 122
73 92 119
74 93 122
72 89 116
75 94 121
77 96 123
78 96 124
77 95 123
75 93 121
76 93 119
77 95 124
77 96 125
76 93 120
76 95 122
75 94 122
75 93 121
73 91 118
75 93 119
76 95 123
73 92 120
76 95 123
75 93 121
75 93 120
76 94 121
73 89 113
71 89 116
73 92 119
72 90 116
75 93 120
73 91 118
74 92 119
72 90 116
75 93 121
73 91 117
73 91 117
72 90 117
73 90 115
73 90 117
74 92 118
69 86 112
70 88 115
74 92 119
74 91 117
70 86 110
73 91 118
72 89 115
70 89 118
69 86 112
71 89 115
69 86 111
73 91 118
71 88 115
74 92 120
73 90 116
71 88 114
73 90 117
72 89 115
74 91 116
72 88 114
72 89 115
70 87 112
71 88 114
71 87 112
70 87 114
72 88 114
71 88 115
73 90 115
71 88 114
70 86 110
65 81 105
74 92 120
72 89 116
73 89 114
73 89 114
69 85 109
72 89 114
68 85 110
69 84 107
71 88 113
68 84 108
73 90 115
71 88 113
71 87 112
71 87 112
68 84 108
69 85 110
71 88 113
70 86 111
66 82 106
65 81 104
68 84 108
70 86 110
70 86 110
71 87 112
66 82 106
67 84 108
71 87 111
64 79 102
68 83 107
64 80 103
65 81 106
66 81 102
64 79 101
69 85 108
65 80 103
66 81 103
68 82 104
68 83 106
64 80 102
64 80 104
65 79 100
65 79 101
64 78 98
63 76 97
58 71 91
62 77 99
63 77 97
63 77 98
62 76 98
57 71 91
58 72 92
64 79 100
61 74 94
63 76 95
59 72 92
55 67 85
58 72 92
54 66 84
61 75 94
62 75 96
56 68 85
64 79 100
55 68 86
61 74 94
56 68 87
61 73 92
62 75 95
57 69 88
54 65 82
56 68 86
57 70 89
54 66 83
46 55 68
55 67 85
49 59 75
58 70 88
56 67 84
53 64 80
53 64 81
54 66 83
55 67 84
50 60 77
56 67 84
48 58 72
44 53 65
46 55 69
46 55 69
52 62 79
45 54 67
52 62 77
43 52 65
45 54 67
46 56 69
52 63 78
49 58 72
51 61 76
53 64 79
48 57 71
44 53 66
41 48 60
37 44 55
48 57 71
47 57 71
39 47 59
49 59 73
42 50 62
48 57 71
46 54 67
52 62 77
41 50 62
47 57 72
40 48 59
41 49 60
45 54 68
43 51 64
45 54 67
50 60 74
43 51 64
47 56 70
51 61 75
48 57 71
53 64 79
54 64 79
43 52 65
47 56 70
48 57 71
53 64 81
57 68 85
54 65 81
55 66 82
51 61 77
48 59 75
56 68 86
62 74 92
50 60 76
50 60 75
50 60 76
50 61 77
48 58 73
55 67 84
58 70 88
59 71 89
57 69 87
62 75 94
53 64 81
55 67 85
56 69 88
62 74 94
59 72 91
65 79 101
61 75 95
67 82 103
61 74 94
65 78 99
52 64 82
56 69 88
58 71 89
60 73 93
67 82 104
62 76 96
61 74 94
62 75 94
61 74 94
63 77 98
62 76 98
60 74 95
63 76 96
65 80 103
64 79 101
67 83 107
66 81 102
61 76 97
64 77 97
69 84 107
66 81 104
62 76 98
67 82 104
69 84 107
71 88 114
65 80 102
65 80 102
64 78 99
64 79 101
68 84 108
61 75 96
62 76 97
67 84 108
65 80 104
71 87 110
67 83 107
71 87 110
67 83 108
67 83 106
67 84 108
69 84 108
71 87 111
69 84 108
70 86 110
71 88 113
68 84 109
76 93 119
70 87 111
69 86 112
69 86 110
69 85 108
69 86 110
70 87 112
70 86 111
73 90 114
67 84 108
70 87 112
74 91 117
72 89 115
69 85 110
71 88 114
69 87 113
74 91 118
73 91 117
71 88 113
71 88 114
70 87 112
70 87 111
73 90 116
73 90 116
71 89 115
73 90 116
73 91 117
73 90 116
72 89 114
74 91 117
68 85 111
73 91 118
74 91 118
72 90 117
73 91 116
73 91 117
68 85 110
71 89 117
70 87 113
73 90 116
71 89 115
70 88 114
74 92 118
77 95 122
71 88 113
75 93 120
72 90 116
76 94 121
77 96 123
74 93 120
77 95 122
73 91 119
74 93 120
72 90 118
71 88 113
74 92 120
77 94 121
73 91 118
74 92 119
76 94 120
73 91 118
75 93 121
78 97 125
75 92 117
75 93 120
76 95 123
73 91 118
76 94 121
75 93 120
72 91 118
73 91 117
76 94 121
75 93 120
74 93 122
74 92 120
76 95 123
75 93 120
72 91 119
76 95 122
73 90 115
74 93 120
73 91 118
77 95 122
76 94 121
77 95 123
78 96 124
75 94 121
76 94 123
75 94 123
77 95 123
78 96 123
75 95 124
78 97 125
74 93 121
78 97 125
75 94 122
73 92 120
77 95 122
75 93 120
78 96 124
78 97 124
77 95 121
75 94 123
72 91 120
71 90 119
76 94 123
78 97 125
77 96 124
75 94 121
77 96 123
75 94 123
76 93 120
76 94 121
75 93 121
75 93 120
74 92 120
76 95 122
78 97 125
77 95 122
75 93 120
76 95 123
75 93 121
74 93 121
74 92 119
74 92 119
76 95 123
75 94 121
76 94 122
78 96 124
76 93 120
73 92 121
74 92 120
75 92 119
77 95 123
76 95 123
76 94 121
74 92 120
74 92 120
76 94 122
75 93 121
75 93 120
77 95 122
77 96 124
75 94 121
73 91 118
75 93 120
77 94 120
74 92 119
74 92 118
73 92 120
74 92 119
77 95 123
75 93 120
75 93 119
76 93 120
73 92 120
74 92 120
77 96 123
76 94 122
72 89 115
75 93 120
75 93 120
72 90 118
72 89 115
73 92 119
71 89 116
74 92 119
76 94 121
70 87 112
74 92 118
75 93 120
73 91 118
75 93 120
70 86 111
72 90 118
74 91 117
72 89 115
75 93 120
75 93 121
69 86 111
74 91 118
70 86 111
70 87 113
74 91 116
73 90 115
71 88 114
74 92 118
70 86 111
72 89 116
74 91 117
69 86 111
71 88 113
74 91 117
68 85 111
71 89 115
72 89 115
67 83 108
70 86 111
69 86 112
74 91 117
69 86 112
72 89 115
72 88 113
70 86 112
69 86 112
68 85 110
65 81 105
69 86 111
73 90 115
70 87 113
68 84 108
66 82 105
67 83 108
69 86 111
66 82 107
69 86 111
70 86 110
70 86 110
69 86 112
65 81 105
65 80 104
69 86 113
68 83 106
68 84 107
71 88 112
63 78 101
66 82 106
68 83 106
71 88 113
70 85 107
66 81 105
63 78 100
68 84 109
63 77 97
66 82 106
63 78 100
66 80 102
63 78 100
67 82 104
65 81 104
61 76 98
64 79 101
63 77 98
59 72 92
66 80 103
60 73 93
60 73 93
61 75 95
65 80 102
64 78 100
60 74 96
64 78 99
64 78 99
57 70 89
60 75 97
65 80 102
58 70 89
63 76 96
61 74 94
57 70 90
56 68 86
59 72 91
58 70 88
54 65 82
60 74 95
58 70 88
55 66 83
57 69 86
48 58 74
61 74 94
56 67 85
58 70 87
60 73 92
53 63 79
59 72 91
55 66 83
46 55 69
49 59 75
56 67 84
51 62 78
50 60 75
50 60 75
55 66 83
52 63 78
50 61 77
47 56 70
47 57 71
53 64 80
51 62 77
51 60 75
47 57 71
46 55 69
47 56 70
43 52 65
52 62 78
44 52 65
46 55 69
52 62 77
46 55 69
47 56 70
46 54 68
47 56 69
47 57 71
45 54 67
46 55 68
43 52 65
52 62 78
45 54 67
47 56 69
47 57 71
47 56 70
43 51 63
47 56 70
45 54 67
40 47 59
48 58 72
43 51 63
43 52 65
43 51 63
47 57 71
47 57 71
52 62 77
41 49 62
46 55 69
44 53 66
56 67 83
48 58 72
62 74 93
54 65 81
59 71 88
50 59 74
51 61 76
54 65 82
61 73 91
56 67 84
50 60 75
51 61 76
58 70 87
55 66 83
53 65 82
59 71 89
59 71 90
53 64 80
51 62 78
56 68 87
63 76 96
63 77 97
58 71 90
53 65 83
59 71 90
57 70 88
60 73 93
57 69 87
56 68 86
55 67 85
60 73 92
57 70 88
60 73 94
64 78 98
56 69 88
62 75 96
59 72 92
65 81 104
67 81 103
61 75 97
66 80 103
59 73 93
63 76 97
62 77 98
63 77 98
66 82 107
62 76 97
68 84 108
64 79 102
58 72 92
71 88 113
68 84 108
66 80 103
62 77 99
70 87 111
68 84 108
66 82 105
68 83 107
67 82 105
69 85 109
70 85 109
67 83 106
72 88 112
70 86 109
72 90 115
71 89 115
67 82 104
72 89 114
67 83 107
72 89 115
71 87 112
67 83 106
70 88 115
66 82 106
67 83 107
69 85 109
65 80 104
69 86 112
69 86 112
71 88 113
68 85 109
68 85 110
74 92 119
67 84 109
68 84 108
71 87 112
70 87 112
70 87 113
72 90 117
74 90 115
70 87 114
71 88 112
73 91 117
75 93 119
71 89 116
72 90 118
71 88 114
73 88 112
72 89 114
71 88 114
74 90 116
72 90 116
68 85 110
72 89 116
73 91 118
72 90 117
73 90 116
72 88 114
74 92 118
72 89 115
73 90 116
70 87 113
76 94 121
72 89 116
76 94 121
73 91 117
74 91 117
76 94 121
70 86 111
72 90 117
75 93 121
74 92 120
71 88 113
74 93 121
77 95 122
76 94 122
74 91 117
76 94 120
75 94 122
76 95 123
74 92 118
75 94 123
72 90 116
72 90 116
72 90 116
76 95 123
74 91 117
78 97 125
73 91 119
72 90 117
74 93 121
77 95 122
75 94 122
75 93 121
77 96 124
75 93 121
75 94 122
73 91 119
70 89 116
78 96 122
74 92 121
79 97 125
77 96 123
78 96 124
74 92 119
73 93 122
74 91 117
77 95 123
74 93 121
76 94 121
73 92 120
78 96 124
75 94 121
76 94 122
76 94 122
76 94 122
72 91 118
75 93 121
75 94 123
76 95 123
75 94 122
77 97 126
78 96 124
75 93 122
77 95 124
79 97 125
74 92 119
76 95 123
77 96 124
76 95 123
77 96 125
78 96 124
75 92 119
76 95 125
80 97 124
74 93 121
76 95 123
76 95 124
74 93 121
77 95 122
79 97 124
78 96 124
77 96 124
77 96 124
75 93 121
73 91 118
73 91 118
77 96 125
76 94 121
75 92 118
75 93 121
75 93 120
74 93 122
76 95 124
74 92 121
76 94 121
76 95 123
75 94 124
75 94 122
76 94 120
76 95 124
77 95 122
74 93 120
74 93 121
72 90 116
77 96 124
68 86 113
77 96 123
73 91 118
76 94 121
73 91 118
74 92 119
75 94 121
74 92 119
74 92 119
77 95 121
73 91 118
77 96 124
71 89 115
72 90 117
74 92 120
72 90 116
72 90 117
75 94 122
76 95 123
77 96 124
73 90 117
77 94 120
73 90 116
68 85 111
75 93 120
73 91 117
71 88 113
71 89 116
74 92 119
70 87 113
74 92 119
71 87 113
77 95 122
75 93 121
73 90 115
70 88 115
70 87 113
68 86 112
75 93 120
72 89 115
69 86 111
73 90 116
70 86 112
71 88 113
74 92 118
69 85 110
72 89 115
70 87 113
75 92 118
73 90 117
73 90 116
67 83 106
70 88 114
69 87 113
74 90 115
73 90 116
71 88 114
72 89 114
73 89 114
68 85 109
69 86 112
74 92 120
70 87 112
73 91 117
73 91 117
74 92 118
70 88 115
75 92 118
69 86 112
70 87 112
63 78 101
71 88 114
68 85 110
65 80 102
67 83 108
64 79 102
65 81 105
70 86 111
67 83 106
66 83 107
69 86 111
68 84 108
68 85 110
69 85 108
69 85 108
64 80 103
69 84 108
69 84 107
67 82 105
68 84 107
68 83 107
65 80 103
65 80 103
62 77 99
64 79 101
68 84 106
67 82 104
62 76 98
67 82 105
60 74 94
65 80 103
60 74 95
66 81 104
60 74 94
65 79 100
63 77 99
64 79 101
61 74 95
59 73 93
64 78 99
63 76 97
63 77 99
57 69 87
62 75 96
57 68 86
57 70 89
57 70 89
62 75 94
56 68 86
55 67 85
59 71 90
56 68 86
58 70 89
51 62 79
57 70 89
57 69 88
52 63 79
54 66 85
55 67 84
57 68 86
53 64 79
50 61 77
55 66 83
58 70 88
51 61 77
52 63 80
51 63 79
53 64 81
48 59 74
57 68 85
58 69 87
42 50 63
49 59 73
53 63 79
43 52 65
56 66 82
53 63 78
51 61 77
54 65 81
49 60 76
52 63 79
49 58 73
49 59 73
47 56 69
48 58 74
48 57 70
49 59 74
49 59 74
51 61 76
43 52 66
52 62 77
47 57 71
51 62 77
45 54 66
49 59 74
48 57 71
50 60 75
58 69 86
58 69 85
50 60 74
44 52 65
47 57 71
54 64 79
54 65 81
46 56 70
53 63 79
52 62 77
48 57 72
48 57 71
48 57 70
52 63 78
47 56 70
49 58 73
47 56 70
48 58 72
47 56 70
49 59 74
48 58 73
45 55 68
51 62 78
51 61 77
52 63 79
59 71 89
50 61 76
58 70 87
51 62 79
55 66 83
50 61 77
57 69 86
55 67 84
60 72 91
59 71 90
56 68 86
64 77 96
53 65 83
58 70 89
64 77 96
62 75 95
56 69 89
64 77 98
57 70 89
59 72 91
61 74 95
60 74 94
62 76 96
62 76 96
66 80 101
59 73 92
62 76 96
63 78 99
62 77 99
54 67 86
62 76 96
59 73 93
64 78 101
66 80 102
63 77 98
64 78 100
62 76 98
62 77 99
66 81 105
66 81 103
64 80 104
64 79 101
67 83 106
64 79 102
58 73 94
58 72 93
62 77 100
62 77 99
66 82 105
67 83 107
68 84 109
69 85 109
67 83 107
66 81 104
67 82 104
71 88 112
65 80 102
67 82 106
66 82 106
67 84 108
67 83 107
68 83 107
67 83 106
70 86 110
68 84 108
73 90 116
69 85 109
69 85 110
67 84 110
68 84 109
68 85 110
65 81 105
71 87 112
72 90 117
71 88 113
70 86 111
69 85 108
70 87 112
72 88 113
74 91 116
71 88 114
70 87 113
73 92 120
72 90 117
75 92 119
69 87 113
72 89 114
71 87 112
74 92 119
71 89 115
70 87 112
74 92 119
74 92 118
70 87 112
75 92 118
68 86 112
72 90 116
73 91 118
68 84 108
75 93 119
75 93 120
72 90 116
73 91 117
70 88 114
74 92 118
74 92 119
75 93 120
72 89 114
75 93 119
74 91 118
73 90 116
72 89 115
72 89 115
74 92 120
71 89 117
73 91 117
73 90 116
75 92 119
73 90 116
71 90 118
77 95 122
72 91 120
72 89 115
73 91 117
75 93 119
74 92 120
76 94 121
76 95 122
73 90 116
76 94 122
70 87 114
73 91 118
76 95 122
74 92 119
74 92 119
73 91 118
77 95 122
79 97 125
78 97 125
72 91 119
73 92 119
75 93 120
76 94 121
76 95 124
77 96 124
75 92 118
75 92 118
78 97 125
76 95 124
76 94 122
77 95 122
76 94 122
76 94 122
76 95 122
76 94 121
76 95 122
78 96 124
76 94 122
72 91 119
76 94 122
75 93 122
75 93 120
77 96 124
76 95 124
77 96 124
78 97 125
77 96 125
74 92 118
76 95 123
76 96 125
74 92 120
78 96 122
78 97 125
77 96 123
77 96 125
74 93 121
76 95 122
75 94 122
74 92 120
76 95 122
76 96 126
72 91 118
73 91 117
75 93 120
75 94 123
75 95 123
74 92 120
76 95 122
76 94 121
75 93 119
77 95 122
74 92 119
75 93 121
75 94 122
78 96 123
76 95 123
76 95 124
74 92 119
72 90 117
77 95 123
75 94 121
76 95 124
78 96 124
77 95 123
76 95 123
76 95 123
75 94 123
73 91 117
75 94 122
79 97 125
74 91 116
77 95 122
76 95 124
73 90 115
74 92 120
75 94 121
76 95 122
71 88 115
72 90 117
73 90 116
75 93 120
74 92 120
74 92 118
73 90 116
74 93 122
76 94 122
72 91 118
72 90 117
71 89 117
72 90 116
72 90 117
75 93 121
72 90 116
71 88 114
73 91 119
73 91 117
74 93 121
73 90 117
72 91 118
75 92 117
71 89 115
75 92 118
75 93 120
72 90 117
72 90 116
69 85 110
76 95 122
71 87 110
71 87 112
70 87 113
71 89 115
71 88 114
74 92 119
70 87 113
69 86 111
65 80 103
70 87 113
73 90 116
71 89 115
72 89 115
69 86 110
72 90 115
67 84 108
72 89 115
72 89 115
74 92 118
73 90 115
72 90 116
70 86 111
70 88 114
73 92 119
66 82 106
64 80 104
70 87 112
69 85 110
67 83 107
72 89 116
72 90 116
68 85 109
68 85 109
70 86 112
67 82 105
66 82 106
68 84 107
66 82 107
70 86 110
64 79 102
69 86 110
69 85 110
62 76 98
65 81 105
71 87 111
62 77 100
69 85 109
60 75 97
65 82 106
70 86 110
65 81 104
65 80 102
62 77 98
67 82 104
65 80 103
64 79 102
64 79 101
61 75 97
60 73 93
65 80 103
62 76 97
65 79 101
59 73 93
67 82 104
60 74 95
63 78 101
65 80 102
66 81 104
64 78 100
63 77 98
61 75 96
60 74 95
65 80 102
58 70 90
58 71 90
60 72 92
61 73 92
63 76 95
61 74 94
59 71 90
62 76 96
58 71 90
56 68 86
66 80 101
60 73 93
59 72 92
56 68 86
62 75 95
59 72 91
60 72 92
48 59 75
61 74 93
64 77 96
54 66 84
58 69 87
53 65 83
52 62 78
57 69 87
55 67 84
49 59 75
61 73 92
55 66 82
55 67 86
54 65 81
52 62 78
54 66 83
54 65 81
50 61 77
46 56 69
48 58 72
50 61 76
48 57 72
55 66 83
52 63 79
54 65 82
50 60 76
44 52 65
52 63 78
57 68 84
46 55 68
48 58 73
46 56 69
56 67 84
47 56 70
53 64 80
49 58 73
57 68 84
49 59 74
49 59 73
52 61 76
50 59 74
45 54 67
45 53 67
53 63 79
50 59 73
45 54 68
46 56 70
52 63 80
46 56 70
40 49 62
54 64 80
45 54 68
55 66 82
47 57 72
47 56 71
47 56 71
55 66 83
53 64 79
51 61 77
54 65 82
55 66 83
57 69 86
51 62 78
56 67 85
49 59 74
59 71 89
50 60 76
56 68 85
57 68 85
55 66 83
58 71 90
55 66 82
58 71 90
57 70 88
56 68 86
59 72 91
56 69 89
59 72 91
58 71 89
58 70 89
57 69 87
62 76 96
59 72 91
63 77 98
59 72 91
62 76 96
57 69 87
60 74 94
65 79 100
61 74 94
63 77 98
65 79 102
69 84 107
64 79 101
67 82 104
64 77 97
63 77 100
66 81 104
62 76 97
63 77 98
66 80 102
63 78 100
63 77 98
66 81 104
60 74 95
65 80 102
63 77 98
62 76 98
61 74 95
65 81 104
67 82 105
67 82 106
68 84 107
66 81 104
67 83 107
67 83 107
70 86 111
65 80 102
71 86 109
68 84 108
69 85 108
66 82 105
67 82 105
71 88 112
70 86 111
71 87 110
67 83 106
65 81 105
70 87 111
67 82 106
69 86 112
72 90 116
71 88 112
69 86 111
75 93 120
68 85 109
69 86 111
71 87 113
73 91 116
71 89 116
74 91 118
71 89 115
69 86 110
70 88 114
72 89 116
72 90 117
68 85 111
72 89 114
75 92 118
70 85 109
73 89 113
73 90 116
75 93 120
71 88 113
73 91 118
71 88 114
71 88 113
73 90 115
71 88 114
73 91 117
72 91 120
70 87 114
74 93 121
74 92 119
68 86 112
76 94 120
71 88 113
76 93 120
74 92 119
73 90 116
71 89 116
72 89 116
76 93 120
72 89 115
74 92 118
73 90 116
71 88 114
75 92 119
76 94 120
70 88 114
76 94 120
72 90 116
70 87 113
73 90 117
74 93 120
76 94 121
75 93 120
76 94 121
73 90 116
72 89 115
72 90 117
74 93 122
74 91 118
77 95 124
75 94 121
75 93 120
73 91 118
72 90 116
74 92 120
76 94 121
77 96 124
73 92 120
76 94 122
74 92 119
74 92 118
74 92 120
77 95 122
75 94 122
72 90 117
74 92 119
76 95 124
74 93 120
78 96 124
79 97 125
76 95 123
76 94 121
76 95 123
75 94 121
76 94 121
80 98 125
77 94 121
76 94 121
75 94 122
76 95 123
78 96 124
77 95 122
78 96 124
77 96 125
74 92 119
76 95 123
74 93 120
77 96 124
77 96 125
74 91 117
78 97 125
74 93 120
76 94 121
78 97 125
77 97 126
77 95 123
77 95 121
75 94 123
75 93 121
77 95 123
80 97 124
76 95 123
78 96 123
73 90 116
77 95 123
76 94 122
72 89 116
77 95 122
75 93 120
75 93 120
74 92 119
76 94 121
73 91 118
75 93 121
75 94 121
72 91 118
76 94 121
75 92 119
77 95 122
77 95 122
77 95 122
72 90 118
74 93 121
76 94 121
74 92 119
72 89 115
75 93 121
71 90 117
76 95 123
74 92 119
73 90 117
73 90 114
75 93 120
71 87 112
72 90 116
74 92 119
73 92 119
74 92 118
76 94 121
77 96 123
68 85 109
76 95 123
72 89 114
72 90 117
76 94 121
74 93 121
71 88 114
73 90 116
74 92 118
71 88 114
73 90 117
74 92 118
71 88 113
74 92 119
71 89 115
74 91 116
73 89 114
73 90 117
75 94 122
73 91 117
71 88 114
75 93 120
73 89 115
71 89 116
72 89 115
71 89 116
71 88 114
70 87 112
72 89 115
74 91 117
71 89 116
75 93 120
72 89 114
71 89 115
67 84 109
69 87 113
72 91 119
67 84 108
68 85 110
69 86 111
73 90 116
74 91 118
72 88 114
67 83 106
71 89 116
72 89 113
72 88 112
67 84 108
73 91 118
68 85 110
72 89 115
72 89 114
70 87 112
69 85 109
69 85 109
70 86 111
74 90 115
64 79 103
71 87 112
66 82 105
66 83 107
69 86 110
68 83 106
64 80 103
71 88 114
68 83 107
68 84 108
63 77 99
67 82 105
71 87 111
68 84 108
67 83 106
72 90 115
63 78 100
71 88 114
67 82 104
61 77 99
61 75 95
66 81 104
64 79 102
62 76 98
69 84 106
66 82 104
64 78 99
62 77 98
67 82 105
66 81 104
61 75 96
68 83 105
62 75 96
62 77 98
63 77 98
70 86 111
63 77 98
62 76 97
59 72 91
63 78 100
60 74 95
60 73 92
64 78 99
61 74 94
61 75 95
58 71 89
64 78 100
62 75 94
61 75 97
57 70 89
56 69 88
59 72 92
61 74 93
58 71 90
56 68 87
59 71 90
61 74 92
55 66 83
63 75 94
60 72 91
58 71 91
56 67 85
55 67 84
60 73 93
53 65 83
51 62 78
56 67 84
51 62 79
57 69 86
52 64 81
56 68 86
54 65 81
59 71 90
54 65 82
52 63 79
50 60 75
53 64 81
47 56 69
50 61 77
55 66 83
48 57 72
50 60 75
48 57 71
53 64 80
53 64 79
47 57 72
54 66 82
50 60 75
52 62 77
55 65 81
51 61 76
52 62 78
45 54 67
48 57 72
46 55 70
50 61 76
48 57 71
48 57 72
50 59 74
48 58 72
54 64 80
50 60 74
47 56 71
50 61 77
54 65 82
50 60 75
52 63 79
57 69 86
50 60 75
48 58 73
54 66 83
48 58 73
50 61 77
52 63 80
52 64 81
52 64 80
47 57 71
47 56 71
52 62 78
54 66 83
52 62 78
53 65 82
53 65 82
53 63 79
51 62 79
53 64 81
53 64 81
58 70 88
53 64 81
59 71 89
58 70 89
56 68 86
62 75 96
59 71 90
61 74 93
62 75 95
59 71 89
62 75 96
57 69 86
61 74 93
60 73 93
61 74 93
58 71 90
62 75 95
54 67 85
61 74 93
64 77 98
66 81 105
64 78 99
62 75 94
58 70 89
60 74 96
68 83 106
61 74 95
61 76 97
63 77 99
62 76 96
62 76 98
66 80 102
63 78 100
71 86 110
67 83 107
63 77 100
65 79 101
71 86 110
66 82 105
66 81 103
67 82 105
65 80 102
69 84 107
65 80 102
66 81 103
63 77 99
66 82 105
66 82 106
64 80 103
65 80 103
66 82 105
64 79 102
67 82 106
67 83 108
69 85 109
67 82 106
66 83 107
70 86 110
73 91 117
72 88 111
69 86 111
68 85 110
67 84 109
67 83 106
71 87 112
70 87 112
71 87 112
66 82 106
70 88 114
67 83 106
66 83 109
72 89 115
70 86 110
72 89 115
70 87 112
67 84 108
67 83 108
70 88 114
73 91 117
69 86 111
72 90 117
70 88 115
68 85 110
71 89 115
76 93 118
73 90 116
71 88 113
74 91 118
68 86 112
67 83 108
73 90 117
74 91 118
71 88 114
72 90 116
71 88 114
73 90 116
70 88 113
77 94 121
73 90 116
74 93 120
76 93 119
72 89 116
75 93 120
72 89 114
72 90 116
74 93 122
73 90 116
69 86 112
76 93 120
75 93 121
74 92 119
76 94 120
76 95 123
71 88 113
75 93 119
68 85 110
74 92 119
73 91 118
72 90 117
77 95 122
76 93 120
71 89 117
74 91 118
72 89 115
77 95 123
76 94 121
78 96 124
70 88 113
74 91 117
75 95 123
76 95 124
75 92 118
75 93 120
74 91 117
76 95 124
75 92 119
71 89 117
76 95 122
72 89 116
77 95 123
76 95 123
75 94 122
75 94 122
75 92 118
75 93 120
73 91 119
75 94 123
78 96 124
77 95 122
74 92 119
74 92 118
74 92 119
76 93 120
77 94 121
75 94 122
77 95 122
77 95 122
76 94 121
78 96 123
75 94 122
77 95 121
75 94 123
75 93 120
79 97 124
77 95 123
76 94 121
76 94 122
77 95 123
77 95 123
76 94 121
76 95 124
76 94 121
76 93 120
75 93 121
75 93 122
76 94 121
73 93 122
73 90 117
78 96 123
73 92 121
77 95 121
74 92 120
77 96 125
72 90 117
74 93 120
75 93 120
77 95 124
76 95 122
75 94 121
73 92 120
79 98 126
75 94 122
76 95 123
73 89 115
75 94 122
75 93 120
71 88 114
76 95 123
72 90 117
76 95 123
74 92 120
73 91 117
79 98 126
72 90 115
75 94 122
75 93 121
78 96 124
76 93 119
76 95 123
75 93 119
75 94 122
76 93 120
76 93 120
73 90 116
77 95 122
69 86 110
72 90 116
70 87 114
74 91 118
72 90 116
75 93 121
69 87 113
70 89 118
77 94 120
76 94 122
75 93 120
71 89 116
72 89 115
74 91 118
74 91 117
75 93 121
74 91 118
76 94 119
74 92 119
74 92 118
75 94 122
73 91 117
71 88 114
73 90 116
73 91 117
75 93 120
78 96 123
72 90 117
73 91 118
71 89 115
71 88 113
70 87 113
74 91 117
73 91 119
71 88 114
71 87 113
74 92 119
74 91 117
71 88 113
73 90 116
70 87 113
71 88 114
71 87 112
71 87 112
73 90 116
67 83 108
71 89 116
75 92 117
71 88 114
66 81 105
72 89 115
70 87 113
67 83 106
68 83 107
72 89 115
65 81 105
68 84 107
68 84 108
68 83 107
68 84 108
69 86 111
69 86 112
70 86 110
72 89 113
70 86 111
68 83 107
69 85 109
68 84 108
64 79 101
67 83 106
67 84 109
66 82 105
66 83 108
69 85 110
67 82 105
68 83 107
66 81 103
67 83 108
75 91 116
68 84 107
64 80 103
66 81 104
71 87 111
66 82 106
61 75 95
68 83 106
66 82 106
61 75 95
65 80 101
68 82 104
65 79 100
61 75 95
66 82 105
62 76 97
62 77 98
63 76 97
57 70 89
56 69 88
58 71 91
53 64 81
62 76 97
58 72 92
61 74 95
57 70 89
60 73 93
57 69 87
56 68 85
60 74 95
60 73 91
60 73 92
63 77 97
56 69 88
54 66 83
62 76 95
61 73 91
62 75 95
56 68 86
51 62 79
52 64 81
54 65 82
65 79 100
56 68 85
56 68 85
49 60 76
54 66 84
54 65 82
53 64 81
53 64 81
53 65 83
51 62 78
58 69 86
55 66 82
50 60 75
56 67 83
55 67 84
51 62 79
51 61 76
57 69 86
53 64 81
57 68 84
53 64 80
52 62 77
52 63 78
45 54 67
51 61 75
47 57 71
53 63 79
49 59 73
52 62 77
49 59 73
42 51 63
51 62 77
57 68 85
53 64 81
51 61 76
48 57 72
52 62 76
49 59 75
54 65 82
54 64 79
47 57 71
54 65 82
59 70 87
53 63 79
55 65 81
51 61 76
50 60 75
55 67 85
50 60 75
53 63 78
47 57 72
49 59 75
61 73 92
55 67 85
47 56 71
49 59 75
51 62 79
57 69 87
53 64 81
55 66 83
55 67 85
56 68 86
53 64 80
60 73 92
57 69 88
58 71 90
66 79 100
53 64 81
52 64 81
56 68 87
60 73 93
56 69 88
60 72 92
54 66 84
57 71 90
57 69 88
56 69 88
53 65 82
56 67 85
61 75 95
57 69 87
58 71 89
54 65 82
59 71 91
62 75 96
65 79 100
61 74 94
60 73 93
58 71 91
56 69 88
67 81 103
64 78 100
62 76 96
62 76 97
62 77 99
63 77 98
63 77 98
65 79 101
67 81 103
63 77 99
62 76 98
63 79 102
64 79 102
65 79 101
63 78 100
69 85 109
64 80 103
62 76 98
66 81 103
63 77 99
61 75 95
68 84 108
66 82 105
69 85 108
67 83 107
62 76 97
67 82 105
66 82 105
69 85 108
66 83 107
64 79 100
63 79 102
65 81 104
71 87 110
70 86 110
65 81 105
69 85 109
68 84 107
72 89 114
72 89 115
65 82 106
65 81 104
69 85 110
69 86 111
67 85 111
69 84 108
71 87 112
70 87 113
66 82 107
71 87 111
71 87 111
69 85 109
72 90 116
73 90 116
64 80 104
67 85 111
70 87 114
73 89 114
68 86 112
74 91 117
75 93 121
67 83 107
74 92 118
72 90 115
69 85 110
71 90 117
70 88 116
70 87 112
76 94 121
70 88 114
70 88 114
74 92 118
72 88 113
71 88 115
74 92 120
70 86 111
70 87 113
70 87 112
75 94 122
75 93 121
75 94 123
74 91 117
73 91 118
71 90 117
76 93 119
74 92 118
74 91 117
74 92 118
74 92 119
73 92 119
76 94 122
73 91 119
75 94 121
73 92 120
75 94 121
73 91 120
74 93 120
71 89 116
75 92 118
75 93 120
77 95 122
70 87 113
74 92 118
76 95 123
74 92 118
76 94 121
74 92 120
75 93 120
74 92 118
78 96 124
75 92 117
74 92 120
73 91 118
76 94 121
76 94 121
74 92 118
75 93 121
74 91 118
74 92 119
75 92 119
76 95 124
78 97 125
75 94 121
76 95 124
74 93 120
75 93 120
74 93 121
77 95 123
75 92 119
75 95 124
73 91 119
76 94 121
77 95 123
76 95 123
75 94 123
73 91 119
76 95 122
76 95 123
75 94 122
77 96 123
76 95 123
77 95 123
75 94 122
76 94 122
75 94 123
77 96 124
76 95 123
75 93 121
76 95 122
72 91 119
74 91 118
75 93 119
74 93 120
73 92 119
76 94 123
77 94 121
77 96 124
75 94 123
76 94 122
78 96 124
77 96 124
72 90 118
77 95 122
76 94 121
76 94 120
71 88 114
74 92 120
72 89 116
77 95 123
75 93 121
77 96 123
74 92 118
76 94 119
77 95 123
74 92 118
74 92 119
76 94 122
76 95 123
75 93 120
75 93 120
75 93 121
75 93 121
77 95 123
74 93 120
74 92 119
72 89 116
75 94 122
73 91 119
72 90 118
76 95 123
72 90 118
74 93 121
73 90 116
73 91 117
76 95 123
73 91 118
72 90 117
75 92 118
76 94 122
77 96 123
73 92 119
76 94 121
71 88 114
72 89 114
72 90 117
73 91 119
74 93 120
74 91 117
76 93 119
74 92 120
71 89 116
73 90 115
74 92 118
74 91 117
71 88 114
73 91 118
73 90 116
72 90 116
75 93 119
71 89 116
73 90 116
72 90 117
72 89 114
73 91 117
75 91 116
71 89 115
73 91 119
74 91 117
73 91 118
70 86 109
70 87 113
72 88 113
73 90 117
72 88 113
72 88 113
72 88 113
72 89 115
70 85 109
72 89 115
72 89 116
75 93 119
75 91 117
68 84 109
71 88 113
72 89 115
69 86 110
71 88 113
71 87 112
69 85 109
74 90 114
69 86 111
66 81 104
67 84 109
69 85 108
67 83 106
67 83 107
72 89 115
66 81 104
68 85 109
69 85 109
69 85 108
69 85 110
67 83 107
65 80 103
59 73 94
68 84 108
64 79 102
65 81 104
66 82 105
67 83 106
68 84 107
63 77 98
63 78 101
63 78 99
66 82 105
64 78 100
63 77 98
56 69 89
67 82 105
61 75 95
66 80 102
62 76 97
65 80 101
67 82 105
63 77 99
58 71 89
60 74 93
66 81 102
64 79 100
58 71 90
65 80 101
65 78 99
59 71 90
61 74 94
63 77 99
58 71 90
60 74 95
56 69 88
58 71 91
60 73 93
60 72 92
60 73 91
61 73 93
56 68 87
55 68 87
56 68 86
62 75 95
60 73 93
54 66 85
49 60 77
59 72 90
53 65 83
53 64 81
55 67 84
54 65 82
60 72 91
54 65 82
53 64 80
57 70 89
52 64 81
52 64 81
52 63 79
53 64 80
51 61 76
54 65 82
49 60 75
52 63 78
49 58 73
47 56 70
46 56 71
59 70 88
49 60 75
47 56 69
47 57 71
59 71 90
47 56 70
52 63 78
52 62 78
49 59 74
48 58 72
54 65 81
51 62 77
55 67 85
55 66 82
51 61 77
48 59 74
48 58 73
46 56 71
54 65 82
48 58 73
58 69 87
57 68 85
54 65 82
54 66 82
65 79 99
51 62 79
55 66 82
56 67 84
53 65 81
53 64 79
49 60 75
49 60 76
54 66 82
54 66 83
54 65 81
56 68 86
51 62 78
52 63 79
55 67 84
54 65 82
55 66 84
53 65 83
58 70 87
52 63 79
49 60 76
61 73 92
59 72 92
57 70 90
57 69 88
62 76 96
60 73 92
57 69 87
55 67 86
62 75 95
61 75 95
58 71 92
58 71 91
58 71 90
59 72 91
59 73 94
57 70 89
60 74 94
65 80 101
58 70 88
63 77 97
66 80 102
64 77 96
61 75 95
62 76 96
63 76 97
64 78 98
65 79 100
66 81 105
66 80 101
68 84 107
63 76 97
68 83 105
67 82 104
64 79 102
62 76 97
63 78 100
63 76 96
64 79 101
64 79 102
63 77 98
64 78 100
69 85 109
66 82 105
67 82 104
66 82 105
65 80 103
68 84 108
69 85 110
70 86 109
67 83 107
68 84 109
70 86 110
64 78 100
63 78 101
71 87 112
64 80 103
64 81 105
67 82 104
64 79 102
66 81 104
70 87 114
73 90 116
71 88 113
68 84 109
65 80 104
72 89 113
68 83 106
68 83 107
65 81 104
74 91 117
69 87 112
69 85 111
71 88 113
68 84 108
71 88 113
70 87 114
71 88 113
73 91 117
68 84 108
70 87 112
70 87 113
72 90 117
67 84 109
73 91 118
71 87 113
70 87 112
74 93 120
72 90 116
71 89 115
72 89 115
74 92 118
74 92 117
72 89 115
70 88 114
76 94 121
71 88 114
75 93 120
72 89 115
72 90 116
73 90 115
71 89 116
68 85 111
74 92 119
73 90 115
74 92 118
73 90 117
70 86 110
73 90 116
72 91 118
71 89 116
77 94 121
73 91 118
73 91 118
74 92 118
71 89 115
76 94 120
74 92 119
74 92 119
75 92 119
73 92 120
75 93 119
73 90 117
75 93 119
74 92 120
73 91 118
74 93 121
75 94 121
72 90 117
74 92 120
73 91 118
72 90 117
73 91 118
76 94 121
72 90 118
73 91 118
74 92 120
72 91 118
77 95 123
71 89 116
76 94 121
74 91 117
75 93 120
74 93 121
73 89 114
78 96 124
76 94 122
75 92 118
73 91 119
79 98 126
77 95 124
73 92 120
77 96 125
75 94 122
75 93 120
77 95 122
74 92 119
75 94 122
76 94 121
75 93 121
74 92 120
77 95 122
77 95 122
76 95 124
77 97 126
76 95 124
77 97 126
75 95 124
74 91 118
75 93 121
75 93 120
76 95 124
75 92 118
76 94 121
77 96 124
74 92 120
74 92 120
77 95 122
75 93 120
73 92 120
74 93 122
73 92 119
75 93 121
75 94 123
76 94 122
78 96 124
76 95 123
76 94 121
75 93 120
76 94 122
76 94 122
75 92 118
74 92 120
73 91 118
77 95 121
74 91 118
74 92 120
75 93 120
74 92 119
79 97 123
74 93 121
76 94 120
75 92 119
72 89 115
76 95 124
73 91 117
73 90 117
74 92 119
74 93 121
74 92 120
76 95 122
72 89 116
74 92 120
69 86 112
76 94 121
71 88 114
74 93 122
74 92 119
75 93 121
73 90 116
75 93 120
72 89 115
72 90 116
70 89 117
76 93 120
74 93 120
75 93 118
73 90 116
73 91 119
70 88 114
73 92 119
71 89 116
74 92 119
71 89 115
73 91 117
70 88 115
70 87 112
72 90 116
76 95 123
71 89 116
71 88 113
72 89 115
71 88 113
68 86 112
72 89 115
72 90 116
70 87 114
71 88 113
74 92 119
71 88 114
73 90 117
73 90 115
72 89 115
74 91 118
67 84 110
72 89 115
69 86 111
72 89 115
72 89 113
70 88 115
68 85 110
69 86 111
71 87 111
73 89 114
72 90 116
69 86 113
65 81 106
70 87 113
70 87 111
70 86 111
72 89 114
72 89 113
70 86 109
69 85 111
70 88 113
69 85 110
67 84 108
70 86 111
70 87 111
70 87 113
69 84 108
73 89 114
69 85 110
68 84 108
67 82 106
70 86 110
69 85 109
65 81 104
69 84 106
65 80 103
63 78 101
70 87 111
65 80 102
62 77 100
65 81 105
67 83 107
65 81 104
63 77 98
65 80 103
67 83 106
68 83 106
65 80 102
65 80 102
66 81 104
64 79 101
65 80 103
62 75 95
68 83 105
64 79 102
62 76 97
69 84 106
67 82 105
59 71 90
65 79 101
63 76 96
58 70 88
63 76 96
57 70 89
61 74 95
62 76 95
64 78 98
57 69 88
59 72 92
61 75 95
62 75 95
65 79 100
57 69 88
57 69 86
60 73 93
55 66 84
62 75 94
60 73 93
56 68 86
60 73 93
55 67 86
56 68 86
56 69 87
57 69 88
56 68 87
54 66 83
60 73 93
59 71 89
54 66 84
53 64 80
55 66 84
53 64 80
48 58 73
54 65 82
53 65 82
56 67 85
51 62 78
52 63 79
58 70 88
54 64 81
61 73 92
58 69 87
57 69 87
51 61 78
48 58 74
50 60 76
55 66 82
52 63 80
59 71 88
57 69 86
53 64 81
53 64 80
51 62 77
49 59 74
48 58 74
51 61 76
56 68 86
47 57 71
50 60 75
51 62 77
50 61 77
49 59 75
52 62 78
52 62 79
52 63 79
53 64 80
54 66 83
48 58 73
50 60 75
50 61 77
55 67 84
58 70 88
52 63 79
57 68 85
59 71 89
54 66 83
51 63 81
53 64 80
54 65 82
55 67 85
58 70 88
52 63 80
54 66 83
60 72 91
57 69 87
54 66 85
60 73 94
57 69 87
62 75 96
52 64 81
55 67 86
62 75 95
63 76 97
56 68 86
55 67 86
63 77 98
61 74 94
61 74 93
56 69 87
53 66 85
58 71 90
64 77 97
61 74 95
57 69 88
61 75 96
60 74 95
66 80 102
58 71 91
63 77 98
61 75 96
63 76 97
60 74 95
65 79 101
62 76 98
62 76 97
60 72 91
64 79 102
62 77 98
66 81 103
60 74 95
66 81 104
68 83 107
66 81 103
61 75 96
63 78 100
66 81 104
69 84 106
60 74 94
71 87 111
65 80 103
61 75 98
70 87 112
70 85 107
67 83 107
66 81 103
69 85 109
67 83 107
68 83 107
68 84 108
69 86 112
68 85 109
71 87 112
71 88 113
69 86 111
71 88 113
69 85 111
74 91 117
69 84 108
74 90 114
73 88 112
65 80 103
71 88 112
70 87 113
73 90 115
67 83 107
66 82 107
68 85 109
66 82 106
71 87 112
69 85 109
68 84 107
68 85 111
75 93 119
71 88 113
69 85 109
70 86 112
75 92 118
73 90 116
71 89 116
73 91 117
70 87 113
73 91 117
69 85 110
73 91 118
71 88 114
71 88 114
75 93 120
69 85 111
69 86 111
71 89 116
75 92 119
75 93 122
74 92 119
75 92 118
72 89 114
72 90 116
72 90 118
72 90 116
75 92 119
70 86 111
71 88 114
69 86 113
73 92 119
72 90 116
74 92 120
74 91 118
74 92 119
76 94 121
74 91 118
71 90 117
74 92 120
73 91 119
76 94 120
72 89 115
73 91 118
72 90 117
74 93 121
74 92 119
72 90 116
75 94 122
72 89 115
76 95 122
71 88 113
77 95 122
75 94 121
71 89 116
71 89 116
74 92 118
70 88 114
76 94 121
78 97 126
73 91 119
74 92 120
74 92 119
72 91 118
75 94 121
76 93 120
75 93 119
75 94 122
74 91 117
76 94 121
72 90 117
74 92 119
75 92 119
75 93 121
74 93 121
75 93 120
75 94 123
77 94 121
75 93 121
78 97 125
76 94 121
76 95 123
75 93 121
74 92 120
71 90 118
76 94 120
75 93 119
78 96 124
73 91 119
76 95 123
77 96 125
77 94 120
77 95 123
76 94 121
79 98 126
73 90 115
76 95 122
76 93 120
77 95 123
76 95 124
75 94 122
76 94 122
75 93 119
74 93 121
75 93 121
75 93 120
76 94 122
74 91 117
74 92 119
75 93 121
75 92 118
74 92 119
76 95 123
77 95 121
76 94 121
74 92 119
76 94 121
73 90 116
74 92 120
76 94 122
74 93 120
77 95 122
75 94 123
75 93 121
74 91 118
76 95 123
73 92 120
76 93 120
73 92 119
76 93 119
74 92 120
76 95 123
74 93 120
74 93 121
73 90 117
73 91 118
75 93 121
70 88 114
72 91 119
71 89 115
76 95 122
72 90 117
72 90 117
74 92 119
75 92 119
72 90 116
76 94 120
74 92 119
72 90 115
72 90 116
72 91 119
71 88 115
73 91 117
75 92 118
67 83 107
72 90 116
76 94 120
73 91 117
74 91 117
70 87 112
73 90 116
72 89 115
75 94 122
74 91 116
73 90 115
70 87 113
74 92 119
69 86 110
71 88 115
73 91 117
75 93 119
67 84 108
67 83 108
70 88 115
68 85 111
70 87 114
69 86 110
70 88 114
68 86 112
68 84 109
72 90 116
73 91 116
70 86 111
70 87 113
69 86 111
68 84 107
72 89 114
70 88 115
72 89 115
72 88 113
73 90 116
70 87 113
66 82 105
64 79 102
72 89 115
64 79 103
67 83 107
69 85 110
66 82 106
70 86 111
70 87 112
64 78 98
71 87 111
71 88 113
64 79 102
73 90 116
72 90 116
68 85 110
69 84 106
66 82 106
66 82 105
68 83 107
67 83 106
70 86 109
69 85 108
71 87 111
64 79 100
66 81 103
63 78 101
67 83 107
69 84 107
67 83 106
68 83 106
63 78 100
67 83 107
67 82 105
64 79 103
58 71 91
66 81 103
63 78 100
61 76 97
62 76 98
61 75 95
64 78 100
64 79 100
63 78 101
63 78 100
62 76 95
60 73 93
62 76 97
65 79 101
61 75 97
63 77 99
59 72 93
66 81 104
58 71 90
65 80 102
60 74 94
61 75 95
63 77 98
57 70 88
58 71 90
55 67 85
57 70 89
58 71 91
58 71 89
56 68 86
60 73 92
56 68 86
63 76 96
61 75 96
58 70 89
57 69 87
60 73 93
54 66 84
59 71 90
53 64 81
60 73 92
61 74 93
53 64 81
55 66 83
58 70 88
53 64 82
57 69 87
54 66 83
55 68 86
52 63 79
53 64 81
56 67 84
51 62 77
54 65 82
52 62 78
57 69 86
53 63 80
45 56 71
58 70 89
58 70 89
55 67 85
48 58 72
52 63 81
52 62 78
54 65 82
52 62 78
50 61 77
54 64 80
48 58 72
52 63 81
57 68 85
49 60 75
54 65 81
52 62 78
56 67 83
55 65 82
50 60 75
53 65 82
53 63 80
48 58 73
57 68 85
53 66 84
52 64 81
58 70 88
52 63 79
51 62 78
53 65 82
55 66 83
56 68 87
55 66 83
60 72 90
52 63 80
53 64 81
54 65 82
54 65 83
55 66 84
52 62 78
56 68 86
56 68 86
59 73 93
51 62 78
56 69 88
56 69 87
55 67 84
63 77 97
57 70 89
60 73 93
55 67 85
59 72 91
58 71 90
55 68 87
62 75 94
57 69 88
62 75 94
60 74 95
57 71 90
61 74 93
58 71 92
60 74 95
64 78 99
61 76 97
61 74 94
58 71 90
65 80 103
62 76 97
63 77 98
59 73 94
67 81 103
66 81 104
62 76 97
63 77 98
63 78 101
63 78 100
64 78 100
66 81 102
64 79 102
62 76 99
66 80 102
66 81 105
68 84 107
63 79 101
63 78 100
66 83 108
65 80 103
72 87 110
67 82 106
68 84 110
69 84 106
68 84 107
65 80 103
67 82 105
68 84 108
70 86 111
70 87 114
70 87 111
70 87 111
69 85 109
68 83 107
67 83 107
68 84 110
65 81 105
69 85 109
67 83 107
67 83 107
67 82 105
71 88 113
62 78 102
67 83 106
74 92 119
71 88 113
71 88 112
66 82 105
69 87 113
70 86 110
75 93 121
73 89 114
66 82 105
73 90 116
76 93 119
67 84 108
68 86 112
72 90 116
71 88 115
72 91 119
73 89 114
69 87 112
73 90 115
68 86 112
70 87 113
71 89 115
72 88 113
74 92 119
69 86 112
75 94 123
75 92 118
67 83 108
70 88 115
72 90 117
74 92 118
71 88 114
73 91 119
74 91 116
72 90 116
74 92 121
75 92 117
74 93 120
72 89 116
75 93 120
74 92 119
74 92 119
72 90 116
75 93 120
75 93 120
73 90 117
73 90 117
73 90 115
74 91 118
72 89 116
76 95 122
76 94 122
72 91 119
76 95 124
75 92 117
71 89 115
71 89 115
74 93 120
74 92 118
76 94 122
70 88 114
72 90 118
75 92 118
73 91 119
73 91 117
75 93 119
76 95 123
73 91 120
74 92 118
73 91 118
73 92 119
73 92 120
76 94 121
74 92 120
77 96 124
76 93 120
78 95 122
74 92 120
76 94 122
74 92 119
75 93 119
76 95 124
75 93 120
74 91 118
76 95 124
75 94 123
74 91 116
74 92 119
75 94 123
74 93 122
77 96 126
75 93 120
75 93 121
77 97 126
76 93 120
75 94 121
73 92 119
73 91 118
76 95 123
72 90 116
75 94 122
74 93 121
75 94 122
75 94 121
75 93 120
74 91 117
76 95 124
72 90 116
74 92 119
73 92 119
75 93 120
76 95 122
76 94 121
75 93 119
77 94 121
75 93 120
75 93 119
75 93 120
77 94 120
75 93 120
73 90 117
73 92 120
72 91 120
75 94 122
72 90 117
76 95 123
73 91 119
75 93 121
75 93 119
73 91 118
76 94 120
73 92 120
77 94 120
72 90 117
76 94 121
75 92 119
74 93 120
76 94 122
77 95 122
73 92 120
72 90 117
75 94 123
75 93 120
70 88 115
77 94 119
73 91 118
72 90 117
72 90 117
73 91 118
75 93 120
76 95 124
72 89 114
68 85 109
73 91 119
74 92 118
77 95 123
76 94 121
74 93 122
74 91 116
72 90 117
73 90 116
73 90 116
74 92 118
71 89 116
74 92 120
73 90 117
72 90 117
72 90 117
72 89 115
76 95 123
68 85 109
75 93 120
74 91 117
73 90 115
73 91 118
74 91 116
72 89 115
73 90 116
72 89 113
72 90 117
71 87 113
70 87 112
68 85 110
69 87 115
74 92 119
72 89 115
70 86 110
70 87 112
69 85 110
67 84 109
67 83 108
70 87 114
68 83 107
75 91 117
71 88 114
73 90 115
71 88 113
73 91 117
74 91 117
74 91 116
69 86 112
68 84 107
67 84 108
68 85 110
72 88 113
67 82 105
65 81 104
70 85 109
68 83 106
67 83 107
65 80 102
70 87 112
68 85 111
68 84 109
67 83 107
67 82 105
67 84 109
67 82 106
61 77 100
67 83 107
68 85 110
65 80 102
71 86 109
64 79 101
64 78 98
67 83 106
65 79 100
65 80 103
63 77 99
67 82 104
67 83 107
64 78 101
69 84 107
64 78 100
67 83 106
58 71 90
66 80 103
59 73 93
67 82 104
69 83 105
60 74 95
58 70 88
62 76 96
64 78 99
63 77 99
61 74 94
66 81 103
60 73 91
65 79 101
63 77 97
60 74 94
64 79 101
63 77 97
58 70 89
60 73 93
58 71 90
58 70 88
61 75 95
64 77 98
58 71 90
63 76 95
62 76 96
53 65 82
60 73 93
61 75 95
61 74 94
56 69 88
59 71 91
58 70 89
58 70 89
59 72 92
55 68 87
61 74 93
54 65 83
54 66 84
56 67 85
58 72 91
53 64 81
59 71 90
57 69 87
54 65 82
59 72 92
65 79 100
56 67 84
50 60 75
59 71 89
56 67 85
55 67 85
56 67 83
49 59 74
55 66 83
57 70 88
48 58 72
54 66 83
59 71 88
54 64 80
60 73 93
49 59 75
50 61 76
53 64 80
50 60 76
53 65 82
51 62 78
60 72 92
56 67 83
54 66 82
55 66 82
50 60 75
50 60 75
56 68 86
58 70 88
52 64 80
50 60 75
52 63 80
55 66 84
61 74 92
51 62 79
57 69 87
49 59 75
59 72 90
52 63 81
55 67 85
63 76 96
58 70 88
64 78 97
56 68 87
58 70 89
56 67 85
61 73 93
53 65 83
52 63 80
56 68 86
58 71 90
61 74 93
61 74 94
54 66 83
58 71 91
60 72 91
62 76 97
53 65 82
63 76 97
58 71 91
62 76 96
60 74 94
61 75 96
60 73 92
58 72 92
58 71 90
60 73 92
61 74 94
62 76 96
56 69 89
61 75 97
63 76 96
61 75 97
65 80 103
67 82 104
67 82 104
64 78 100
62 75 96
63 76 97
62 77 99
62 76 98
65 80 103
60 75 96
66 82 105
67 83 106
68 84 107
65 79 101
65 80 102
68 83 107
70 85 109
68 83 106
67 84 108
66 81 103
68 84 107
62 77 99
66 82 105
65 80 103
70 87 112
66 81 103
68 85 110
63 78 100
66 83 107
72 88 112
62 78 101
69 85 109
65 82 106
72 89 115
65 81 105
65 81 104
69 85 110
72 89 113
72 90 116
69 85 110
68 84 107
66 83 107
69 86 111
70 86 111
67 83 107
69 86 111
71 88 113
69 86 110
70 87 112
69 86 111
72 88 112
73 89 113
71 88 113
69 85 109
71 88 114
69 85 109
67 84 110
69 86 111
70 86 111
68 83 106
70 86 111
71 88 114
72 89 114
71 88 115
70 86 110
72 88 113
71 88 114
72 89 114
75 93 119
71 87 112
72 89 115
71 89 115
71 90 117
72 89 115
73 90 116
69 85 110
75 92 118
75 94 122
71 88 115
72 90 116
73 90 117
73 90 117
73 90 116
70 87 112
76 94 121
75 93 121
70 87 113
74 93 121
72 90 116
68 84 109
72 90 117
77 94 121
77 95 122
75 92 119
74 92 120
72 89 116
73 92 120
75 93 121
71 88 114
75 94 122
74 91 117
79 96 122
75 93 119
74 92 120
74 92 119
73 90 115
71 89 116
74 91 117
74 92 120
77 95 122
78 96 124
75 93 121
71 90 118
75 92 119
75 93 120
73 90 117
74 92 119
76 94 121
70 88 115
76 94 121
74 93 121
75 93 121
73 91 118
70 87 113
76 94 122
74 93 120
70 86 110
74 92 118
76 94 121
75 93 120
75 93 119
76 94 121
74 93 120
76 95 123
74 93 120
77 96 124
75 94 122
75 94 121
76 94 121
74 92 119
78 97 125
79 97 125
77 95 122
74 93 120
75 94 122
76 95 123
74 93 121
76 95 123
78 96 123
74 93 121
77 95 122
74 93 122
73 92 119
75 94 122
76 94 122
73 91 118
78 96 123
75 93 121
76 94 121
77 95 122
74 92 119
75 93 121
76 94 122
75 93 121
75 94 121
75 94 122
73 91 119
73 91 119
73 90 117
73 91 118
73 92 119
75 93 120
76 94 122
76 95 122
72 90 117
73 90 117
76 94 122
75 94 121
71 89 116
73 92 120
75 93 119
76 94 122
74 92 119
70 87 114
73 91 119
76 93 120
73 91 118
76 94 120
72 90 117
75 93 119
71 88 115
73 90 117
74 92 118
74 92 119
71 88 114
75 93 119
71 88 113
74 91 117
73 90 116
74 92 119
73 91 117
74 91 117
70 87 114
74 92 118
75 93 119
72 90 117
74 92 119
70 88 114
73 90 115
72 90 116
71 89 116
73 91 118
69 86 111
67 85 110
67 84 109
73 90 115
72 89 114
73 90 116
72 90 116
70 87 113
73 89 115
72 89 114
69 86 111
72 90 115
71 89 115
68 86 111
71 88 112
69 86 112
70 87 113
70 87 112
71 88 112
72 90 116
68 84 108
66 83 107
70 86 111
71 89 115
67 84 108
67 84 109
70 87 112
65 82 107
68 84 109
69 85 109
67 83 106
73 91 118
67 83 108
70 87 113
69 85 108
70 87 112
67 84 108
67 83 108
67 82 104
69 86 111
67 84 110
71 88 113
66 81 102
69 86 110
68 84 107
70 86 110
68 83 106
69 84 108
67 83 106
70 86 111
66 82 106
71 87 111
65 80 103
67 82 104
67 83 106
71 88 112
65 80 103
67 82 104
68 85 109
70 86 110
60 75 96
66 82 106
66 81 103
64 78 100
63 78 100
66 81 104
61 75 95
65 80 103
63 77 99
60 75 96
57 71 93
62 77 99
67 82 106
56 70 90
66 81 103
59 72 91
57 70 89
54 66 84
68 83 105
58 71 90
61 75 95
61 74 95
62 76 97
56 69 88
56 68 86
57 70 88
60 73 93
62 77 99
59 71 90
61 74 94
56 68 86
66 80 101
55 67 86
56 68 87
53 65 83
56 69 87
62 76 98
60 73 92
59 71 90
58 72 92
55 68 88
60 73 91
56 68 86
58 71 91
60 73 92
54 66 83
53 66 84
56 67 85
48 59 74
55 68 86
57 70 88
56 69 88
53 64 82
56 68 87
58 70 88
58 70 89
54 65 80
59 70 88
55 66 84
58 71 89
58 70 88
52 63 79
57 69 86
59 71 88
53 65 83
52 62 78
55 67 84
57 68 85
53 64 80
58 70 89
55 67 85
55 67 84
60 73 92
56 68 85
48 58 73
54 65 81
52 62 78
49 60 75
55 67 84
60 72 91
58 70 88
45 55 70
53 64 81
62 75 96
57 68 85
54 65 82
56 68 86
60 72 90
58 69 87
52 63 79
57 69 88
51 61 77
56 68 87
53 65 81
58 69 86
60 72 91
55 66 83
52 63 80
57 70 89
54 66 84
62 75 95
56 68 86
51 63 80
59 72 91
59 71 89
66 79 100
60 73 92
59 72 91
57 69 88
57 69 89
57 69 87
53 65 83
60 74 95
57 70 90
61 75 95
58 71 91
59 72 91
56 69 88
62 75 96
65 78 98
56 68 87
59 72 92
60 73 93
66 81 103
61 74 93
61 74 94
65 81 104
66 81 102
60 74 95
60 74 96
62 77 98
61 74 95
59 73 93
57 71 92
62 77 99
58 72 92
64 78 99
65 81 104
60 74 94
65 80 103
66 80 101
57 70 90
66 82 106
68 83 106
68 83 105
62 75 96
60 74 96
69 86 110
65 80 102
67 82 105
65 80 103
71 88 113
65 81 104
71 88 113
74 91 117
69 83 106
68 84 107
69 85 108
71 87 112
68 84 108
70 87 112
69 87 114
71 86 110
62 77 99
72 88 112
68 84 108
69 85 110
74 91 116
71 88 113
65 81 104
72 90 116
72 88 112
69 85 110
71 88 112
71 88 112
71 88 113
70 86 111
69 85 110
69 85 110
69 84 108
69 85 110
70 87 113
72 89 115
67 84 110
69 84 108
70 87 112
73 90 116
70 87 113
67 84 109
67 83 107
69 85 110
71 88 114
72 89 115
73 91 118
75 94 122
70 87 112
73 90 116
70 87 113
71 88 113
72 89 115
69 86 113
72 89 114
70 88 114
73 91 117
72 89 116
72 90 116
74 92 119
71 87 112
71 89 115
72 89 115
76 93 119
72 89 116
72 89 114
73 91 118
73 91 117
74 91 116
73 90 116
76 94 122
70 87 113
71 88 113
74 92 119
71 89 117
74 91 116
75 92 119
74 91 116
72 90 117
71 88 114
73 91 118
72 90 118
75 93 121
76 93 119
76 95 123
74 93 120
74 93 122
71 90 117
75 93 121
72 90 117
78 97 124
73 91 117
75 92 119
75 93 120
75 94 121
77 95 122
73 91 118
77 95 122
73 90 117
74 92 119
74 92 120
73 91 119
77 95 123
76 93 120
75 92 119
74 93 123
74 93 120
74 92 119
78 95 122
75 93 120
72 91 119
72 91 119
75 93 120
77 96 125
74 92 120
76 93 120
75 94 121
78 96 124
77 95 122
76 95 124
74 92 119
76 94 122
76 95 124
73 91 117
76 95 123
75 94 121
76 94 122
76 94 122
77 95 121
76 96 125
77 95 124
76 94 122
74 93 121
73 91 118
75 94 121
74 92 120
77 96 124
75 93 119
79 96 123
74 92 119
75 93 121
76 94 121
76 94 122
76 95 123
75 93 120
74 92 118
71 89 115
75 93 120
75 94 123
74 92 118
76 94 122
77 95 122
74 91 117
78 96 124
74 92 120
77 95 123
76 95 122
75 93 120
76 95 123
75 94 122
75 93 121
75 92 118
75 94 121
76 93 119
75 94 122
72 90 116
74 93 121
74 92 119
75 93 119
74 92 118
71 89 115
72 90 116
76 94 120
72 89 116
72 90 116
72 89 115
76 93 120
72 90 117
74 92 119
70 87 112
74 92 119
75 93 120
75 94 122
73 92 119
75 92 118
73 90 116
71 88 115
76 94 120
71 89 116
76 93 120
74 92 119
72 89 115
74 91 118
72 89 115
75 93 119
73 90 116
72 91 119
73 90 117
73 91 118
71 88 113
71 88 113
70 86 110
72 90 116
71 89 115
71 89 115
68 85 110
69 85 109
69 86 110
70 86 111
69 86 113
73 90 117
72 89 115
68 84 108
70 87 112
67 83 108
67 83 108
66 82 106
70 87 112
73 90 114
70 85 109
68 85 109
70 87 111
68 84 109
69 85 110
70 87 113
68 84 108
68 84 108
65 81 105
66 81 103
66 82 106
67 83 107
72 89 115
68 84 109
71 87 112
66 82 105
68 84 107
69 86 111
63 79 102
67 82 105
69 85 108
70 87 112
69 85 108
63 77 98
67 84 109
68 84 108
74 90 115
67 82 105
61 77 100
64 80 103
62 77 100
65 80 102
66 80 102
68 84 107
69 84 108
63 77 99
62 75 94
70 86 110
70 87 111
63 77 98
66 81 103
67 81 103
65 79 101
67 83 106
62 76 96
61 74 94
61 74 94
67 81 103
62 76 97
63 77 99
64 78 100
65 79 101
59 73 94
64 77 98
63 78 99
62 75 94
59 72 91
59 71 90
59 74 95
63 77 97
63 77 98
60 73 92
63 77 98
60 73 93
56 68 85
60 74 94
59 72 91
55 67 85
60 74 93
59 72 91
52 63 79
63 76 96
53 65 82
63 76 96
61 75 95
56 69 87
59 71 90
59 72 91
61 73 92
51 62 79
57 69 89
57 69 87
58 70 88
53 65 83
59 72 91
56 68 87
48 59 75
59 71 89
58 71 89
59 72 91
57 69 87
61 73 92
56 67 85
59 71 90
53 64 81
56 68 87
53 64 80
59 71 88
50 62 79
57 68 85
48 58 73
49 60 76
51 62 79
57 69 88
56 67 83
59 72 91
58 70 88
55 66 84
51 62 78
57 69 87
57 68 85
56 68 85
58 71 91
59 70 88
57 69 87
54 65 82
56 68 86
57 68 86
55 66 84
61 73 91
55 67 85
61 74 94
55 67 84
55 66 84
62 74 93
64 77 98
55 67 85
49 60 76
57 70 88
62 76 96
55 68 87
60 73 92
62 75 96
55 67 84
60 72 91
57 70 89
59 72 90
55 67 84
55 67 85
64 77 96
58 70 88
61 74 94
57 69 87
61 74 93
52 64 81
56 69 87
58 71 91
61 74 94
60 73 93
66 80 100
61 75 96
61 75 95
59 72 92
69 84 106
61 75 96
57 71 90
58 71 90
65 79 99
63 77 99
59 72 91
56 69 89
63 76 97
65 79 100
62 76 98
63 77 98
67 82 105
70 85 107
64 78 100
65 79 100
63 77 98
65 79 101
68 83 106
62 77 101
64 80 103
62 76 97
67 83 107
70 87 112
70 87 113
74 90 114
66 82 105
70 86 111
68 83 105
66 81 104
70 87 111
64 80 104
70 86 110
63 79 102
69 84 107
62 77 99
65 81 105
67 83 107
66 81 104
65 81 105
67 83 106
69 85 109
69 86 110
68 84 108
68 84 108
62 77 99
67 83 107
66 82 106
72 89 115
69 86 110
69 86 110
72 89 115
68 84 108
68 84 107
67 83 108
73 90 117
70 86 111
68 85 111
69 85 110
71 88 114
72 88 112
74 90 115
71 89 115
69 86 111
69 86 110
69 86 111
68 84 108
69 86 112
71 88 114
70 87 112
72 89 114
68 85 111
74 92 118
72 90 118
72 89 113
73 91 117
67 83 108
72 89 115
72 90 116
73 90 116
75 93 120
72 90 118
72 90 116
69 86 110
76 94 120
76 94 121
72 89 114
72 90 117
73 90 116
71 89 114
71 89 116
74 92 119
77 95 121
70 87 114
70 88 114
74 93 120
73 91 118
73 92 120
69 86 112
72 90 117
72 90 116
72 90 116
73 91 117
74 92 118
75 92 117
76 95 122
75 92 119
73 91 119
76 93 119
74 92 119
74 92 119
76 94 121
76 93 120
75 95 124
76 94 121
73 92 120
73 90 117
71 89 115
73 91 119
78 96 123
74 93 120
72 90 117
74 92 120
75 93 120
76 94 121
74 93 120
70 86 111
71 89 115
79 98 126
74 92 120
74 92 119
73 92 119
77 96 125
73 92 120
76 94 122
75 93 120
77 96 125
75 94 122
75 93 120
73 91 118
75 94 123
75 94 122
76 95 123
77 97 126
75 94 122
75 94 121
74 92 119
76 93 120
77 95 122
76 95 124
74 92 119
76 94 121
73 91 118
73 91 118
75 93 120
78 96 124
75 93 120
74 92 120
74 92 118
76 94 121
76 94 122
73 92 119
77 96 124
74 93 120
73 91 117
72 90 116
74 92 118
75 94 122
75 92 119
76 94 122
77 96 124
70 88 115
76 93 119
78 95 121
78 96 123
74 92 120
75 94 122
74 92 119
77 96 123
76 95 124
74 91 118
75 93 121
76 94 122
73 92 119
69 86 113
78 96 124
72 90 116
77 95 123
70 88 114
74 93 121
72 90 117
72 89 116
71 89 115
73 91 119
72 90 116
75 93 120
74 92 118
74 92 120
74 92 118
74 93 121
73 89 114
72 90 117
74 92 119
72 89 115
72 90 115
73 91 118
70 88 114
69 87 114
73 91 117
73 90 116
77 95 123
72 88 113
73 91 118
70 87 113
70 88 114
71 88 114
75 93 120
74 92 119
69 86 111
77 95 122
74 92 118
74 92 118
77 96 123
75 92 118
73 90 115
78 96 123
73 91 118
75 92 118
72 89 114
74 92 119
69 84 107
74 90 115
68 85 109
71 89 115
74 91 117
65 81 107
71 89 115
70 88 115
70 88 114
68 84 108
70 87 113
68 84 108
69 86 111
72 89 114
75 93 120
70 85 109
74 91 118
68 84 108
70 86 111
67 84 108
66 83 108
72 88 113
71 88 113
73 91 117
68 85 110
69 86 112
68 85 109
65 81 104
67 83 106
66 82 106
75 92 117
65 81 105
66 82 105
68 86 111
67 82 105
67 83 107
68 84 107
68 84 108
69 86 110
67 81 104
72 88 113
69 85 109
68 84 108
66 81 104
69 85 109
61 76 98
67 84 108
64 79 102
64 79 102
69 85 110
64 79 100
63 78 100
64 78 99
67 82 106
65 81 105
61 75 95
70 85 108
62 76 97
62 76 98
63 78 100
66 81 103
60 73 94
71 87 110
61 74 94
63 77 98
62 77 99
62 76 97
62 77 99
58 72 93
59 73 93
64 78 100
68 83 105
60 75 96
59 72 92
62 76 97
60 74 94
62 76 97
60 74 95
63 77 97
66 80 101
57 70 89
65 78 98
57 70 90
55 67 86
55 66 84
56 69 89
64 78 99
64 78 99
58 72 91
59 72 91
60 72 91
57 69 88
61 75 95
56 68 85
60 73 92
60 73 92
61 75 95
53 65 82
63 76 95
57 70 89
54 65 82
58 71 90
54 65 83
50 61 78
59 72 92
60 72 91
55 68 87
55 68 86
52 63 79
55 67 85
55 66 82
52 62 78
51 61 77
56 68 86
55 67 85
54 65 81
55 67 84
54 65 82
57 68 85
60 72 92
54 66 82
53 65 83
56 67 85
54 66 82
51 62 77
61 74 94
57 68 86
54 65 81
59 72 90
59 70 88
55 67 84
51 61 77
47 56 71
52 64 82
58 71 89
52 63 80
55 67 85
61 74 93
55 67 85
54 66 84
54 65 81
61 73 92
57 68 85
48 58 74
62 75 94
54 67 86
50 60 76
54 66 84
56 68 86
62 75 94
61 73 92
61 74 94
60 72 92
55 67 86
55 67 86
60 74 95
58 71 90
58 71 91
62 76 96
64 78 99
54 67 86
58 71 91
56 68 86
58 70 89
58 72 93
61 75 95
62 75 95
64 79 101
63 76 97
60 73 93
60 73 93
65 80 102
61 74 94
64 77 97
61 75 96
62 76 98
68 83 105
56 69 88
62 77 98
65 78 98
61 75 96
59 73 94
65 80 102
65 79 101
62 75 95
73 89 113
67 83 106
62 77 99
68 84 108
64 79 101
68 83 105
62 77 98
65 79 101
64 79 101
63 78 100
65 80 102
67 82 104
68 82 105
62 77 100
65 80 103
65 81 104
65 81 104
70 85 107
66 81 104
68 84 108
65 81 106
67 83 107
67 83 107
69 85 109
68 85 110
72 89 114
68 83 105
72 88 114
68 84 110
68 85 110
68 84 108
70 85 109
69 84 108
74 90 115
65 80 104
66 82 105
68 83 107
70 87 112
68 83 106
71 88 113
70 86 110
69 84 108
67 83 107
67 83 107
70 87 111
68 84 109
67 83 108
75 93 119
67 82 106
69 85 109
72 89 116
69 87 114
72 90 118
72 88 113
72 88 114
67 84 109
70 87 112
70 88 114
74 91 117
70 87 113
70 86 111
71 88 114
71 88 114
71 87 112
69 85 110
73 91 118
71 88 114
72 90 116
73 90 116
74 91 118
74 92 118
74 92 119
72 89 115
68 85 110
78 95 122
73 91 118
72 91 118
71 89 115
71 88 114
70 87 112
74 93 120
75 94 121
73 90 116
74 91 117
76 94 121
69 88 115
73 91 117
74 91 118
74 91 117
76 94 121
72 90 117
72 90 117
71 89 116
75 93 120
71 89 116
73 90 116
73 90 115
73 91 118
73 91 118
73 91 118
76 94 120
74 92 119
72 90 117
70 88 114
74 93 121
74 92 120
75 93 120
71 88 113
73 91 118
73 90 116
74 92 119
75 92 118
75 93 120
75 93 121
73 91 118
75 94 122
76 95 124
75 94 122
74 93 121
73 91 119
76 94 122
75 94 122
78 97 124
77 96 123
76 92 117
76 95 123
74 93 120
73 91 118
74 93 121
78 96 124
75 95 124
76 94 122
76 93 120
77 95 124
75 93 120
76 95 122
73 91 118
75 93 121
77 96 124
76 94 122
75 93 120
73 92 120
76 94 120
75 93 119
72 91 119
74 92 119
77 95 122
74 93 120
76 95 124
75 93 121
75 93 120
74 92 118
74 92 120
75 92 118
77 95 123
75 92 119
74 92 118
76 94 122
76 94 121
75 93 119
75 92 119
78 96 123
72 90 118
77 95 123
76 94 121
74 92 120
74 93 122
75 93 120
75 93 120
75 93 121
76 95 123
72 90 117
72 89 116
73 91 118
73 90 117
74 92 120
76 93 119
73 91 118
73 91 118
72 90 116
72 91 118
75 94 123
72 90 116
77 95 123
72 90 117
77 93 119
73 91 117
69 86 111
72 90 117
75 92 119
72 89 114
70 88 114
71 90 117
74 92 119
75 93 120
72 89 114
71 88 114
74 92 119
72 90 116
73 90 115
74 91 117
71 88 114
75 93 121
70 87 112
75 92 119
74 91 116
73 91 118
72 89 115
74 92 119
73 91 117
74 92 119
69 87 113
71 88 114
71 88 114
70 87 113
70 87 114
76 93 120
71 88 114
72 89 114
71 89 115
71 88 114
67 82 104
68 84 108
72 90 116
70 87 113
70 87 112
67 84 110
72 89 114
69 87 113
66 83 107
69 86 112
69 86 113
70 87 113
72 90 115
70 88 115
70 87 112
72 89 114
67 82 105
70 87 113
68 84 109
68 84 109
69 85 109
67 83 107
68 85 110
70 87 112
71 88 114
64 78 100
69 86 111
66 82 105
70 87 112
69 85 111
68 84 107
68 84 109
74 92 117
67 82 105
70 86 111
66 81 104
66 82 105
67 83 106
64 79 100
70 86 111
69 86 110
71 87 110
67 83 108
64 78 99
66 81 105
68 83 105
66 81 104
68 84 107
64 79 101
68 83 106
65 79 101
59 72 93
66 81 103
64 79 102
65 80 102
61 74 94
66 81 102
63 78 100
66 81 102
60 74 96
65 79 101
62 76 96
63 78 99
64 78 99
63 78 100
64 78 99
61 75 95
63 78 100
58 71 90
61 76 97
67 82 104
60 73 94
65 79 101
63 77 99
60 74 94
56 69 88
57 71 91
57 70 89
61 74 94
60 74 95
57 70 88
59 72 93
57 69 87
59 72 92
59 72 91
59 71 90
63 77 97
59 72 91
59 72 90
59 72 92
61 73 93
60 73 92
55 68 86
61 74 92
58 70 88
60 73 92
56 68 85
55 68 87
56 68 87
61 74 93
55 67 85
56 68 87
53 65 83
62 76 96
55 67 84
56 69 87
58 71 90
57 68 85
51 62 79
61 73 93
54 65 82
63 77 97
54 66 82
60 73 91
58 71 90
51 62 78
52 63 79
59 71 90
56 68 85
59 72 92
58 70 89
59 72 92
58 70 87
57 69 89
58 72 92
56 67 85
56 69 89
55 66 83
58 70 89
61 74 94
60 73 92
55 67 84
59 71 90
62 75 95
56 68 86
60 73 93
61 73 91
55 67 84
56 68 86
53 65 82
57 70 88
62 75 94
59 71 89
61 73 92
56 69 88
59 72 91
62 75 95
60 74 95
62 75 95
59 72 91
58 71 90
57 69 87
62 76 96
61 75 95
60 73 94
60 73 93
60 73 92
61 75 95
67 82 105
67 81 103
58 71 91
60 74 95
57 69 88
61 75 96
64 78 100
62 77 99
62 76 97
63 77 97
63 77 97
66 81 103
63 76 96
62 76 96
64 78 100
60 73 93
64 79 101
62 76 97
64 79 101
61 76 97
64 78 99
62 76 97
66 80 101
64 79 102
66 82 106
66 82 105
64 78 99
66 81 103
66 81 105
62 77 100
64 78 100
69 85 109
69 84 107
62 75 96
69 86 111
65 80 103
65 81 105
66 83 107
65 80 101
69 85 109
66 82 106
67 84 109
65 81 105
67 82 105
67 84 109
69 85 110
63 79 103
65 81 104
64 81 106
69 86 111
63 78 101
71 87 112
69 85 109
70 87 112
68 85 110
68 85 111
70 86 110
70 87 112
70 87 111
69 86 112
69 85 109
71 88 113
74 91 116
67 84 109
69 86 111
70 86 111
73 90 115
70 86 112
68 85 110
75 93 119
71 87 111
65 80 102
71 88 113
69 86 111
72 89 115
68 85 111
69 86 111
70 87 113
67 83 109
74 91 116
71 89 116
72 90 117
71 88 115
65 81 105
72 89 115
73 91 117
69 86 113
71 88 113
72 90 117
74 92 119
70 88 113
73 91 117
71 88 112
76 94 121
73 90 115
72 89 115
73 92 120
71 88 115
74 92 118
69 86 111
74 92 119
74 91 117
71 88 113
73 91 117
71 89 115
74 91 116
72 91 119
71 88 115
77 94 120
73 91 117
74 92 118
70 87 113
74 93 120
72 89 115
72 90 116
70 87 113
73 91 118
72 90 117
71 88 115
77 94 121
76 93 120
73 91 117
71 89 115
76 95 123
74 91 116
75 93 121
76 95 124
75 94 121
77 96 124
74 92 119
71 89 115
73 91 118
75 93 120
74 91 117
73 91 119
76 95 124
75 94 122
71 89 116
72 90 117
78 96 124
76 94 122
75 93 119
73 91 119
77 95 123
77 95 122
74 92 120
76 95 124
74 92 121
76 94 122
76 94 122
77 96 124
75 93 121
76 94 121
73 91 119
76 95 124
76 93 120
73 91 119
77 96 124
75 94 123
77 96 125
73 91 117
75 93 120
76 95 122
76 94 121
76 95 123
74 92 118
74 93 121
73 91 118
74 91 117
73 91 119
76 95 123
75 92 118
74 91 117
73 92 119
74 94 124
75 93 120
74 93 121
73 91 119
73 91 119
76 94 122
74 92 119
75 92 119
74 93 122
77 96 123
73 92 119
73 91 118
72 89 114
76 94 121
75 94 122
76 94 121
73 92 120
74 92 118
72 91 119
72 90 117
80 98 125
75 93 121
69 87 115
75 92 119
72 90 117
74 92 119
75 92 119
72 90 117
71 89 115
73 91 117
72 90 117
75 94 121
72 89 116
74 92 118
74 91 118
73 91 117
75 92 119
75 93 120
73 90 116
76 94 122
73 90 116
70 88 114
73 91 118
74 91 116
76 94 121
70 88 114
74 93 120
72 90 117
75 94 122
72 89 114
71 88 114
75 93 121
74 91 117
74 91 118
70 87 113
72 89 114
74 91 117
75 93 120
69 86 111
71 87 112
69 85 110
71 88 113
70 87 113
71 87 112
73 91 118
72 89 114
73 89 114
75 93 119
72 90 117
69 85 111
71 88 114
69 86 110
69 86 111
71 88 113
74 91 118
67 84 108
70 87 112
68 83 107
73 90 117
72 89 115
73 89 115
68 85 110
71 89 115
69 85 109
72 88 113
68 84 108
68 84 109
69 86 111
70 87 112
72 89 114
68 84 110
72 89 115
67 82 106
65 80 102
68 85 109
68 84 109
70 87 112
69 86 110
71 89 115
66 82 105
67 83 106
67 83 107
67 83 108
62 77 98
66 82 105
69 86 110
72 88 111
65 80 103
64 80 102
65 81 103
68 84 108
65 80 101
70 85 109
66 81 104
63 77 99
62 77 100
61 75 97
60 73 94
68 84 108
69 84 107
63 77 99
62 76 98
63 77 99
65 79 100
62 77 98
67 82 106
60 74 95
58 72 92
64 79 100
58 70 89
64 79 101
58 71 92
60 74 95
62 75 95
60 73 92
63 77 97
62 77 100
63 76 97
57 70 90
61 74 93
60 73 92
65 79 100
59 72 91
60 72 92
60 72 91
60 73 93
58 71 91
62 75 95
56 69 89
59 72 92
63 76 96
59 72 93
60 73 92
63 76 96
60 73 91
62 75 95
56 68 87
61 74 94
57 70 90
62 76 96
63 78 99
59 71 90
57 70 89
55 67 85
60 73 93
61 74 94
58 72 91
58 70 88
54 65 83
56 68 86
56 68 86
58 70 88
58 70 88
53 64 81
58 71 89
60 73 93
56 68 86
55 67 84
56 68 85
58 69 87
56 68 86
56 68 87
57 69 87
55 67 86
54 66 83
56 68 86
52 63 79
55 67 85
61 74 94
59 73 93
56 67 84
60 73 93
57 70 89
56 68 86
62 75 94
58 70 89
62 75 94
57 70 89
51 63 80
59 72 90
50 60 76
54 65 82
55 67 85
61 74 95
56 68 86
62 76 96
59 72 92
58 71 91
56 68 85
63 76 96
53 65 81
59 72 91
54 65 83
60 73 93
58 70 89
55 68 86
58 71 90
60 73 93
57 70 89
56 68 86
52 64 81
62 75 94
58 71 91
58 71 90
63 77 98
66 80 101
61 75 95
64 77 98
58 70 88
64 78 100
61 75 96
66 81 102
62 75 95
62 76 96
61 76 97
60 73 94
66 80 102
60 74 95
67 82 105
64 79 101
65 78 98
66 81 103
63 77 98
69 85 107
62 77 99
66 81 102
64 79 103
62 76 98
71 86 110
66 80 102
61 75 96
64 79 102
64 79 101
70 85 109
69 84 107
63 77 99
65 80 102
65 80 103
65 80 104
68 84 109
63 78 101
67 83 105
66 81 102
65 80 102
65 81 105
66 83 108
69 85 110
66 81 104
69 85 109
65 80 103
69 86 110
65 82 106
64 81 106
65 82 107
69 84 108
67 83 106
69 87 112
66 83 107
68 84 108
70 86 111
71 88 113
69 86 112
68 85 109
67 83 108
69 86 110
76 94 120
67 83 108
66 81 104
73 90 115
71 89 115
68 85 111
70 85 109
69 85 110
68 84 107
67 84 108
69 86 111
71 89 115
71 88 113
74 91 116
73 90 115
72 89 114
73 90 115
67 83 108
73 90 116
72 89 114
72 89 115
70 87 112
70 87 112
71 88 114
71 88 113
74 91 117
67 83 107
70 87 112
71 90 118
70 88 114
69 84 108
74 91 118
76 94 121
72 89 115
73 89 114
72 89 115
68 85 110
72 89 116
73 90 116
76 96 125
69 87 113
69 85 110
75 92 118
72 90 116
70 87 113
75 93 119
71 89 116
67 83 108
74 91 118
70 87 113
72 89 116
74 91 117
72 90 116
71 88 114
78 95 120
73 91 117
72 90 118
76 94 121
73 91 118
72 89 115
72 90 116
74 92 120
72 90 116
74 92 119
74 92 118
74 91 117
76 94 122
74 93 122
74 93 120
75 94 121
75 93 119
74 92 119
78 96 123
77 95 122
74 92 119
73 90 117
74 92 119
71 89 116
75 94 122
76 95 123
77 96 124
76 94 122
74 92 120
74 92 119
71 89 116
76 94 120
75 93 121
75 93 121
73 91 118
71 88 114
75 92 119
76 95 124
76 95 124
76 94 121
77 96 124
75 94 121
77 95 122
74 92 118
76 94 121
72 90 117
74 92 118
76 94 122
76 95 122
76 95 123
75 93 120
77 95 123
75 93 120
73 91 119
75 94 122
75 92 119
76 94 121
72 89 116
74 91 117
74 93 121
72 90 117
77 95 122
75 92 118
74 93 122
72 89 116
73 91 119
73 90 115
73 91 119
75 94 122
76 96 125
73 90 117
73 91 118
75 94 122
71 90 119
74 93 120
76 94 121
73 90 116
75 92 118
77 96 124
73 90 116
74 93 120
76 94 122
76 94 121
76 94 121
71 89 115
70 89 116
75 93 120
76 95 123
76 94 121
72 89 116
71 89 117
75 93 121
70 87 113
72 89 115
74 91 117
75 94 122
74 91 117
70 86 111
68 84 109
70 87 114
75 92 119
73 91 118
74 91 118
73 91 116
74 91 116
72 90 117
73 90 117
73 91 118
73 89 114
71 88 113
77 95 121
70 87 113
75 93 120
74 93 120
71 88 114
74 90 115
73 91 118
74 92 119
72 89 114
74 91 116
73 91 119
71 88 113
73 91 119
73 91 117
68 85 111
68 85 109
73 90 116
70 86 111
70 86 111
66 83 109
68 84 108
68 84 108
70 87 112
70 86 109
67 83 108
67 83 108
69 85 108
73 90 116
72 89 114
68 86 111
68 84 108
72 91 118
72 89 114
68 84 108
69 85 110
71 87 112
68 85 111
69 85 109
71 87 111
67 83 106
71 89 115
70 86 110
73 90 116
66 81 104
72 89 115
68 83 106
71 88 114
70 87 111
69 85 108
70 86 110
68 84 108
65 81 104
68 84 107
65 80 102
66 81 105
67 83 106
66 82 105
70 85 108
64 79 102
67 84 108
71 87 111
64 79 102
65 80 102
63 79 103
64 78 101
69 83 106
63 78 100
63 77 99
64 78 99
69 84 107
66 81 104
67 83 106
66 80 103
67 82 105
63 78 100
63 77 98
61 74 95
60 74 94
61 76 97
65 80 102
64 78 100
59 73 93
65 79 101
59 73 93
64 79 102
63 77 98
64 79 101
65 79 99
58 71 91
61 75 95
61 75 95
65 79 99
57 70 89
59 72 92
65 79 100
52 64 82
64 78 99
59 72 91
59 72 91
61 73 92
56 68 86
60 73 93
58 71 91
56 68 87
55 67 85
58 70 88
62 76 96
53 65 82
57 70 89
53 65 83
55 67 86
60 73 92
57 69 88
59 71 90
61 74 93
56 68 86
59 72 91
62 76 97
62 75 95
61 74 94
57 69 87
52 63 80
52 63 80
62 75 95
60 72 91
56 68 86
57 69 87
58 70 89
58 71 90
56 68 86
57 69 86
50 61 78
57 69 88
56 69 87
60 74 94
56 68 87
52 63 80
56 68 86
60 72 90
53 65 82
61 73 92
62 75 94
55 67 85
56 68 86
54 66 84
61 74 94
59 72 92
59 71 90
60 73 92
57 69 87
66 80 101
63 76 95
58 71 91
58 70 87
55 67 85
53 65 84
57 69 88
60 73 92
58 70 88
64 78 99
66 80 101
59 71 91
64 78 98
58 71 89
59 73 93
60 73 93
53 65 83
55 67 85
56 69 88
63 76 96
63 77 98
56 68 86
67 83 106
64 78 98
55 67 86
58 70 90
60 73 93
66 80 100
52 64 82
65 79 101
61 75 97
60 74 95
58 71 91
68 83 106
63 77 97
64 78 99
60 75 97
62 76 97
62 76 98
65 80 102
64 78 100
60 73 92
62 77 99
69 84 107
64 79 101
63 77 99
63 77 98
69 85 109
64 79 101
64 78 100
64 78 100
61 76 97
66 81 103
69 84 107
65 79 101
60 73 94
61 76 97
66 80 102
65 80 103
68 84 107
65 81 104
68 84 108
65 81 104
67 83 108
70 87 112
64 79 103
66 82 107
70 85 108
67 82 105
67 82 106
66 80 102
67 83 108
66 81 104
74 91 116
65 79 101
67 83 107
74 91 116
67 82 105
68 83 107
69 87 113
66 82 105
66 82 106
68 84 108
69 85 109
69 86 112
71 88 112
70 86 111
69 85 108
66 83 107
72 90 117
65 80 103
75 93 119
69 85 108
66 81 105
68 84 108
67 83 107
71 88 114
71 88 113
70 86 111
71 87 111
73 90 116
69 85 110
72 88 114
76 93 119
69 86 110
71 88 113
72 89 116
74 92 118
71 87 112
78 96 125
72 88 113
66 83 108
69 87 114
72 88 114
73 90 115
73 90 115
72 90 117
71 90 119
72 90 116
74 91 118
74 91 116
73 92 120
70 86 111
73 91 117
76 94 121
72 90 117
73 91 118
70 87 113
73 90 116
76 95 123
71 88 114
72 91 119
71 89 116
71 89 115
72 91 118
73 90 117
74 91 117
72 90 116
75 93 120
69 87 113
73 90 116
73 91 118
72 90 117
72 90 117
70 88 116
74 92 118
72 89 115
75 94 121
76 94 121
74 91 118
73 91 117
74 92 118
70 88 116
74 93 120
77 95 121
72 91 118
73 91 117
74 93 122
75 94 122
74 93 120
75 92 117
79 97 123
76 94 121
73 92 119
76 95 123
74 92 119
76 95 123
71 89 115
73 92 120
73 91 117
76 95 122
73 90 116
74 92 120
74 93 121
75 94 121
72 91 118
76 93 118
76 93 120
76 95 123
74 93 120
76 94 122
77 96 123
75 93 121
76 95 124
75 93 120
74 92 119
75 94 121
76 93 120
74 93 122
74 93 120
78 97 126
78 96 123
79 97 124
73 91 118
76 94 122
75 94 121
77 95 123
76 94 122
75 94 121
76 95 123
77 95 122
76 95 122
75 94 121
78 96 123
73 91 119
72 90 117
75 93 121
75 93 120
74 93 121
73 92 120
75 94 121
73 91 118
72 89 114
75 93 119
74 92 120
75 92 117
72 90 116
72 90 118
74 92 120
70 88 115
76 93 120
75 92 118
72 90 118
73 90 116
77 96 123
69 86 113
73 91 118
76 95 122
76 93 120
71 88 115
72 90 116
71 88 114
70 88 115
75 93 121
69 87 114
72 88 114
76 94 122
70 87 111
72 89 116
75 93 120
75 93 120
73 90 116
73 91 118
75 93 120
70 88 116
73 92 119
71 89 116
70 88 115
72 89 115
75 92 119
71 89 115
73 90 117
72 90 117
70 86 112
74 91 117
70 86 110
71 88 114
71 87 112
69 86 111
72 90 118
74 91 116
74 92 118
74 91 118
70 87 112
74 91 118
68 86 112
71 88 114
68 85 109
75 92 118
73 90 116
70 86 110
68 85 111
73 90 116
70 86 110
71 87 111
71 89 116
70 87 112
68 84 108
69 84 108
71 88 113
63 78 101
72 90 117
71 89 116
65 80 103
69 85 110
67 84 109
68 84 109
69 86 111
70 85 109
64 79 103
68 84 109
69 86 112
70 86 111
69 85 110
67 84 108
66 82 105
70 86 110
66 81 105
63 77 99
69 84 108
64 80 103
68 85 109
67 83 108
69 85 110
72 88 112
71 87 111
74 91 116
69 86 110
67 83 107
70 86 110
65 80 103
72 88 113
65 80 103
64 80 103
64 79 101
67 83 108
73 89 113
65 80 103
62 77 99
67 83 105
65 81 105
61 74 95
63 79 101
64 79 100
61 76 98
65 80 103
59 73 93
60 74 95
64 80 103
65 79 100
61 75 97
64 79 100
64 79 101
65 81 103
65 80 101
57 69 88
65 79 101
59 73 92
58 71 91
64 77 98
55 68 87
61 75 96
51 63 81
62 75 95
59 72 92
57 69 88
63 77 97
60 72 92
69 83 104
60 73 93
62 76 97
64 77 98
66 80 101
61 75 95
61 74 94
57 70 90
60 73 92
62 75 95
62 75 96
61 75 96
63 76 97
59 72 91
59 72 92
58 70 88
63 76 97
56 68 88
58 71 90
57 69 86
61 73 91
53 65 83
55 67 85
59 72 91
61 74 93
57 69 88
56 68 85
51 62 78
59 73 93
53 65 83
59 72 92
54 66 84
57 69 86
62 75 96
58 70 89
61 74 93
60 73 92
56 68 86
57 70 89
58 71 91
61 75 95
56 67 84
56 69 87
57 69 87
59 72 92
63 75 95
56 69 88
61 74 93
59 72 90
60 73 92
55 67 85
55 67 85
47 57 72
55 67 84
63 76 95
59 71 90
58 70 89
58 70 88
61 74 94
58 71 91
59 71 90
58 71 90
63 78 100
56 68 87
58 71 90
56 68 86
61 74 93
55 67 85
65 79 99
60 73 93
63 77 98
62 76 97
64 77 98
63 78 99
63 78 100
62 75 94
61 74 93
67 82 105
60 73 93
59 71 90
61 74 94
66 80 101
66 81 103
65 79 100
55 68 88
59 72 92
62 77 99
62 77 99
62 76 97
65 81 103
64 79 101
64 78 99
61 74 95
64 78 99
59 73 93
61 75 96
65 80 102
65 81 105
61 75 97
66 81 103
64 79 102
60 74 95
68 83 105
70 86 111
65 80 102
59 73 94
64 79 101
69 84 107
66 81 105
63 78 100
63 77 97
71 86 109
63 78 101
67 82 105
70 85 108
63 79 102
66 81 104
68 84 109
63 79 102
66 82 106
64 79 103
68 84 108
71 87 111
65 81 104
67 83 108
67 82 105
67 83 107
68 83 106
72 89 115
65 80 103
71 87 110
66 82 105
72 89 113
71 87 113
69 85 110
67 83 107
62 76 98
67 83 107
66 82 105
67 82 106
66 81 104
66 81 105
66 82 105
70 88 115
67 84 110
71 88 114
68 84 107
71 88 114
74 91 117
68 84 108
62 76 97
65 81 105
68 84 108
70 86 110
73 90 117
72 88 112
66 83 108
69 86 112
69 86 112
74 92 118
70 86 110
75 92 118
71 87 113
75 93 120
71 89 115
71 88 114
72 90 117
71 90 117
70 87 113
73 90 116
75 92 119
72 90 116
73 90 116
68 86 111
70 87 113
72 89 115
73 91 118
74 93 120
76 95 122
73 91 118
72 90 116
72 89 115
75 93 120
68 85 111
73 90 117
74 91 116
71 89 114
77 96 123
73 91 118
72 90 116
73 91 119
69 86 112
75 93 121
76 94 121
74 92 119
74 91 118
75 93 120
73 90 116
78 96 123
72 90 116
74 92 120
74 91 118
74 91 118
73 91 118
74 92 119
74 92 118
76 94 120
71 88 114
71 89 117
75 93 121
75 94 121
74 93 122
73 91 118
72 90 116
74 91 118
74 91 117
74 92 120
75 93 119
72 90 117
72 91 118
75 93 120
74 92 120
76 95 122
74 91 116
76 95 123
75 93 120
76 94 122
76 94 122
75 94 123
77 95 122
74 93 121
77 95 123
70 88 114
73 91 118
74 92 119
75 93 119
77 95 123
74 93 122
71 88 113
76 94 122
73 92 119
75 94 122
73 92 119
75 94 121
76 94 120
74 93 121
73 91 118
75 94 122
71 89 116
79 97 125
72 90 116
73 91 119
72 90 116
72 91 120
74 91 117
78 97 126
72 90 117
72 89 114
75 93 119
77 95 123
72 90 116
73 92 120
74 93 120
72 89 116
73 91 118
76 95 123
73 90 116
76 95 124
74 93 120
71 88 113
74 92 119
71 88 115
74 93 120
74 92 121
72 89 115
73 91 118
72 89 115
76 93 120
77 95 122
76 95 124
74 92 120
73 91 117
75 92 118
73 91 118
75 93 120
74 91 117
74 91 117
73 90 117
74 91 117
72 89 116
77 95 122
73 90 115
72 89 114
74 91 118
73 91 117
71 88 113
72 90 116
71 88 114
70 87 112
68 86 112
73 91 118
73 90 115
74 91 117
71 89 117
70 87 113
72 89 116
70 87 113
71 88 114
69 87 113
75 93 119
68 85 112
67 84 109
70 87 114
73 90 116
71 88 113
71 88 114
69 84 108
70 87 113
68 84 108
70 86 110
71 89 115
73 91 116
70 86 111
72 89 116
67 82 106
72 90 116
66 83 108
71 87 112
70 87 113
70 87 111
71 89 115
69 85 110
68 84 109
68 85 111
71 88 114
68 83 107
67 83 108
70 87 112
73 89 113
69 86 111
72 88 114
67 81 103
62 77 99
71 88 113
72 89 114
65 81 104
67 82 106
71 88 114
69 85 109
66 81 103
66 82 105
67 81 103
69 86 110
64 79 101
65 80 102
68 83 106
65 82 106
64 79 103
64 79 100
63 79 103
68 84 107
71 87 112
60 74 96
64 80 104
68 84 107
64 79 102
69 85 109
68 84 108
65 79 101
62 77 100
62 77 98
63 77 98
65 80 102
62 77 99
68 83 106
63 78 99
64 78 99
64 78 100
61 76 97
66 81 103
60 73 92
60 74 94
63 79 101
62 77 98
66 81 103
66 82 104
59 74 95
65 80 102
63 77 100
66 80 101
59 72 91
62 76 97
57 71 91
69 85 108
61 75 95
60 73 93
58 72 92
61 75 95
63 76 95
57 69 88
59 71 90
61 74 94
62 76 98
67 81 103
58 70 89
64 78 98
59 72 93
62 76 97
58 71 90
63 75 95
61 75 96
57 69 88
60 73 91
56 69 88
60 73 92
65 79 99
54 66 85
58 71 90
54 65 82
58 71 90
55 67 85
58 70 89
58 71 89
58 71 89
54 66 84
55 68 86
59 71 89
59 71 89
61 74 93
59 72 92
55 67 84
58 70 89
56 67 83
57 70 88
54 66 84
59 72 92
57 70 88
52 63 80
61 74 94
60 74 94
56 68 87
52 63 80
65 79 101
55 67 84
61 75 96
56 70 89
59 72 91
52 63 80
59 71 91
61 74 93
61 74 94
56 68 86
54 66 83
59 71 90
60 72 91
56 68 85
58 71 90
60 73 92
58 71 90
61 74 94
59 72 92
60 74 94
59 72 93
60 73 91
60 73 93
60 74 95
59 72 91
63 76 97
56 68 87
56 69 87
60 73 93
67 82 105
59 72 92
65 79 100
56 69 88
58 71 90
62 76 97
69 83 105
54 66 85
61 75 96
60 75 96
54 66 83
64 78 98
65 79 99
60 72 92
62 76 97
58 70 89
70 86 110
59 72 91
66 80 102
58 70 89
65 79 102
63 77 98
63 78 100
59 74 95
60 74 95
61 74 94
62 77 100
65 79 101
66 81 104
68 83 106
64 80 103
65 80 102
69 85 110
66 81 104
58 72 93
65 80 103
65 81 104
67 82 104
62 77 98
62 78 100
68 83 106
69 85 110
68 84 107
66 82 105
67 82 106
65 80 103
66 81 105
67 84 109
69 84 107
68 83 106
70 87 112
66 82 106
70 86 109
65 80 103
70 87 111
70 86 111
72 89 115
69 84 107
69 85 109
65 81 105
65 81 103
69 85 110
68 84 108
63 78 100
68 85 111
68 85 109
68 84 108
68 84 109
67 84 108
69 85 110
73 90 116
69 85 109
70 87 113
73 89 114
67 83 107
65 82 106
68 85 110
69 85 110
66 83 108
71 87 112
74 92 118
70 88 114
68 85 110
66 83 108
68 84 109
67 83 107
72 87 111
73 90 115
72 89 115
70 86 111
72 90 116
70 88 114
73 91 117
70 87 113
74 92 118
71 88 115
72 88 114
73 91 118
74 92 119
70 87 113
71 88 114
72 89 113
69 86 112
75 93 120
74 92 119
72 89 115
73 90 117
73 91 118
70 87 112
70 87 112
75 92 117
73 90 116
73 91 118
72 90 117
75 93 120
71 87 112
76 94 122
73 91 118
74 91 116
73 91 118
76 94 121
73 91 118
74 92 119
75 94 121
74 92 118
75 92 118
77 95 122
70 88 116
69 86 113
70 87 113
72 90 116
73 90 117
75 92 117
75 92 119
74 92 120
75 93 120
75 94 123
74 92 120
73 91 118
74 93 121
72 90 116
75 94 121
75 93 119
77 95 122
78 96 124
72 89 115
75 93 120
73 92 120
77 95 122
74 91 118
74 92 119
76 94 121
71 89 115
74 92 120
76 94 122
74 92 119
74 92 119
76 95 123
75 93 119
73 91 119
74 92 120
73 91 118
75 93 121
75 94 121
73 92 119
75 94 121
76 94 122
72 90 117
73 93 121
73 92 119
74 92 119
72 90 117
74 92 120
74 92 119
74 92 119
75 94 122
76 95 123
73 91 118
76 95 122
75 93 121
75 94 123
77 95 123
75 93 119
74 92 119
76 95 123
75 93 120
76 95 124
76 93 120
74 92 119
72 91 119
73 92 119
78 96 124
74 92 121
72 91 119
78 97 125
73 90 116
72 90 117
75 93 121
74 92 120
75 94 121
74 92 119
72 91 118
74 91 117
74 92 120
76 94 120
75 94 122
73 92 119
73 91 117
72 89 115
75 92 118
72 90 117
71 88 115
72 89 115
77 95 121
73 90 116
72 89 115
73 91 118
73 91 118
72 89 115
74 91 118
74 92 118
74 91 117
67 84 108
75 93 121
67 84 109
74 92 118
73 91 117
71 87 112
73 89 115
72 89 115
71 88 113
73 91 119
67 84 111
74 92 118
68 85 111
70 86 111
71 87 113
73 90 116
70 87 113
75 94 122
71 88 112
69 86 112
72 90 116
73 90 115
70 87 112
73 90 115
71 89 115
71 88 113
70 87 112
68 84 108
69 85 110
71 89 116
71 88 114
71 87 112
68 85 110
74 92 118
73 90 115
69 86 111
65 80 102
67 84 108
70 86 109
67 83 107
68 84 107
68 84 110
69 86 111
63 79 104
70 86 111
67 83 108
66 82 105
70 87 112
69 86 111
73 90 115
68 84 109
73 90 115
70 87 113
69 84 108
69 85 108
69 85 109
72 89 114
69 86 110
64 78 99
68 84 108
60 74 96
66 81 104
68 84 108
62 77 99
67 82 104
63 77 98
65 81 104
64 79 101
62 75 96
68 84 108
63 79 101
65 80 103
66 81 103
70 86 111
69 85 108
64 79 101
65 80 101
64 80 102
64 79 101
68 83 106
63 78 100
62 76 97
63 78 99
61 75 96
65 80 102
68 83 106
63 78 101
68 83 105
63 76 97
60 73 94
70 86 110
63 77 99
60 73 94
62 76 97
61 74 94
65 80 102
69 85 108
65 79 99
66 81 103
64 78 100
58 71 91
62 76 97
64 79 101
65 79 101
63 77 99
63 76 97
61 75 95
60 73 92
63 77 97
60 74 94
63 76 96
59 73 93
62 76 96
57 69 88
60 72 91
60 73 93
60 74 94
60 73 92
61 74 94
58 71 90
60 73 93
58 70 89
59 73 93
57 69 88
53 64 82
58 70 89
65 80 101
62 75 95
63 77 98
59 73 94
58 71 90
57 70 89
55 67 84
61 74 93
60 73 94
58 72 92
55 67 84
59 72 92
61 74 93
59 71 90
61 74 93
61 75 95
58 70 89
60 73 93
64 78 98
62 75 95
59 72 91
55 67 86
60 74 94
58 70 87
64 77 96
61 73 93
59 72 92
59 72 90
61 74 93
61 74 93
58 72 92
57 70 88
59 70 88
58 72 92
58 70 90
60 73 92
63 76 97
56 69 87
61 75 95
58 70 88
61 75 95
57 69 88
64 78 100
58 71 91
58 70 89
56 68 85
57 69 86
62 75 95
61 74 94
58 70 88
59 71 90
57 69 87
59 73 93
61 74 94
62 76 96
65 79 100
61 74 95
61 74 94
64 78 98
62 75 95
64 79 100
61 75 96
63 77 99
66 81 103
61 74 95
63 78 99
62 76 97
58 72 93
66 80 102
64 77 97
59 72 92
61 75 95
65 79 101
63 78 99
60 74 94
63 77 99
66 81 103
65 80 101
70 84 107
68 83 106
66 81 104
62 76 98
65 79 100
65 80 103
64 78 99
66 81 102
63 77 98
69 84 108
62 76 97
62 77 99
69 85 108
63 77 99
67 83 106
62 77 98
65 80 103
70 86 109
62 77 99
61 76 98
70 86 110
65 80 102
69 84 108
70 86 109
68 85 110
66 81 103
68 83 106
69 84 108
69 86 110
67 83 106
73 89 113
66 82 106
64 80 105
68 85 110
66 82 106
69 84 107
67 84 110
67 83 108
66 82 105
68 84 109
67 84 108
69 86 112
72 89 115
68 83 107
71 88 112
71 88 113
70 87 112
73 89 114
70 88 114
68 85 110
72 89 114
69 85 110
71 87 112
66 82 105
65 82 108
73 91 117
69 86 112
70 87 113
72 89 115
72 89 115
69 86 112
76 93 118
70 88 114
72 89 115
72 88 111
72 89 115
71 89 116
72 89 115
72 90 118
75 93 120
72 90 117
71 88 113
73 92 119
69 86 111
74 91 118
69 86 112
74 91 117
72 88 113
74 91 117
72 89 116
76 95 122
74 91 118
72 90 117
70 87 113
72 90 116
71 89 116
75 94 122
75 93 120
70 86 111
71 89 115
73 90 116
74 92 118
73 90 116
70 88 116
70 88 114
74 92 118
72 89 115
72 89 114
74 92 119
71 89 115
71 89 116
67 84 110
75 92 118
75 93 121
73 92 120
76 94 120
74 91 117
73 91 118
74 91 118
74 93 120
74 91 117
74 92 120
74 92 120
70 88 115
72 90 117
73 91 118
72 90 117
74 92 119
73 91 119
73 91 119
76 94 121
78 96 123
74 91 117
74 92 120
74 92 119
72 89 114
70 87 113
78 96 123
77 95 123
77 95 121
75 92 118
74 92 120
71 89 116
70 88 114
74 93 120
75 93 120
76 94 122
74 92 120
76 94 120
75 94 122
75 93 121
76 95 124
74 92 118
77 95 123
73 91 118
74 92 118
73 91 118
72 90 117
77 95 121
74 91 117
75 93 121
74 93 121
75 93 121
75 93 120
73 91 119
76 94 122
70 86 112
77 95 121
75 94 121
75 93 120
71 88 113
74 93 121
74 91 118
75 93 119
74 92 119
73 90 117
74 93 121
74 92 119
73 92 121
72 90 116
76 94 120
77 96 124
74 92 118
73 90 117
73 91 119
73 90 116
74 92 120
73 92 120
77 95 121
71 88 114
74 92 119
72 91 118
75 93 120
76 94 122
71 89 115
73 90 116
75 93 119
72 90 117
71 88 113
72 89 115
73 91 117
73 91 117
69 86 111
72 89 116
72 90 116
73 90 116
71 88 114
73 91 118
73 90 115
73 91 118
68 85 109
71 88 114
74 91 118
72 90 116
73 91 119
72 89 115
69 86 111
74 92 118
69 87 113
71 88 114
70 86 111
69 85 111
72 89 115
73 91 117
73 90 116
73 91 118
72 89 116
72 89 116
76 93 119
70 87 113
71 88 115
69 85 110
71 88 114
69 86 110
69 85 110
70 87 112
71 87 111
67 83 106
71 87 112
69 86 111
65 80 104
71 88 114
72 89 114
69 87 113
75 93 119
72 89 114
65 80 104
70 87 112
65 81 104
71 87 111
71 88 113
72 88 113
73 90 116
70 86 111
72 89 115
67 83 107
69 86 111
67 83 108
64 79 102
63 78 100
68 84 109
69 85 109
66 81 104
71 87 111
65 81 104
66 81 104
64 78 99
66 82 106
70 87 111
69 84 108
70 87 113
65 81 104
68 84 107
64 79 102
68 84 108
65 79 101
68 84 107
64 79 101
65 81 104
66 81 104
69 84 107
69 85 108
66 81 103
68 84 109
63 77 99
62 76 97
67 83 107
61 75 97
65 80 103
62 77 99
65 80 102
63 78 99
63 78 101
67 82 104
63 77 99
58 72 93
64 79 101
64 78 100
59 73 93
66 81 103
63 76 97
65 79 101
66 81 104
64 79 100
59 72 92
59 73 94
64 77 98
63 76 95
66 81 103
64 77 98
65 79 100
62 77 99
65 79 99
65 79 100
64 78 100
65 79 100
58 71 91
66 80 102
61 75 95
65 79 101
56 68 86
58 71 89
56 68 87
62 75 96
61 74 94
55 66 84
63 77 97
56 68 86
63 76 96
61 75 95
66 80 102
61 74 93
60 74 94
62 75 94
62 74 94
63 77 98
59 73 93
60 72 92
61 76 97
58 72 91
57 70 90
56 68 86
60 72 92
56 67 85
61 74 93
55 66 83
62 76 97
57 70 90
61 73 92
61 74 93
59 72 91
59 72 91
61 74 93
55 67 85
63 76 96
53 64 82
61 74 93
61 74 94
58 70 89
61 74 93
61 75 96
59 71 89
63 77 97
62 75 96
58 70 88
61 74 93
55 68 86
61 74 95
58 72 92
58 70 89
60 73 92
60 72 91
61 75 96
63 76 97
58 71 91
53 65 82
61 74 93
61 74 93
64 78 101
62 76 97
66 81 103
65 80 101
60 73 93
61 74 94
58 71 91
61 75 95
61 74 93
61 74 94
61 74 94
62 75 96
62 76 97
59 73 94
56 69 89
62 76 97
66 81 104
64 79 101
61 74 95
59 72 92
62 76 97
64 78 99
65 79 102
65 81 104
61 75 95
67 81 102
62 76 96
60 73 93
59 73 93
60 74 94
65 79 99
66 80 101
64 78 100
59 73 93
66 81 104
61 75 96
68 84 108
65 80 103
67 81 103
62 77 100
66 81 103
69 84 108
65 80 102
64 79 101
70 86 110
72 88 112
68 84 108
64 80 103
65 80 102
67 82 105
62 77 99
66 81 103
69 85 109
63 78 100
67 83 107
67 83 107
65 79 101
65 81 104
73 90 116
70 86 111
66 81 103
64 78 101
66 82 106
69 86 110
69 86 112
73 90 116
65 80 103
65 80 103
64 79 103
65 80 103
70 87 112
69 85 110
69 85 109
70 87 113
66 82 107
67 84 109
68 85 110
70 87 111
70 87 111
69 86 110
67 83 107
68 84 108
65 82 107
69 86 111
71 87 112
69 85 110
68 85 111
71 88 114
67 83 106
71 88 113
69 86 111
71 88 114
69 86 111
70 87 113
67 84 108
71 87 112
69 87 114
71 88 114
73 91 118
70 88 115
67 83 107
74 92 119
74 92 120
75 92 118
72 89 115
73 91 117
69 86 112
73 91 119
74 92 119
72 89 115
70 87 113
70 87 112
76 93 120
74 92 118
72 90 117
72 90 117
73 91 116
73 91 117
73 90 115
73 91 119
73 90 116
74 92 118
77 95 121
76 94 123
77 96 124
77 95 122
73 91 116
73 91 119
71 88 113
74 92 119
73 90 115
73 92 119
73 92 119
75 93 120
73 90 116
76 94 123
68 85 111
76 95 123
73 91 118
72 91 118
74 92 120
74 92 118
74 91 118
75 94 123
76 94 122
75 92 118
72 90 118
75 94 121
77 96 124
73 91 118
73 92 119
74 92 118
74 92 119
73 91 119
75 93 121
75 93 120
77 96 124
77 94 120
75 93 120
75 93 120
77 96 124
76 94 121
76 94 122
75 93 121
73 91 117
76 94 121
78 97 125
73 91 119
77 95 122
78 96 124
75 93 119
74 92 117
73 92 119
76 94 121
76 95 124
73 92 119
76 93 120
74 92 119
75 93 120
71 89 116
76 94 122
75 93 120
76 95 123
75 94 123
74 93 121
75 93 119
76 95 122
76 93 119
76 94 121
73 91 118
75 93 121
73 90 116
71 89 117
76 94 121
72 88 113
75 93 120
71 89 116
75 93 120
76 94 121
79 97 124
72 90 117
74 92 119
74 91 117
75 93 120
75 93 121
74 91 117
71 89 116
73 91 118
76 93 119
73 91 117
74 92 118
73 91 119
73 91 117
73 91 117
74 91 117
73 91 119
75 93 119
72 90 116
73 90 117
74 92 119
69 86 112
74 92 119
71 89 117
72 89 116
74 92 119
72 90 116
73 91 117
67 83 108
72 90 115
73 91 116
69 86 111
73 91 117
73 90 116
71 88 113
68 84 109
72 90 118
74 92 119
72 89 114
70 88 115
69 85 110
75 91 116
70 85 108
74 91 118
70 87 112
73 91 118
72 89 116
69 85 110
73 90 116
74 91 117
71 87 111
69 86 110
71 88 114
74 91 116
71 88 114
68 85 110
67 84 109
71 87 111
70 87 112
70 87 113
71 87 113
75 91 117
72 89 114
72 89 114
69 85 109
67 83 108
70 87 111
72 89 114
69 85 110
71 86 109
66 82 104
73 90 117
71 88 113
66 83 108
71 89 116
69 85 109
69 86 111
70 88 114
69 84 107
70 86 110
61 75 97
70 87 112
65 80 104
70 86 111
68 84 109
69 85 109
69 85 108
62 77 100
66 83 108
71 87 111
70 86 111
70 86 110
67 83 107
63 79 102
65 79 102
74 91 116
67 83 106
65 81 104
63 77 99
66 81 104
67 83 107
60 75 97
64 79 101
69 85 110
64 79 102
66 82 104
66 80 102
65 81 105
67 82 105
63 78 99
68 83 105
63 77 98
66 81 105
63 78 100
69 85 110
60 74 96
68 84 108
61 75 96
58 71 91
65 80 102
65 80 102
62 77 99
58 71 90
60 74 95
62 76 97
61 74 95
61 75 97
61 75 96
61 74 93
62 75 96
63 77 98
65 79 102
64 79 101
63 77 99
57 70 89
64 78 99
60 73 94
55 68 87
63 77 98
59 72 92
60 74 95
59 73 94
61 74 94
61 76 97
58 72 92
60 73 93
59 72 91
63 76 97
58 71 90
61 74 93
66 80 102
60 72 91
61 75 95
52 64 81
61 74 94
59 72 91
58 71 91
63 77 96
58 71 90
60 73 93
55 68 87
62 75 95
54 66 84
60 73 93
61 75 95
61 73 92
64 78 98
64 78 99
57 70 89
59 72 91
55 67 84
62 76 96
59 72 91
55 68 86
61 74 94
61 74 93
61 75 95
52 63 80
61 74 94
62 76 97
58 70 88
62 76 95
59 71 90
60 73 92
57 70 90
60 75 96
60 74 94
58 71 91
61 74 93
61 74 94
54 66 84
59 72 90
55 67 84
55 67 86
61 74 94
64 78 100
60 73 93
56 69 88
61 74 94
63 76 97
65 78 99
62 76 97
59 72 91
59 72 91
60 74 94
57 70 90
62 76 97
63 77 97
64 79 100
61 75 95
57 69 89
63 77 98
62 77 98
64 78 99
61 75 97
63 76 95
61 74 93
62 75 95
58 71 91
65 79 100
62 76 98
59 72 92
67 83 106
60 74 95
64 79 101
65 80 102
60 73 93
64 79 101
68 82 104
65 79 101
67 82 105
62 77 100
63 79 101
67 82 105
65 80 102
67 81 103
60 73 93
66 81 104
62 77 98
68 84 107
65 80 103
67 82 104
61 75 95
61 75 97
71 87 110
69 84 106
61 76 99
69 85 109
63 78 100
69 84 108
68 83 106
68 83 107
71 87 112
68 84 108
66 81 103
65 81 105
70 85 107
72 88 112
70 86 111
68 82 105
67 83 107
69 86 110
67 83 107
70 87 112
66 82 106
68 84 109
67 83 108
69 85 109
70 87 112
66 82 106
69 84 108
69 85 109
68 84 108
66 82 106
70 86 110
67 84 110
71 88 114
67 82 105
71 88 113
69 86 111
67 83 108
71 88 112
72 89 115
67 84 109
70 87 112
69 85 110
71 86 109
71 88 113
72 90 116
71 88 113
72 90 117
66 83 108
72 88 113
72 89 114
71 88 113
68 84 107
68 85 110
73 91 118
67 84 109
71 88 115
72 89 114
75 93 120
77 94 120
71 88 115
69 87 113
76 94 121
69 86 111
74 92 120
74 91 118
70 87 112
69 86 111
73 90 116
76 94 121
70 86 111
74 92 118
73 90 116
73 91 118
73 90 116
74 91 118
71 88 115
75 94 121
74 91 118
73 90 116
72 90 116
71 89 115
72 89 114
74 92 120
72 89 115
70 86 110
72 90 116
72 89 115
74 92 118
74 93 122
72 90 116
71 88 115
72 88 112
73 90 116
70 88 115
71 88 115
73 91 118
75 93 120
75 93 121
74 92 119
72 90 116
75 93 119
71 88 114
71 89 117
75 93 120
69 86 111
72 90 117
73 90 116
77 96 124
71 89 116
74 93 120
77 95 123
71 89 117
74 91 117
72 92 122
77 96 125
75 94 122
75 93 119
73 92 120
76 94 121
73 91 118
76 94 121
78 96 122
79 97 125
74 91 117
76 94 121
77 95 124
79 97 124
72 90 118
74 92 119
73 91 119
73 91 119
74 92 118
77 96 123
73 92 119
76 95 122
76 94 121
75 93 119
73 91 117
76 94 120
75 93 121
73 90 117
73 90 116
76 94 121
73 91 118
75 93 121
72 90 117
74 92 120
74 92 120
74 93 122
73 90 117
72 89 116
76 95 122
75 92 117
73 92 120
73 92 121
75 93 119
71 89 116
75 92 118
72 90 118
72 89 115
74 93 121
75 93 120
74 91 117
73 91 118
76 93 120
75 93 120
74 92 119
72 90 116
74 92 119
72 89 115
69 86 112
73 92 120
73 91 117
73 91 117
73 90 117
71 87 112
74 92 119
69 86 112
72 89 114
75 93 119
75 93 119
72 89 115
74 92 118
74 92 118
73 90 115
72 89 115
73 91 117
69 85 108
73 89 114
71 88 114
70 86 110
71 89 114
76 95 123
74 91 118
75 93 121
72 90 117
72 89 115
67 84 109
70 86 111
70 86 111
70 87 113
69 85 109
71 89 115
73 90 116
72 87 111
69 85 110
73 90 115
68 85 111
71 88 114
70 85 108
69 87 113
70 88 115
72 89 115
71 88 113
70 87 113
73 90 115
75 93 119
71 89 115
70 87 113
69 85 108
71 89 114
67 83 106
67 82 106
73 90 115
69 84 108
64 80 105
66 82 105
68 84 108
69 86 112
68 84 108
70 86 111
71 87 112
68 84 109
67 83 108
70 85 108
70 87 112
69 85 109
66 82 105
65 80 103
65 81 105
68 85 109
63 77 99
71 87 112
67 83 108
65 81 105
71 87 112
68 84 108
66 81 104
68 85 111
69 85 109
68 84 107
68 84 107
65 80 102
72 89 114
64 79 101
63 79 102
64 79 102
65 81 104
66 82 105
65 80 103
69 85 109
57 71 91
61 76 98
64 79 102
66 81 104
64 79 101
60 74 94
64 78 100
65 81 105
63 78 100
66 81 104
65 80 102
64 78 99
68 84 107
58 71 91
65 80 104
65 81 105
62 76 97
60 74 94
66 82 105
60 74 96
62 77 100
65 80 102
59 72 92
60 73 94
61 76 97
66 80 101
63 78 99
69 85 109
64 79 100
65 79 101
61 75 95
61 75 95
60 74 95
61 74 93
59 71 91
61 75 96
63 78 99
64 78 97
55 67 85
61 74 94
61 75 95
56 68 87
57 70 89
65 79 100
60 74 95
66 81 103
59 72 93
58 71 91
66 80 102
58 72 92
60 74 95
59 72 92
58 70 89
57 69 87
63 77 98
58 71 90
61 74 95
62 75 95
59 72 92
56 69 88
66 79 99
58 71 89
61 75 95
58 71 91
59 72 92
54 66 83
65 79 100
60 73 92
63 77 97
63 77 98
57 69 88
55 67 85
60 73 93
56 69 87
59 72 92
62 74 94
61 75 95
67 81 102
66 80 102
62 76 97
58 72 93
58 71 90
58 71 90
61 74 95
57 70 89
63 77 98
57 70 89
58 71 91
60 73 92
63 77 98
56 68 87
61 74 94
62 75 96
63 77 98
59 71 89
57 69 87
59 72 90
57 70 90
62 76 97
61 75 96
59 72 91
63 77 97
59 72 91
55 68 86
56 70 90
64 79 100
62 76 98
63 77 98
60 73 93
57 70 89
64 79 100
62 76 97
65 80 102
67 82 105
64 79 101
68 84 106
65 79 102
63 78 100
59 72 91
55 67 86
67 83 106
64 78 99
66 80 103
63 77 99
67 81 103
65 79 101
66 80 101
67 82 104
64 79 102
61 76 98
63 77 99
69 85 108
65 80 101
66 81 104
63 78 100
63 78 100
65 80 103
69 86 110
65 80 102
62 76 98
62 76 96
65 80 102
67 83 107
67 82 104
66 83 108
65 80 102
62 77 99
69 86 110
64 79 102
63 79 103
66 82 105
67 83 107
68 83 106
64 79 102
61 76 98
66 81 105
66 81 104
65 80 104
64 79 101
64 81 105
68 85 109
70 87 112
66 81 105
69 84 108
68 84 109
70 87 111
68 84 107
72 89 115
73 89 113
70 86 111
72 89 115
68 84 108
69 85 109
70 86 110
68 84 109
68 84 109
66 81 104
72 88 114
70 86 111
68 84 109
71 89 116
72 89 115
68 84 108
73 90 116
75 93 120
71 87 112
68 86 112
69 86 111
71 88 113
76 93 118
73 89 114
70 86 111
69 87 114
71 87 111
74 92 119
73 91 118
73 90 116
74 91 118
70 87 113
70 87 113
69 86 111
73 91 117
69 87 113
72 88 114
73 91 118
73 91 118
73 91 118
72 89 114
74 91 117
70 87 111
70 87 113
72 90 116
76 94 121
73 90 116
70 87 113
74 92 120
72 89 113
69 85 111
72 90 116
74 92 121
73 91 117
71 89 117
76 95 122
75 93 120
72 90 118
73 91 119
75 93 118
75 93 120
72 90 117
74 93 122
74 92 119
74 91 118
70 88 115
75 94 122
74 92 120
73 90 117
73 90 116
74 92 119
76 95 122
76 94 122
74 93 122
71 88 114
75 94 122
76 93 120
73 91 119
71 88 114
74 92 120
74 92 120
73 90 116
77 95 121
76 94 121
69 85 109
73 91 117
75 93 120
74 92 119
73 90 117
72 91 118
73 91 118
75 93 121
74 93 122
71 89 115
77 97 125
74 93 121
78 97 124
77 95 122
72 90 116
75 94 123
74 92 119
77 95 122
79 97 125
75 93 120
73 92 120
71 88 114
79 98 125
71 89 117
76 94 121
77 95 122
74 91 117
74 91 117
74 92 119
77 95 123
72 89 115
72 91 119
74 92 120
69 87 113
75 93 120
71 88 115
75 93 120
75 93 121
75 93 120
71 88 114
73 91 118
72 89 114
74 92 119
74 92 119
72 90 118
74 91 117
72 89 116
73 90 115
74 92 118
73 91 117
76 94 121
70 87 113
74 92 119
70 87 113
69 85 109
74 93 120
74 92 118
71 88 115
74 92 120
76 95 123
74 91 117
73 92 120
75 93 119
75 93 120
76 93 117
72 89 115
74 92 118
69 85 110
74 90 116
74 92 120
71 89 116
75 94 122
72 90 116
71 89 115
74 92 118
75 93 120
69 86 112
72 91 119
73 91 119
71 88 115
70 88 114
69 87 113
72 89 115
75 93 120
72 88 114
72 90 118
68 85 110
73 89 115
72 90 117
73 89 114
72 89 115
76 94 121
73 91 118
70 87 112
72 89 115
71 88 114
69 85 109
70 87 112
73 90 117
68 84 109
70 87 112
70 86 110
70 87 112
69 85 110
69 85 109
71 87 112
71 88 113
65 80 103
67 83 107
70 86 110
66 81 104
72 89 114
69 85 110
65 80 103
66 83 107
71 87 113
69 84 108
64 80 104
69 85 109
67 83 108
66 82 107
67 82 106
73 90 116
69 86 112
69 85 110
66 82 106
64 79 101
66 81 105
71 88 113
65 80 103
65 79 101
70 86 111
69 85 110
63 78 101
65 81 105
65 80 103
70 86 110
66 82 105
68 84 108
69 85 110
68 84 108
66 81 104
66 82 105
64 78 101
64 80 103
70 86 110
64 79 101
64 80 103
64 79 101
62 77 99
70 85 107
62 76 98
66 80 103
66 82 105
62 76 97
67 82 105
57 71 91
64 78 100
62 78 100
66 81 103
66 81 103
66 82 105
63 77 98
54 67 86
66 81 103
61 75 96
63 77 98
62 75 96
66 80 102
65 80 103
61 76 98
65 79 99
63 78 100
64 78 99
68 83 105
64 78 100
62 76 98
65 79 99
60 74 93
68 82 104
59 73 94
58 72 92
59 73 95
55 67 85
64 79 100
59 73 93
66 80 102
62 75 95
63 77 98
67 82 106
65 80 103
53 66 84
60 73 92
60 73 92
59 73 94
61 75 96
64 79 100
63 77 98
63 76 97
63 77 98
61 74 95
59 72 90
64 78 100
59 72 92
60 73 93
61 74 94
60 74 94
60 72 91
61 75 96
61 74 94
61 74 93
54 67 85
61 75 96
60 73 94
61 74 93
59 73 92
64 78 98
57 70 90
60 74 94
57 70 88
59 72 92
60 73 93
58 70 88
63 76 96
59 72 92
64 79 100
62 75 96
63 77 97
57 70 88
53 64 81
58 70 89
57 70 89
53 65 83
59 72 92
62 75 95
61 75 95
58 71 90
62 75 95
64 77 97
63 76 96
57 69 86
58 71 90
58 72 93
59 72 92
62 75 96
63 77 97
66 81 103
61 75 96
61 74 94
60 72 92
63 77 98
55 67 85
58 72 92
64 79 100
62 76 97
59 72 92
57 70 90
62 76 98
64 78 99
59 72 90
61 75 96
61 75 96
61 75 96
62 76 97
61 75 96
61 76 97
68 83 106
59 73 94
67 83 106
62 76 98
70 86 111
64 78 99
67 83 106
64 77 98
64 80 103
61 75 98
67 83 105
63 78 102
68 84 107
60 74 96
66 80 102
67 82 105
68 84 109
71 87 112
62 76 98
68 83 105
70 86 112
64 79 102
68 83 105
64 79 102
69 85 110
63 77 98
70 86 111
66 83 107
64 78 100
68 83 106
69 85 108
68 84 107
66 81 105
67 83 107
67 83 107
70 86 111
67 83 107
69 86 110
67 83 107
65 80 103
68 85 110
65 81 105
70 86 110
66 82 106
69 85 108
70 87 112
69 86 111
74 91 118
70 86 109
65 80 103
67 82 106
73 90 116
72 88 112
69 85 109
70 88 114
72 88 113
70 86 111
68 84 108
67 83 107
75 93 119
72 89 114
72 89 114
69 86 111
68 85 111
71 88 112
70 88 115
72 88 113
69 87 113
70 87 112
69 85 109
66 84 111
72 89 115
72 89 115
67 84 109
67 83 106
75 94 121
68 85 110
77 94 120
73 91 118
73 90 116
72 89 115
71 89 115
74 92 119
76 94 120
72 89 115
69 86 111
68 85 111
71 88 113
69 86 111
66 82 106
74 90 116
75 93 121
69 85 110
71 88 112
75 92 117
72 89 115
69 86 113
70 87 112
72 90 117
72 88 113
72 90 116
74 92 118
74 92 118
68 86 113
70 87 113
72 89 114
74 91 116
78 96 124
73 91 118
75 93 119
72 89 116
71 88 115
70 88 114
75 93 120
73 89 114
72 90 116
73 91 119
75 93 120
73 90 116
75 92 119
74 93 121
74 92 120
77 95 122
74 91 117
75 93 120
76 94 122
75 92 119
73 90 115
74 91 118
72 89 115
74 92 119
73 91 117
71 89 116
74 91 118
72 90 116
77 95 123
74 92 118
77 95 122
77 95 122
75 93 121
73 92 120
74 93 121
78 96 124
74 92 119
75 93 121
74 93 120
75 93 121
72 90 116
77 95 122
75 93 118
74 92 119
77 96 125
78 96 123
74 91 117
79 97 124
73 92 120
73 91 117
78 96 123
76 95 123
73 91 117
73 91 119
74 93 120
74 92 119
77 95 122
76 95 123
76 94 121
74 91 117
74 91 117
75 92 118
73 92 121
76 94 121
75 92 119
72 90 117
72 90 118
76 94 122
75 93 121
73 90 116
74 92 120
72 90 117
73 90 116
71 89 117
74 91 117
75 93 119
76 93 120
73 90 116
69 87 114
76 93 119
74 91 117
75 94 121
71 90 117
77 96 124
72 89 114
72 90 118
73 91 118
71 89 116
76 94 121
71 88 113
71 89 116
75 92 118
77 95 121
75 92 117
74 93 121
72 90 116
68 87 115
68 85 111
71 88 113
72 89 114
71 87 111
70 87 113
73 91 118
70 87 113
76 94 122
67 84 110
71 89 115
72 89 116
73 91 117
70 87 113
72 90 117
73 90 116
72 89 115
72 89 114
72 90 116
70 86 110
73 90 116
69 86 112
69 85 110
70 86 111
69 85 109
74 92 118
68 84 109
71 88 113
70 86 111
72 90 116
70 87 113
69 87 113
72 90 116
73 90 116
72 89 114
68 85 111
72 90 116
68 84 109
73 91 117
68 83 107
70 86 111
71 89 115
71 88 114
67 83 106
72 89 113
69 86 111
71 88 114
68 84 108
69 86 110
64 80 104
71 87 112
70 87 114
68 84 109
68 84 108
69 85 110
67 82 106
67 83 107
71 87 113
70 87 112
70 86 110
68 83 106
69 85 109
67 83 108
64 79 102
70 85 108
67 83 106
61 75 95
68 84 109
67 83 107
66 81 104
65 81 106
67 82 106
62 77 100
67 83 107
66 80 103
62 77 99
64 79 101
66 81 103
66 79 99
66 81 105
69 85 108
66 81 104
69 85 109
66 81 104
58 72 93
65 80 104
66 81 103
66 81 104
62 77 98
66 82 106
70 86 110
64 79 100
65 80 104
66 82 105
66 81 104
65 79 100
60 73 93
63 77 99
61 75 95
61 75 96
66 80 102
65 79 101
61 75 96
64 78 98
59 72 92
63 78 100
63 78 100
61 74 94
61 75 96
65 79 100
63 76 97
63 77 99
65 80 101
64 79 102
65 79 100
59 71 90
56 69 89
59 72 91
68 83 105
62 76 96
58 70 88
59 72 91
62 75 95
62 76 96
60 73 93
65 79 99
64 78 99
63 77 98
59 72 93
62 76 97
58 71 91
59 71 91
58 72 91
58 71 91
54 66 85
59 72 92
63 77 98
64 78 100
54 65 83
62 76 96
69 84 106
59 72 92
61 74 95
54 67 85
61 74 94
56 69 89
57 70 89
58 72 91
59 72 91
65 78 98
63 77 97
61 76 98
60 74 94
66 81 104
63 75 95
56 69 88
66 80 101
63 76 97
59 73 93
62 75 95
61 74 94
55 67 85
60 73 93
58 71 90
58 71 90
63 77 99
61 75 96
61 75 95
56 69 88
58 71 90
64 79 100
62 76 98
61 74 93
57 70 89
60 74 94
64 77 98
62 76 96
63 78 100
68 84 109
64 79 102
63 77 99
63 77 99
62 77 98
64 78 100
59 73 94
65 79 101
65 79 99
63 78 100
64 78 100
66 81 103
67 83 106
68 83 106
59 72 92
64 79 102
63 77 98
62 77 100
60 73 94
63 77 97
57 70 89
66 80 102
66 80 102
59 72 92
65 79 101
62 76 98
64 78 100
64 77 98
68 83 105
62 77 100
61 75 95
62 77 100
69 84 107
62 76 97
65 80 103
65 81 104
60 75 97
68 84 108
67 83 107
63 78 100
67 83 107
66 82 107
64 79 103
70 86 110
68 85 110
67 82 105
65 80 102
65 79 101
65 79 101
67 83 107
66 82 106
68 83 107
66 81 103
63 77 97
66 81 104
74 91 116
67 82 105
68 83 106
67 83 107
67 83 107
63 78 101
64 80 104
71 88 113
66 82 106
67 82 106
64 78 101
67 82 105
68 84 108
67 83 106
70 85 109
65 81 104
69 86 111
67 84 108
68 84 109
71 88 113
70 86 110
71 88 113
67 82 104
68 85 109
68 84 109
71 88 113
73 91 118
68 84 109
67 83 106
69 85 110
69 85 110
67 84 109
71 89 116
71 89 115
75 92 116
70 86 111
74 91 116
71 89 116
70 87 113
72 89 115
72 89 116
67 84 109
66 83 107
70 88 113
70 87 112
72 89 115
71 89 116
72 89 115
73 91 117
71 90 117
68 85 109
68 84 108
74 91 118
74 91 118
71 87 112
74 92 120
70 87 112
74 92 119
69 84 108
75 93 119
70 88 115
74 93 120
71 88 113
68 84 109
74 92 118
74 92 118
73 90 116
75 93 120
75 93 119
74 92 119
75 92 118
69 86 112
67 85 112
75 93 120
71 89 115
73 91 118
75 92 119
72 89 115
70 87 113
76 94 123
76 94 122
70 89 116
74 91 117
72 89 115
71 89 116
74 92 119
72 90 118
76 94 121
72 89 113
73 91 118
75 92 119
75 93 119
74 92 120
76 94 122
74 91 118
75 93 119
75 93 120
74 92 118
74 92 118
78 96 124
75 93 121
76 94 122
76 95 123
75 92 118
77 95 122
77 96 124
74 92 120
75 93 121
76 96 125
76 94 120
73 91 117
70 88 113
76 94 120
75 93 120
73 92 119
76 94 123
75 94 123
76 94 121
75 94 122
73 92 119
76 94 122
77 95 123
75 93 120
72 89 116
74 93 122
75 93 118
71 89 115
76 94 120
76 96 125
74 92 119
73 90 116
75 92 119
72 90 117
74 92 120
77 96 124
75 93 121
72 90 117
73 91 118
80 97 124
74 92 120
74 92 119
74 92 119
75 92 119
73 91 117
74 92 119
75 94 122
75 93 119
75 93 120
73 91 118
71 89 116
75 93 121
76 94 121
74 92 119
76 94 121
71 88 115
76 93 120
72 89 114
73 91 118
71 88 115
71 88 113
72 91 119
70 87 114
75 93 121
72 89 114
76 94 120
75 92 117
74 92 119
70 87 112
75 92 119
74 92 119
71 89 115
75 92 119
71 89 116
73 90 117
73 91 118
72 88 113
70 86 111
69 86 110
74 93 121
71 88 113
73 91 117
71 88 114
70 87 112
74 92 117
71 89 116
73 90 116
73 90 116
69 85 110
70 86 112
67 83 107
70 87 112
71 89 116
70 88 115
70 89 117
71 88 113
70 87 113
72 89 115
74 92 119
71 87 111
76 93 118
70 86 112
74 91 118
70 87 112
71 87 111
72 89 115
71 88 114
68 84 108
68 86 112
66 82 106
65 80 104
70 88 114
69 86 110
73 91 117
70 87 113
70 86 111
70 87 114
66 82 106
65 82 108
67 83 106
71 88 113
71 88 113
68 85 110
69 85 109
65 81 104
69 86 110
67 82 105
68 83 106
69 85 109
67 84 108
64 80 103
66 80 102
70 86 111
68 84 108
70 87 112
66 81 105
64 78 100
67 83 107
68 85 109
67 83 106
66 82 105
67 82 106
61 76 98
64 79 101
70 86 110
67 82 104
66 81 103
66 82 105
69 84 108
65 80 103
63 78 100
59 74 97
67 82 106
67 81 102
67 82 106
69 85 109
64 78 98
68 84 107
72 89 114
63 78 100
68 83 106
64 78 100
62 76 98
65 80 102
63 78 101
66 80 103
63 77 98
67 82 104
65 80 102
59 73 93
66 81 104
65 79 101
64 79 101
59 72 92
61 75 96
65 79 100
63 78 100
61 76 97
65 79 102
60 75 96
62 76 98
62 76 97
61 75 96
61 73 93
63 76 97
60 74 95
60 74 94
63 78 99
60 73 93
64 78 99
58 71 91
61 74 94
67 82 106
60 74 94
64 79 101
56 69 88
62 76 96
56 69 89
65 79 100
63 77 98
60 73 92
61 74 95
66 80 101
60 73 92
60 75 97
58 71 90
65 79 101
60 74 94
63 77 98
60 73 94
62 76 97
63 77 97
61 75 95
62 76 98
61 75 95
58 71 90
61 75 96
55 67 85
62 76 98
58 70 88
61 74 93
62 76 96
57 69 88
61 74 95
64 78 98
61 75 97
67 82 105
63 77 98
60 73 92
58 71 90
58 72 93
60 74 94
58 71 90
65 80 103
56 69 88
60 73 92
60 73 93
57 69 89
67 82 105
62 75 94
60 73 92
65 80 102
61 75 95
65 79 100
56 68 86
61 74 94
63 77 99
60 73 93
70 85 108
66 80 102
67 81 104
60 73 93
61 75 95
66 80 101
67 82 105
64 78 100
66 81 103
61 75 96
61 75 95
58 71 91
59 73 93
65 81 105
68 83 107
66 82 104
64 78 100
67 83 106
64 79 101
67 82 106
63 76 96
66 81 103
63 77 97
64 79 102
65 80 103
68 83 106
65 80 102
63 78 99
63 78 101
65 80 103
61 75 96
67 82 104
66 80 102
61 75 96
64 77 97
67 83 106
59 73 93
68 84 109
68 83 106
67 84 108
69 85 108
66 82 106
61 76 97
65 79 101
63 78 100
65 81 104
64 79 101
73 90 115
66 82 106
66 81 103
64 80 103
65 80 104
67 83 107
66 81 104
63 78 100
64 79 102
67 82 105
67 84 108
64 79 102
71 86 110
72 90 116
68 83 107
69 86 112
68 85 112
69 85 109
68 84 109
72 90 117
65 81 105
66 82 107
69 86 111
73 91 117
62 77 100
66 81 105
70 88 114
69 86 111
68 84 110
67 83 107
70 87 112
69 86 112
73 90 116
71 88 114
72 90 116
73 90 116
71 87 112
69 86 112
74 92 118
71 88 114
73 90 115
72 89 114
72 90 116
68 85 110
75 93 119
71 89 115
68 85 110
69 86 111
71 88 114
70 87 112
71 88 113
68 84 109
72 89 115
67 83 107
73 92 120
71 87 112
72 90 116
75 93 121
73 90 116
70 87 113
73 90 116
69 87 114
72 90 116
72 89 115
74 92 120
72 90 116
74 92 120
75 93 119
73 90 115
75 92 118
70 88 113
73 90 116
72 89 115
73 90 117
75 92 117
77 94 121
72 91 120
75 93 121
69 87 112
69 85 111
71 89 117
75 93 121
70 86 111
77 94 121
70 87 113
75 93 119
75 93 120
75 93 119
72 89 115
75 92 119
73 92 119
72 90 116
79 97 123
75 93 120
70 87 114
72 90 117
75 93 121
72 90 117
71 88 113
74 92 118
69 86 111
73 91 119
73 91 117
73 91 118
74 93 120
72 90 116
68 85 111
73 92 119
74 91 117
73 90 117
73 91 117
77 95 122
74 92 119
74 90 115
74 92 120
74 92 120
71 89 115
76 94 120
75 95 123
71 88 114
74 92 119
76 94 122
77 95 122
75 94 121
73 91 118
73 92 121
76 93 120
76 94 122
74 92 119
77 95 121
71 89 114
72 90 117
73 91 118
72 89 115
73 91 118
76 94 121
75 93 119
74 92 120
74 92 119
73 92 119
73 91 118
76 95 123
70 88 114
69 87 114
76 95 122
77 96 124
73 90 117
77 95 122
77 95 123
74 92 119
70 88 114
72 89 114
72 90 116
75 94 122
71 89 115
71 88 114
69 86 113
75 93 121
75 94 122
72 90 117
73 90 116
72 89 115
73 90 117
71 87 112
70 88 113
71 88 115
73 90 116
74 91 118
71 89 115
74 91 117
73 90 117
74 91 116
76 94 120
71 88 114
70 87 112
72 89 114
74 92 118
72 90 117
73 91 117
69 86 112
73 91 119
71 87 112
70 87 112
70 87 112
70 87 111
68 87 114
75 93 120
75 91 117
73 90 116
65 81 105
76 93 119
69 86 111
71 88 113
71 88 112
71 87 112
67 84 110
71 87 112
70 87 113
65 82 107
70 87 112
73 90 117
71 87 111
74 91 116
70 86 112
75 92 117
73 91 118
70 86 110
73 89 114
75 92 118
71 87 112
73 90 116
68 84 108
66 81 105
70 87 113
71 88 114
69 86 110
72 89 115
73 89 113
68 84 110
73 90 115
68 85 110
74 91 117
67 84 108
69 86 111
64 80 103
70 87 112
70 86 111
69 86 111
69 84 107
61 75 95
69 85 109
69 84 107
69 84 107
70 87 111
67 82 106
69 87 113
70 86 110
68 84 108
67 83 108
70 86 111
68 84 108
66 83 108
70 87 112
60 74 95
69 86 112
65 80 104
64 79 101
67 82 104
61 76 97
67 82 105
68 83 106
67 82 104
63 79 102
62 76 97
64 80 104
65 81 106
70 86 112
66 80 102
68 83 106
64 79 100
68 83 105
61 76 99
66 80 103
66 82 105
61 76 98
63 77 98
70 86 110
68 84 108
61 74 95
65 79 101
70 86 109
64 78 100
65 80 102
66 81 103
67 81 103
67 81 104
65 80 103
64 78 100
63 77 98
66 79 100
60 73 93
60 74 95
59 73 93
61 75 97
65 80 102
62 76 98
64 78 99
62 75 95
67 81 102
64 79 101
56 68 87
63 76 97
60 74 95
64 78 99
62 76 96
58 71 90
65 80 103
54 66 84
67 81 102
63 78 100
63 77 97
58 71 90
60 72 91
60 73 93
64 79 101
62 75 94
59 73 93
60 73 92
60 72 91
63 76 97
57 69 88
57 71 91
60 74 94
58 71 90
62 76 97
61 76 97
56 68 87
61 75 95
64 78 100
62 76 97
57 70 89
58 71 91
64 78 99
61 75 95
64 78 99
58 71 90
57 70 90
62 75 94
64 79 101
60 73 93
58 71 91
63 77 98
59 72 92
67 82 103
64 78 100
63 77 98
59 73 93
68 83 106
61 74 95
59 73 92
63 78 99
62 76 97
62 75 96
58 71 90
64 78 99
62 77 98
65 79 102
57 69 88
63 78 99
63 77 98
61 75 96
62 76 96
66 81 104
58 71 90
59 72 92
65 80 103
63 77 98
65 78 99
62 77 98
61 75 97
66 82 106
67 83 105
66 81 103
65 79 100
58 71 91
61 75 96
64 77 97
65 80 102
70 86 110
66 82 105
59 72 92
62 76 97
65 81 104
64 79 101
67 83 106
66 81 103
63 79 103
61 75 96
61 76 97
66 82 105
65 80 102
64 79 101
63 77 98
64 78 100
66 81 104
63 77 98
63 77 98
61 77 100
67 83 107
62 77 99
68 84 109
69 84 106
68 83 106
74 90 114
66 82 106
69 86 111
70 87 111
66 81 105
67 83 106
66 81 104
64 79 101
65 80 104
73 90 114
64 79 102
70 86 110
67 83 108
70 87 113
66 82 105
69 86 110
67 82 105
65 80 102
70 86 110
69 86 112
65 80 102
66 82 105
71 88 113
67 82 105
69 84 108
63 79 102
69 86 111
71 88 112
66 82 107
74 91 116
67 83 106
64 80 104
66 82 106
66 81 104
67 83 106
71 87 113
70 86 110
71 90 117
66 81 104
73 90 116
68 85 111
69 86 112
70 87 112
71 87 112
69 86 111
71 88 114
71 87 112
69 87 113
68 84 109
69 86 110
71 87 111
72 88 113
72 90 116
70 87 113
69 85 109
73 90 115
71 87 112
73 91 117
66 83 109
70 88 116
72 89 114
71 88 113
69 86 112
72 89 115
75 93 120
68 85 110
74 91 117
70 87 113
69 87 112
66 83 107
71 89 116
72 90 116
75 93 120
72 89 115
70 88 115
72 90 115
69 86 112
72 90 117
69 86 112
72 90 115
75 93 120
73 92 120
74 92 119
75 92 117
73 89 114
72 91 118
72 90 117
76 94 121
74 92 120
74 90 115
73 92 119
72 89 115
72 89 115
76 94 120
68 86 112
75 94 121
76 94 121
73 92 121
72 89 116
76 95 123
73 91 118
74 92 120
73 90 116
76 95 122
72 90 117
74 92 119
72 90 116
72 91 118
69 87 114
73 91 118
72 89 115
76 94 120
77 95 121
76 94 122
75 93 122
75 95 124
75 93 120
75 93 120
72 90 117
76 94 120
76 94 121
72 90 116
79 98 126
76 94 121
75 94 121
73 91 118
75 93 120
73 91 118
73 91 118
72 90 117
76 94 122
77 96 124
75 93 121
73 90 116
76 94 122
74 94 122
74 92 118
74 93 120
75 93 121
74 91 118
74 91 117
76 95 122
72 89 116
77 96 125
76 93 119
75 92 119
71 89 115
76 94 121
74 91 117
75 94 122
76 94 121
72 90 115
75 92 118
72 89 115
75 93 121
72 90 116
74 93 121
74 92 120
75 93 120
74 92 119
76 94 121
74 92 118
74 91 116
75 94 122
75 94 122
72 90 116
71 89 115
74 92 118
71 89 115
73 91 117
72 90 116
71 89 116
69 85 109
74 91 116
72 90 118
75 93 120
76 94 120
73 91 117
75 93 119
73 91 118
69 87 114
72 90 117
74 91 117
73 91 119
73 91 118
72 91 118
74 91 118
74 91 118
70 88 114
73 91 117
71 88 113
71 88 113
73 91 118
70 86 111
68 85 111
74 92 119
70 87 112
71 90 118
75 93 119
72 89 114
70 87 113
76 93 120
68 84 107
71 87 112
69 87 114
70 86 112
74 92 119
68 84 109
73 90 114
72 89 115
64 80 103
70 87 114
69 86 112
69 86 111
72 90 116
66 82 106
67 83 108
69 86 111
65 82 107
70 85 109
68 84 109
69 86 111
70 88 114
65 81 104
68 85 111
67 83 106
67 82 105
64 80 104
69 86 110
73 90 115
66 82 106
68 84 107
64 80 104
71 89 115
71 88 113
68 84 108
67 82 106
68 85 110
67 83 107
68 84 107
70 87 112
72 88 113
67 81 103
67 83 107
66 81 103
66 81 104
61 76 98
68 84 108
69 85 110
66 81 105
66 81 103
69 85 108
60 75 97
64 78 99
64 78 100
65 81 103
62 77 99
70 86 109
63 77 99
65 80 102
65 80 103
70 86 110
66 82 106
63 77 99
66 81 104
64 80 104
67 82 104
63 78 99
61 74 94
62 76 98
65 81 103
64 80 103
66 80 101
68 82 104
66 81 103
67 83 106
64 79 101
64 79 101
63 78 100
65 80 103
63 78 100
61 75 96
61 75 95
59 73 94
63 77 98
63 77 98
63 77 98
58 72 92
64 79 103
60 72 91
67 83 106
63 77 99
57 70 90
63 77 98
60 73 93
62 76 97
64 78 98
61 74 95
61 74 95
59 73 94
60 73 93
65 79 101
64 78 100
62 75 96
63 77 98
64 78 100
66 80 101
60 73 93
58 71 91
60 74 94
61 75 95
64 79 101
65 80 102
60 73 93
58 70 90
54 67 85
64 78 99
59 72 92
62 75 95
60 74 95
61 74 94
65 80 102
59 72 91
56 69 89
63 76 96
58 71 90
63 77 97
59 73 93
56 69 88
57 70 90
64 77 97
63 77 97
65 80 102
62 76 98
67 81 103
64 78 99
56 69 88
66 80 102
58 71 90
61 73 93
64 79 102
63 77 98
55 67 85
56 69 87
60 73 93
61 74 94
61 75 97
61 75 96
62 76 98
59 72 92
64 80 102
67 82 104
56 68 88
63 77 99
59 73 93
64 78 98
55 68 87
62 74 94
61 75 97
62 77 99
56 68 87
58 71 91
62 75 96
61 75 95
61 74 95
61 74 94
61 75 95
62 75 96
65 80 102
63 78 99
63 76 96
62 75 96
65 81 105
62 75 95
64 79 101
68 84 107
66 82 106
65 80 102
66 81 102
66 81 104
65 80 103
69 85 109
63 78 100
65 80 103
67 83 107
66 82 105
65 81 105
66 81 104
68 83 106
63 78 99
67 83 106
66 82 107
66 81 104
64 80 103
63 78 101
63 77 97
67 83 107
62 77 100
68 83 107
62 77 100
65 80 102
64 78 101
64 80 104
69 84 108
73 89 113
69 85 109
65 80 104
68 83 106
67 83 106
68 83 106
72 89 114
65 80 102
69 85 110
66 81 104
72 88 114
68 83 106
62 77 100
69 85 108
70 86 110
65 80 102
68 84 109
68 83 106
68 83 106
69 85 109
72 88 113
67 83 106
70 86 110
68 84 107
71 87 111
75 93 120
71 88 113
70 86 111
75 92 119
65 81 106
73 90 116
63 78 102
70 86 110
68 84 109
70 86 110
70 86 112
68 85 110
68 86 112
70 87 112
73 91 119
73 89 115
67 83 107
68 85 110
69 86 111
69 87 113
71 88 113
70 87 112
72 88 113
74 92 119
74 91 117
72 89 114
73 90 117
73 91 117
74 91 117
71 89 115
67 84 111
71 88 115
68 85 110
70 87 112
73 91 117
68 84 107
71 89 115
71 87 112
72 89 115
69 87 112
72 90 117
72 89 115
71 89 117
73 89 114
71 87 112
70 87 113
70 86 111
70 88 115
74 93 120
74 91 118
75 93 120
73 90 116
73 90 117
74 92 120
67 85 110
75 93 120
70 87 114
69 86 111
76 94 121
77 95 123
71 88 115
71 89 114
75 93 120
72 90 116
73 90 116
72 89 116
75 93 120
73 91 118
80 98 126
74 91 118
71 89 116
73 91 117
75 93 120
75 94 122
73 91 118
73 90 117
71 88 114
74 91 117
77 96 124
76 94 122
73 92 119
75 93 120
73 91 118
75 93 121
72 90 117
74 92 119
72 90 116
75 93 120
76 94 122
73 92 120
76 95 124
76 94 122
73 90 116
74 93 122
76 94 122
74 92 119
74 93 120
74 93 120
77 95 123
77 95 123
77 95 122
74 93 122
74 94 123
75 93 120
75 94 121
76 95 123
77 94 121
75 93 121
74 93 121
77 95 121
76 94 121
69 87 113
73 90 116
74 92 118
74 91 116
78 96 122
72 89 115
73 91 118
75 93 120
73 91 118
73 91 116
71 88 114
74 93 121
77 94 121
73 91 120
74 92 118
72 89 116
71 89 114
68 85 111
75 93 121
72 90 117
76 93 119
69 86 112
72 90 116
73 91 117
74 91 117
74 91 118
72 90 116
69 87 115
73 91 118
74 91 118
73 90 116
71 88 114
70 87 112
76 94 121
70 88 114
73 91 118
71 89 116
74 92 120
73 90 116
74 91 116
73 91 119
73 90 115
72 89 115
73 90 116
71 89 115
69 86 111
75 92 118
72 88 114
71 89 116
70 88 113
70 88 115
73 90 116
71 88 114
72 88 112
72 90 117
73 91 118
71 88 114
74 92 119
70 87 112
69 86 111
71 88 113
71 88 115
70 86 110
72 89 114
73 91 117
72 88 113
65 80 104
73 90 115
71 88 114
69 88 115
72 89 115
69 86 111
71 88 113
73 91 118
69 85 109
71 88 113
71 87 111
69 86 112
68 83 106
68 85 110
71 88 113
70 85 108
66 82 106
67 84 108
72 89 114
68 84 108
76 94 120
66 82 106
70 86 111
72 91 118
66 82 106
68 84 107
68 84 109
66 82 107
73 90 115
67 83 108
66 81 103
71 88 114
67 82 104
72 88 113
70 86 109
67 84 110
67 83 108
65 80 103
67 82 105
68 84 108
66 83 108
68 85 110
71 88 113
64 80 103
65 81 105
65 81 104
67 83 108
68 84 109
63 78 101
68 83 106
70 86 110
66 82 105
68 84 108
66 81 104
63 77 99
65 80 103
67 82 104
67 82 104
62 75 96
64 79 103
64 79 101
69 84 108
67 82 104
65 81 104
65 79 101
64 78 98
65 80 103
64 79 101
67 83 106
63 77 97
64 79 102
60 75 96
68 83 106
64 80 102
66 81 103
59 72 93
61 74 93
64 78 99
65 80 103
64 79 103
63 77 99
57 70 90
66 81 103
61 75 95
66 82 105
65 80 101
63 77 99
56 69 89
63 77 97
64 78 99
61 75 95
62 74 93
65 80 101
64 78 100
62 76 97
57 70 90
63 78 100
61 75 96
66 81 104
60 75 96
61 75 96
63 77 98
61 76 98
64 78 98
59 72 91
63 77 99
60 74 94
65 80 102
60 73 93
60 73 92
57 69 87
59 72 92
62 77 98
58 71 90
64 78 98
58 70 89
56 68 88
63 77 98
62 76 97
60 74 94
57 70 90
67 81 101
63 76 97
59 72 91
65 80 102
65 79 99
60 73 92
59 72 93
57 71 91
65 79 100
64 78 99
63 77 98
62 76 98
64 77 98
58 71 91
61 74 94
62 75 96
63 77 98
65 81 105
59 72 91
63 77 99
63 77 99
67 82 105
66 81 103
63 77 98
66 79 100
60 73 93
58 72 93
64 78 98
61 75 96
59 73 94
59 73 94
61 75 96
67 82 105
64 78 98
61 76 98
62 76 97
62 75 96
65 80 102
70 86 110
59 73 94
63 77 98
56 69 88
64 77 98
67 82 104
63 77 99
65 80 102
61 75 96
67 82 105
64 80 103
62 76 98
64 78 99
58 73 95
64 78 100
62 75 96
67 83 106
70 85 108
62 77 98
65 80 104
69 85 108
69 84 106
64 79 102
70 85 108
64 78 99
63 78 100
70 86 111
66 82 105
70 86 109
62 77 99
69 86 112
63 78 101
64 79 102
70 87 112
66 83 107
70 86 111
72 88 112
62 77 100
66 82 105
67 82 106
65 81 105
68 84 108
67 83 106
66 81 105
69 84 108
65 81 105
65 81 106
67 83 107
68 84 108
69 86 112
65 80 102
70 87 113
66 81 104
68 84 109
67 82 105
69 84 107
70 88 115
72 89 116
68 83 106
66 83 107
75 93 120
68 84 109
66 82 106
69 85 110
68 84 108
71 87 111
68 84 108
73 89 114
67 84 108
66 82 105
67 82 105
72 90 116
71 87 112
67 84 109
74 91 116
72 88 112
67 83 107
73 89 113
71 87 112
69 87 115
71 88 112
70 87 112
72 89 114
70 86 110
69 85 111
73 90 116
67 83 108
67 83 107
69 86 111
72 89 114
66 81 105
70 86 110
72 89 114
67 84 108
68 84 108
74 92 120
74 92 119
75 92 119
75 93 120
70 87 112
70 88 114
76 93 118
74 92 118
71 88 114
73 91 117
74 92 119
73 91 117
72 89 116
73 91 119
71 89 116
69 86 110
74 92 119
71 89 116
70 89 116
75 94 121
69 86 112
74 92 119
71 88 115
74 92 120
75 92 119
75 92 118
73 91 118
73 91 118
73 90 115
74 91 118
70 88 115
73 91 117
68 85 111
74 92 118
74 93 120
73 90 116
75 93 121
71 89 116
75 94 123
75 93 120
76 94 122
75 94 123
74 93 122
74 91 118
73 90 115
76 94 121
76 95 123
77 95 122
70 88 114
76 94 122
73 91 118
75 94 122
73 91 118
75 92 119
73 91 118
74 94 122
74 91 117
74 93 121
77 94 120
71 90 117
74 92 120
76 94 121
75 93 119
71 88 114
73 91 117
73 90 117
75 93 120
72 90 117
73 91 119
75 94 121
76 96 124
70 88 114
74 91 117
74 93 122
76 95 122
74 91 118
73 91 119
76 94 121
72 90 117
76 94 121
76 94 122
72 90 117
76 94 121
75 92 119
75 92 119
75 93 120
73 91 118
74 91 117
74 92 119
77 95 123
76 94 121
75 94 122
72 89 116
75 93 120
74 92 119
70 87 114
76 94 120
72 89 116
77 95 123
75 94 121
72 90 116
75 93 120
75 92 118
76 95 124
72 90 116
73 90 115
71 88 113
74 92 118
74 92 120
74 91 117
72 89 116
72 89 116
75 92 119
73 90 115
72 89 114
72 89 115
70 88 113
73 91 117
76 94 120
72 89 114
75 94 121
71 89 116
73 90 116
70 87 112
74 92 118
68 86 112
74 91 117
74 91 117
73 90 117
73 90 116
71 89 115
72 89 115
68 85 111
73 91 117
71 88 114
72 89 116
74 91 116
68 84 109
68 85 109
73 90 115
69 86 112
68 84 107
70 87 113
69 85 110
73 90 117
70 87 112
70 87 112
69 85 109
71 88 113
73 90 116
70 87 113
70 86 110
71 88 114
72 89 115
67 84 108
69 86 111
67 85 110
66 82 105
72 90 117
67 84 108
68 85 110
66 82 105
73 90 117
70 87 113
73 90 116
66 82 106
70 87 113
62 77 99
66 82 105
72 89 115
68 84 108
69 85 109
68 85 110
68 84 108
69 84 108
69 84 108
68 85 110
69 85 110
71 88 114
69 85 109
67 83 106
73 89 114
65 80 102
67 84 110
69 85 109
70 87 112
67 83 107
66 83 108
69 84 108
67 83 107
63 79 102
65 80 103
62 76 98
66 81 103
66 82 106
68 84 107
67 83 106
72 88 112
72 88 113
63 77 98
63 78 100
68 84 107
66 81 104
65 80 104
65 79 101
66 82 105
66 81 105
62 77 99
63 78 100
65 80 102
63 77 99
69 85 108
60 74 96
63 77 97
67 84 108
65 79 101
69 84 108
66 80 101
65 81 104
67 82 105
65 80 103
61 74 94
64 80 103
69 85 108
61 75 96
59 72 91
66 81 104
65 80 103
61 75 96
64 79 102
65 79 101
62 76 97
66 80 102
66 81 102
60 73 93
60 73 93
60 74 94
64 78 100
62 76 97
61 75 96
65 81 104
66 82 105
60 74 94
59 73 93
62 76 96
51 64 83
63 78 99
59 72 92
62 76 96
63 78 99
63 77 98
65 80 101
63 77 99
63 76 97
63 77 99
60 74 93
62 75 94
57 70 89
63 77 99
58 71 89
60 73 93
59 73 92
59 72 92
59 72 91
63 77 98
62 76 97
64 78 99
64 78 100
61 74 95
56 69 87
69 85 109
64 78 99
59 72 91
65 79 102
62 76 97
58 72 92
64 78 100
66 81 103
64 79 100
61 74 94
64 78 99
63 77 98
61 74 93
60 73 93
66 80 102
61 75 97
61 75 97
64 78 99
61 75 95
60 73 93
62 76 97
57 69 88
59 71 90
57 71 91
67 82 105
59 73 93
63 78 99
61 75 94
62 76 97
55 68 88
61 75 94
64 79 101
66 81 104
62 76 96
64 79 101
70 85 109
63 77 99
65 80 102
61 75 97
64 78 101
61 75 96
65 78 99
65 80 103
58 70 90
63 78 100
63 78 99
63 77 99
65 80 102
65 80 102
63 78 100
62 76 97
60 72 91
65 80 102
66 80 101
64 78 100
66 80 101
61 75 97
62 76 96
62 76 98
70 87 112
64 80 103
65 80 102
70 85 107
66 81 104
66 81 104
66 81 105
68 83 107
62 77 99
65 79 101
67 83 105
65 80 102
67 83 108
67 82 106
71 88 112
62 77 99
64 79 100
66 81 104
71 88 113
65 79 101
66 81 105
66 82 106
66 82 107
66 81 104
65 81 104
66 82 106
69 85 109
68 84 107
62 77 99
68 84 107
66 82 106
69 86 110
70 86 110
69 86 111
72 90 116
71 87 112
65 80 102
69 86 111
69 86 110
73 90 116
71 88 113
68 84 109
71 87 112
68 84 109
62 78 101
66 81 104
69 86 111
70 86 110
69 85 110
67 83 107
72 90 116
70 87 113
70 87 113
74 91 117
72 90 117
69 86 111
73 90 115
69 85 109
69 87 113
71 89 117
71 88 112
69 85 110
69 86 112
70 86 111
74 91 117
68 85 110
72 89 116
69 85 109
70 87 112
71 86 110
69 86 111
74 90 116
73 90 116
71 88 113
73 90 116
77 95 122
69 86 111
71 88 112
72 90 116
76 94 121
71 89 115
74 91 118
66 82 107
75 93 120
68 84 109
70 88 114
70 88 115
73 90 117
75 92 117
71 88 115
74 91 116
71 87 111
72 88 112
74 91 117
71 90 117
74 92 119
74 92 118
74 92 119
73 91 117
76 93 120
74 92 120
72 89 115
72 89 114
75 93 120
74 92 118
73 91 117
76 94 121
71 89 115
77 96 123
70 87 113
74 92 119
71 88 113
73 90 117
74 92 120
74 92 119
75 94 121
73 90 115
74 92 119
71 88 114
74 93 122
70 88 116
75 93 121
70 88 114
76 94 121
75 93 120
72 90 117
72 90 116
73 91 117
71 89 116
74 93 121
74 91 118
74 93 122
75 92 117
75 93 120
72 90 115
75 92 117
76 93 120
76 93 119
74 91 117
75 93 119
71 89 116
76 95 122
75 93 120
73 91 118
73 90 115
73 91 118
74 92 119
75 94 122
75 93 120
77 95 124
75 93 121
74 92 119
76 94 120
75 93 120
76 94 122
75 94 121
70 86 112
75 93 121
71 89 116
74 92 118
72 90 118
75 92 118
74 92 119
75 93 120
69 87 114
75 93 121
69 86 112
73 92 119
74 91 117
76 95 123
71 89 115
74 92 120
74 91 117
74 91 117
69 86 111
75 92 117
75 93 120
75 92 118
73 90 117
73 90 117
75 93 119
75 93 120
73 90 117
70 87 113
73 90 117
71 88 115
78 97 125
73 90 116
70 87 113
74 92 118
72 89 116
71 89 115
74 91 117
71 88 114
72 89 114
69 87 112
75 92 118
68 85 109
71 89 116
73 91 118
69 86 111
64 80 105
72 90 116
74 91 118
70 88 115
71 88 112
71 89 117
65 81 105
68 84 109
67 84 109
75 93 120
72 89 115
70 88 114
69 85 108
72 90 117
69 85 110
69 87 114
72 88 112
71 88 115
71 88 113
72 90 115
71 88 113
68 85 111
70 86 111
68 84 108
72 91 119
72 89 114
68 85 109
69 86 112
70 87 113
68 85 110
68 84 107
75 92 117
70 86 110
67 84 109
67 84 108
73 90 117
64 79 102
68 84 108
67 83 106
73 89 113
69 86 111
66 83 107
71 88 113
72 90 115
72 88 113
71 87 110
68 83 105
68 84 109
70 88 114
65 81 105
69 85 108
70 86 111
66 81 103
66 81 105
67 83 107
68 83 105
72 89 115
70 86 111
65 80 103
66 82 105
68 83 106
71 89 115
70 86 109
67 83 107
69 84 108
70 86 110
70 86 110
66 82 105
62 77 100
64 79 101
64 79 103
71 87 110
68 84 109
67 81 104
67 84 108
69 85 109
63 76 97
64 78 101
63 78 101
64 79 101
64 78 100
62 77 100
68 84 108
66 81 104
64 80 104
66 80 102
64 79 101
58 72 92
64 79 101
60 75 96
66 81 104
63 78 100
63 78 99
62 76 97
66 81 103
63 77 98
64 78 99
67 82 104
68 82 103
64 78 100
69 84 107
68 84 107
61 75 96
63 77 99
65 79 100
60 73 93
66 80 101
60 74 94
64 78 99
61 74 93
63 77 99
59 73 93
63 77 99
66 81 104
59 72 92
59 73 93
62 75 96
67 81 103
64 78 100
63 78 100
62 76 97
60 74 94
60 74 95
59 71 90
59 72 92
61 74 94
60 74 96
64 78 100
64 78 100
64 79 101
63 78 100
59 72 91
62 75 96
63 76 96
59 74 95
63 76 96
60 74 95
55 67 86
59 73 94
63 78 100
63 76 96
66 80 100
63 76 96
60 74 95
59 71 91
62 77 99
65 79 101
64 78 101
62 76 98
66 80 102
61 75 95
56 68 88
64 79 101
67 82 104
61 75 95
62 74 93
66 82 105
58 72 92
59 72 92
61 75 95
59 72 92
62 76 98
65 80 103
71 87 110
68 82 104
63 76 96
57 70 90
62 76 97
66 80 102
63 76 97
63 78 99
64 79 102
60 73 94
58 72 92
61 75 96
58 72 92
58 72 92
65 80 102
65 80 102
65 78 99
67 82 106
65 79 101
62 76 98
64 79 102
67 82 105
68 84 107
65 79 100
67 83 107
65 80 103
61 74 95
65 79 101
65 81 104
63 78 100
65 80 101
65 80 103
66 81 103
65 79 102
66 80 102
62 75 95
63 78 101
65 80 102
66 81 104
67 82 105
65 79 100
68 83 107
61 75 96
67 82 105
69 85 109
66 81 103
65 80 103
65 80 103
67 83 106
65 81 105
69 85 110
67 82 104
69 84 107
72 88 112
70 86 110
67 83 109
65 80 104
64 80 105
68 85 109
66 82 106
64 80 104
72 88 113
73 90 116
67 83 107
64 79 102
66 81 105
66 82 105
67 83 108
71 87 111
70 86 111
66 81 104
69 86 110
71 88 112
66 81 105
70 86 111
70 86 110
72 90 117
74 90 115
70 86 111
71 88 113
71 88 114
67 84 108
71 88 113
68 84 107
62 78 102
73 89 114
70 87 112
68 84 108
68 84 108
70 86 111
68 85 109
71 88 113
67 83 107
69 85 110
69 86 111
73 90 115
70 88 115
72 89 115
69 85 109
65 82 108
72 89 114
73 91 118
72 89 114
70 86 111
73 91 118
68 84 109
68 85 110
72 90 116
70 87 113
73 90 115
70 87 114
72 88 113
72 90 118
71 87 112
69 86 112
73 90 116
71 88 113
70 87 112
78 95 122
73 90 116
73 91 119
71 89 117
74 92 119
73 90 117
72 89 114
71 88 113
74 91 118
75 91 116
74 92 119
73 91 119
72 89 115
76 94 121
73 91 117
72 90 116
75 93 120
69 86 111
72 90 117
73 91 117
71 89 115
71 88 114
71 87 113
75 94 122
73 91 118
71 89 116
74 91 117
77 94 120
71 90 118
75 93 119
76 93 120
76 93 119
69 87 114
74 92 121
74 92 120
74 92 118
75 93 121
75 94 122
73 91 117
72 90 116
75 94 122
76 96 125
75 93 120
75 92 119
77 95 122
75 93 120
68 85 111
74 92 120
78 96 123
77 95 122
78 96 124
77 95 122
74 93 120
76 93 120
73 91 119
72 90 117
73 90 116
75 93 121
75 93 121
72 89 115
73 91 117
75 93 120
78 97 125
74 92 118
70 88 114
74 92 119
76 93 118
72 89 114
71 88 114
74 92 119
72 91 118
75 92 119
76 95 123
75 92 119
71 89 116
75 93 120
73 92 120
74 92 119
72 90 116
76 93 119
75 93 119
75 94 121
75 94 121
74 92 118
72 91 119
75 93 119
72 90 117
75 92 119
74 91 117
74 93 121
72 89 115
70 87 112
77 94 121
70 88 115
71 88 114
76 94 120
71 88 114
72 90 117
73 91 118
70 88 114
70 86 111
73 92 120
73 91 118
71 89 115
76 95 123
72 89 115
67 84 109
72 90 116
75 93 119
73 90 115
70 87 113
73 90 117
77 94 120
74 91 116
73 90 117
67 83 108
69 87 114
74 91 117
74 91 117
67 83 108
71 88 114
70 87 113
73 90 116
72 89 114
71 87 112
72 89 115
69 85 110
74 92 118
71 88 113
70 87 111
72 90 116
70 87 113
69 86 113
73 90 115
71 88 113
71 88 113
68 84 107
69 86 111
73 89 115
67 83 106
75 92 117
71 87 111
70 87 113
68 85 110
68 84 107
72 89 114
72 89 115
69 86 110
69 86 111
69 85 110
69 86 111
71 87 112
67 83 108
65 80 104
72 89 114
68 85 110
69 85 110
71 88 114
72 89 115
71 88 112
67 84 108
71 87 113
68 84 108
69 86 112
71 87 111
66 82 106
71 88 114
69 84 108
68 84 108
69 85 108
65 81 104
67 82 106
66 80 102
72 89 114
69 84 108
72 89 114
68 83 106
70 87 111
62 77 100
66 81 105
65 81 104
67 83 108
71 88 113
66 82 105
68 83 105
63 78 99
70 86 111
61 74 95
67 83 108
57 71 92
63 78 100
70 86 110
66 82 106
72 87 110
65 81 106
69 84 108
65 81 106
65 79 101
64 79 100
64 79 101
66 82 105
69 85 108
67 81 103
63 77 99
69 84 107
60 74 95
64 79 100
62 77 98
65 79 102
62 76 97
60 74 95
67 83 106
64 80 102
69 85 108
61 75 95
59 73 93
67 83 106
66 81 104
60 75 97
67 82 104
66 81 103
58 72 93
63 78 99
60 74 95
58 71 91
59 72 92
65 80 103
62 78 102
61 75 96
63 77 97
60 73 93
67 83 106
61 75 97
62 76 98
61 74 95
64 79 102
56 68 88
65 81 104
60 74 94
62 75 95
63 78 100
62 76 97
62 77 98
65 80 103
62 75 96
62 76 97
63 77 98
62 76 96
66 82 105
64 78 99
64 79 101
64 79 102
62 77 99
65 79 100
58 71 90
56 69 89
57 70 88
68 83 106
67 83 106
58 72 93
58 72 92
64 78 100
58 72 92
65 80 102
61 75 97
58 72 92
62 76 97
65 79 99
59 72 93
66 81 104
61 75 96
63 77 98
58 71 91
60 74 95
63 77 98
66 80 102
63 77 99
58 71 92
65 79 101
65 79 101
61 76 98
61 75 95
70 86 109
59 73 94
65 80 102
64 79 101
65 80 102
64 78 100
63 77 99
63 78 100
63 77 99
64 79 101
62 77 98
65 80 102
61 75 95
64 79 101
62 76 96
60 75 96
67 82 104
67 82 105
67 81 104
62 75 96
57 70 90
64 79 102
63 77 98
62 75 96
67 82 105
68 84 108
69 85 109
61 75 95
68 83 106
67 82 104
66 81 104
65 79 100
68 83 107
67 82 106
61 75 96
60 73 93
66 80 101
65 81 105
68 84 107
68 83 105
68 83 105
62 77 99
63 78 99
69 85 110
68 84 106
65 80 102
69 85 109
65 79 101
69 85 108
65 80 103
67 83 106
65 80 103
71 87 111
65 81 105
65 81 105
64 79 101
68 85 110
64 80 102
66 82 106
70 86 110
64 79 101
64 79 102
68 83 106
70 87 112
66 81 103
69 85 109
67 83 107
67 83 107
68 85 111
71 88 114
67 84 109
68 85 110
67 83 107
72 89 115
70 87 113
69 86 110
69 87 113
68 83 107
68 84 109
67 82 105
70 87 112
73 90 115
70 86 110
72 90 117
69 85 109
69 86 112
71 87 111
68 85 111
72 87 110
72 89 114
69 85 109
68 84 109
68 83 107
69 85 110
71 89 117
68 85 111
67 83 107
68 85 110
71 87 111
73 90 116
71 88 113
72 90 116
68 84 110
72 89 115
69 86 112
70 87 113
73 91 118
75 92 117
72 89 114
67 84 109
74 91 116
70 87 112
74 92 118
75 92 118
70 87 112
64 80 104
72 90 116
67 83 108
71 85 108
71 88 113
71 88 114
74 91 116
74 92 118
74 92 118
72 90 116
70 88 115
75 92 119
70 87 114
74 91 117
73 91 118
72 89 116
73 91 118
73 92 121
75 94 123
72 90 117
73 91 118
77 95 121
71 88 114
75 94 122
75 93 120
75 93 120
75 93 119
73 91 117
73 91 118
73 91 119
71 89 115
74 92 119
69 86 111
70 86 111
74 93 121
73 90 116
75 93 120
75 93 119
74 93 120
71 89 116
75 93 120
73 91 117
74 93 122
76 94 121
69 87 113
74 91 117
75 92 119
76 94 121
75 92 118
74 92 120
72 90 116
75 93 121
73 92 119
73 90 117
72 90 117
76 95 123
75 94 123
74 91 117
75 93 120
74 92 119
77 96 124
75 93 120
74 91 118
73 91 118
73 92 119
73 91 117
76 94 122
71 89 116
72 91 119
74 91 118
72 90 116
73 92 119
74 91 116
77 95 122
74 92 120
70 87 114
75 92 119
77 94 121
74 93 122
75 93 120
77 96 124
74 91 117
72 89 115
77 95 123
69 86 112
74 92 119
74 92 119
76 94 120
78 96 122
75 92 118
71 87 111
71 89 116
70 88 115
76 94 121
73 90 115
71 89 115
74 92 119
72 90 117
74 92 118
75 92 118
74 91 116
75 92 119
74 91 118
70 87 113
73 89 114
74 91 117
73 89 113
76 94 122
71 89 114
72 89 114
74 92 118
75 93 121
76 93 118
74 92 119
74 91 118
70 89 117
73 90 114
75 94 121
69 85 110
70 87 113
71 89 115
71 87 110
69 86 111
73 91 118
71 88 114
68 84 107
73 90 116
69 86 111
67 83 107
74 92 118
72 89 115
69 84 108
72 90 116
71 88 114
71 87 112
74 91 118
72 89 114
70 87 113
72 90 115
72 90 116
71 88 113
75 93 120
67 84 108
72 90 117
68 85 109
72 88 113
71 89 115
72 90 116
73 91 117
72 90 116
68 84 108
68 84 109
70 87 113
71 88 112
70 87 112
68 84 107
73 89 114
67 84 109
72 90 117
68 83 106
71 88 113
69 85 109
66 82 105
68 83 107
70 86 111
67 82 105
69 85 108
70 87 112
63 80 104
64 80 103
68 84 107
63 78 101
68 85 109
67 83 106
70 87 113
74 91 116
65 81 104
64 79 102
68 83 107
68 85 110
64 80 104
69 85 110
71 88 113
60 74 95
64 79 101
65 81 104
69 84 108
64 79 102
63 77 98
71 88 114
67 82 103
67 82 105
74 92 118
68 83 107
70 86 110
70 86 110
66 82 106
73 90 116
69 85 108
59 72 92
65 80 102
66 82 106
64 79 101
72 88 111
65 81 104
65 79 100
70 85 107
63 76 97
63 78 100
63 78 99
69 84 107
62 76 97
67 82 105
64 78 100
58 72 92
68 82 104
64 79 102
65 80 101
61 74 95
67 82 105
58 72 94
64 80 102
68 82 104
65 80 102
68 83 106
61 75 97
68 82 104
66 80 102
62 76 98
66 80 102
61 75 97
69 84 107
61 75 95
65 80 102
65 79 101
63 78 100
64 80 103
59 73 94
62 76 97
66 81 104
61 75 95
63 78 100
67 82 104
63 78 100
61 76 99
69 84 108
59 72 93
60 73 94
63 77 98
63 78 99
65 80 102
66 82 105
63 76 97
63 77 98
69 84 106
62 76 98
61 74 93
61 74 95
58 71 90
61 74 94
57 70 89
59 72 92
63 77 97
58 72 93
61 74 94
69 83 105
61 76 98
63 78 99
62 75 96
64 77 97
57 71 91
67 82 103
63 78 100
60 74 94
66 81 103
55 68 88
62 76 97
66 80 101
67 81 103
65 79 100
54 67 85
64 78 99
62 76 98
63 77 99
59 73 94
67 82 104
63 77 99
64 78 99
66 81 104
62 77 98
67 82 106
60 73 93
67 82 105
61 74 94
60 74 95
60 75 97
66 80 102
68 83 106
63 77 97
63 77 98
64 78 100
65 80 102
66 81 104
63 78 100
67 81 104
65 80 103
63 77 100
69 85 108
66 81 104
59 73 93
66 80 102
63 78 101
62 76 98
65 80 103
60 74 95
68 84 107
66 82 105
67 82 105
66 81 104
67 82 105
71 87 110
72 88 112
62 76 97
69 85 108
70 85 109
67 83 107
64 79 102
69 85 109
66 81 104
67 83 108
65 80 101
68 84 107
63 78 100
65 80 103
64 80 103
64 79 102
64 79 101
71 88 114
65 82 106
67 83 106
67 83 107
70 86 111
67 83 106
62 78 101
65 81 104
70 85 109
67 82 106
67 83 106
66 81 105
71 87 112
67 82 105
67 84 109
70 86 110
70 86 111
67 83 107
65 81 104
66 83 107
68 84 109
69 86 112
63 79 101
66 82 105
65 81 103
72 89 115
70 86 110
65 80 102
73 90 115
68 85 111
64 79 102
71 87 112
67 82 106
73 90 116
73 90 116
71 88 114
70 87 113
71 88 112
73 90 116
73 89 112
71 87 111
73 91 117
66 82 105
66 82 107
72 90 116
72 89 113
71 88 114
71 88 114
68 84 109
72 90 117
69 86 110
69 85 110
74 91 116
73 91 117
71 88 113
74 91 117
76 93 118
71 89 116
72 90 117
72 89 115
70 86 111
69 86 112
71 90 119
76 93 119
75 93 120
69 87 113
72 90 116
70 88 114
73 90 114
71 88 114
72 89 114
71 89 115
73 91 119
74 90 114
74 92 119
75 92 118
76 93 119
74 92 118
75 93 120
74 91 117
70 87 114
72 89 116
74 93 120
70 88 114
72 90 117
71 89 115
73 91 117
75 93 119
73 89 114
77 95 123
75 92 118
74 92 119
72 90 117
71 88 113
73 90 117
74 93 121
70 88 116
69 85 110
77 94 121
76 95 122
76 94 121
76 95 122
73 93 122
75 93 121
73 91 117
74 93 121
75 94 121
73 90 116
73 90 115
73 91 118
76 95 122
72 89 115
74 92 119
74 92 120
77 95 122
73 90 116
73 91 118
72 89 115
75 93 121
73 90 117
76 94 121
76 94 122
76 94 120
77 95 122
76 94 122
73 90 116
74 93 121
74 93 121
74 91 117
74 92 119
76 94 121
73 92 120
74 92 119
73 90 116
74 93 120
70 87 111
75 93 120
75 93 119
72 90 116
71 89 117
72 89 116
73 91 119
74 91 116
72 90 117
72 90 117
74 92 119
73 91 118
72 90 116
72 89 115
74 92 118
76 94 121
72 89 116
75 94 121
76 94 121
73 90 116
76 95 123
72 89 115
73 91 118
74 91 117
68 85 111
73 91 118
74 91 117
72 89 115
74 92 118
71 88 113
74 91 117
69 86 112
71 87 111
70 87 113
69 87 112
73 90 116
71 88 114
72 88 113
76 95 123
74 92 118
73 90 115
72 89 114
66 83 108
73 91 117
72 89 115
75 91 115
73 91 118
72 89 115
75 93 119
69 86 112
68 85 109
70 86 111
70 88 116
74 91 118
74 91 118
67 83 109
71 88 115
71 89 117
70 87 111
70 86 109
73 90 116
73 90 116
73 90 116
71 88 114
73 90 116
72 89 114
74 91 116
69 86 111
68 85 110
70 87 111
72 89 115
69 86 111
67 84 109
66 83 108
70 86 110
71 87 111
74 90 115
74 90 113
70 87 112
72 90 116
65 80 103
64 78 100
66 82 106
69 84 108
65 81 104
64 79 103
71 87 112
68 85 110
70 88 114
69 85 109
71 88 114
70 87 112
72 88 112
69 85 109
67 83 106
73 89 114
66 82 106
60 75 96
66 82 105
64 79 102
63 79 103
65 81 106
67 82 105
69 85 108
67 83 107
64 79 102
69 86 111
71 87 111
62 77 100
65 80 103
68 83 106
69 84 108
69 86 111
69 86 111
65 80 102
66 83 107
68 84 107
63 77 98
70 87 112
66 82 105
66 80 102
63 78 101
67 82 105
64 78 99
68 84 108
64 78 99
60 74 94
60 75 96
59 73 94
61 75 97
61 74 95
64 78 100
62 76 98
65 79 100
58 72 93
65 81 104
68 83 106
61 75 95
63 77 98
64 79 101
65 80 103
68 82 104
70 85 108
61 75 96
67 83 105
59 73 95
62 76 97
66 82 106
66 82 105
61 75 96
64 78 100
62 77 99
63 77 99
65 79 101
65 80 102
65 79 100
65 79 101
63 77 99
64 79 101
62 76 97
67 82 104
66 81 104
60 74 95
62 77 99
58 71 90
61 74 94
69 85 108
65 78 98
62 76 96
58 71 89
62 76 98
61 74 94
62 77 99
62 75 95
65 79 99
58 71 90
56 69 88
57 70 90
64 79 100
65 79 102
63 76 96
66 81 103
62 76 98
62 76 98
61 75 96
56 69 88
60 74 95
63 78 101
61 74 94
63 78 99
59 73 93
67 81 103
57 71 92
61 75 95
60 74 94
61 75 95
60 74 95
66 80 102
66 81 103
60 73 92
63 76 96
66 82 105
60 74 94
61 75 96
66 81 103
65 80 103
63 78 101
59 73 94
67 82 104
68 84 106
66 81 103
63 77 99
67 82 103
63 78 99
62 76 97
58 72 93
61 75 95
66 81 103
59 72 91
59 73 95
65 80 102
62 76 97
64 78 98
67 82 104
64 79 102
60 73 94
63 77 99
65 79 101
64 79 101
70 85 108
65 80 102
68 83 105
64 78 100
65 79 100
68 84 107
65 80 103
64 79 100
57 71 92
66 82 105
67 83 107
66 80 101
60 74 94
65 79 100
67 83 107
68 83 106
63 77 99
64 79 100
66 81 104
63 78 100
67 82 105
60 74 95
68 83 106
66 82 106
66 82 105
63 77 100
61 76 97
67 82 105
65 79 102
64 79 103
67 83 106
71 87 112
67 82 104
59 75 98
68 84 108
60 75 98
68 84 108
69 84 108
67 82 105
65 81 105
68 83 107
63 78 100
66 82 105
68 85 109
71 87 112
68 85 110
69 85 110
67 82 106
67 82 105
69 86 110
68 86 112
70 87 112
65 81 104
68 83 106
65 81 103
64 80 103
69 85 110
70 86 110
69 85 109
69 85 109
67 83 108
71 87 112
67 82 105
69 86 111
72 89 114
69 85 111
68 84 107
69 85 110
69 84 108
69 86 111
67 83 108
68 85 110
74 92 118
70 85 109
66 82 106
72 90 117
73 90 116
69 86 111
68 84 108
70 87 111
73 90 116
72 89 116
67 83 108
72 89 115
75 93 120
70 86 111
71 88 114
67 83 108
73 90 116
72 90 116
66 81 104
71 89 115
73 89 114
72 90 116
70 86 111
75 93 119
72 89 115
64 80 104
72 90 116
73 90 117
73 90 116
73 91 118
75 92 119
72 89 115
71 88 114
72 90 117
70 88 114
72 88 113
70 88 115
72 89 116
74 92 119
73 91 118
72 88 114
73 91 119
71 88 113
68 86 112
74 92 118
71 88 114
75 92 118
74 92 119
77 95 122
69 86 112
76 94 121
69 86 111
74 92 119
74 92 118
76 93 120
74 91 117
74 93 121
73 91 118
74 91 117
72 90 115
73 90 116
74 92 119
76 94 120
72 90 116
78 95 120
72 90 117
76 94 121
74 92 119
73 92 119
70 89 116
74 92 120
72 89 115
74 91 117
73 92 119
76 94 120
74 92 120
74 92 119
72 89 115
71 89 116
75 93 120
74 92 119
73 92 120
71 89 115
74 93 121
74 92 119
75 94 121
73 91 117
74 93 122
78 96 123
72 90 116
74 92 119
76 96 125
73 90 115
74 92 120
74 92 120
76 94 121
74 93 121
74 92 119
72 90 116
75 94 122
75 92 119
76 94 120
74 92 119
71 88 115
72 89 115
76 93 120
71 88 115
74 92 118
72 91 118
73 92 119
74 92 119
76 93 118
75 93 119
73 92 120
75 93 120
72 91 119
77 95 123
73 90 116
75 93 122
70 87 114
77 94 120
74 92 120
73 90 116
75 93 119
76 94 121
71 87 111
72 89 114
75 93 120
71 89 116
68 85 111
73 90 116
74 91 118
74 91 116
69 87 113
69 86 111
75 92 118
73 90 115
72 88 113
73 91 118
72 90 115
74 92 119
72 90 117
74 92 119
72 88 113
74 90 115
69 86 112
75 92 117
71 89 115
68 85 110
70 87 113
72 90 116
73 90 115
73 90 116
69 86 111
69 86 111
69 86 110
71 89 114
74 91 116
66 84 110
71 87 113
71 88 113
67 83 106
68 86 112
67 84 108
69 86 111
72 90 116
72 90 117
73 90 116
66 82 106
72 90 116
66 82 105
71 87 112
73 90 115
68 84 107
69 86 111
71 88 114
70 87 112
68 85 110
72 88 112
70 86 110
70 87 112
73 90 116
64 81 105
69 85 110
72 89 115
71 87 111
67 84 108
69 85 109
64 78 100
65 80 104
68 85 111
63 79 101
68 84 109
70 86 111
66 83 107
67 83 108
68 84 108
63 78 100
69 86 111
68 83 106
64 80 104
65 80 103
69 86 110
62 77 101
67 83 106
70 86 111
70 87 112
62 77 99
66 82 105
68 83 106
71 86 110
65 81 105
67 82 105
66 82 106
67 83 107
57 71 92
67 83 108
67 83 106
71 88 113
63 78 101
67 82 105
65 80 103
64 79 101
65 81 104
69 85 110
64 79 102
63 77 99
63 77 98
66 82 106
64 79 101
56 70 91
64 79 102
68 84 108
64 79 102
68 83 106
65 79 102
60 74 95
69 84 107
67 82 105
66 81 104
68 84 108
66 80 102
62 76 97
69 85 108
62 76 97
62 77 99
63 77 99
61 75 96
63 77 97
62 76 97
59 73 93
63 79 101
64 78 100
60 74 95
70 85 109
63 78 100
65 81 105
62 76 97
66 80 102
64 78 98
62 75 96
63 78 100
66 81 102
60 74 94
65 80 103
65 79 101
71 86 109
64 80 103
61 76 97
61 75 97
62 76 99
66 81 103
61 75 96
63 77 99
63 78 99
60 74 96
63 77 98
64 79 101
60 73 93
61 74 94
61 75 96
63 77 98
58 72 92
67 82 105
67 82 105
61 74 95
67 83 107
63 77 99
64 78 99
60 74 95
64 79 101
63 78 101
58 71 91
60 74 94
65 79 101
63 77 98
60 75 96
61 76 99
61 75 95
62 75 96
55 69 90
57 70 90
67 82 104
63 78 100
63 77 99
64 78 99
61 74 95
65 80 102
62 76 98
65 80 103
62 76 98
66 80 102
70 86 109
63 77 99
65 80 102
64 79 100
64 79 100
62 76 97
63 76 96
65 80 102
65 80 103
65 80 102
65 80 102
67 83 106
66 80 102
62 75 96
63 77 98
65 80 102
67 82 105
61 75 95
69 85 108
66 81 103
66 81 103
59 72 93
66 80 102
63 77 99
64 78 100
69 85 109
66 82 105
67 82 105
66 80 102
63 79 101
68 84 107
65 81 103
62 78 101
70 85 109
67 83 106
63 76 97
62 77 99
65 80 103
68 85 110
62 76 98
65 80 102
67 82 103
65 80 102
68 83 106
64 78 100
67 82 106
70 87 113
67 82 103
68 84 107
66 81 103
67 83 107
68 85 110
70 86 109
67 82 105
61 76 98
63 78 101
70 86 110
66 82 106
63 78 99
69 86 110
63 79 102
66 81 103
70 87 111
69 84 107
67 83 106
71 88 113
69 85 109
71 88 114
70 87 113
68 84 108
71 88 114
69 85 110
70 87 113
70 87 113
73 90 115
74 91 117
69 85 109
67 83 105
72 89 114
71 87 110
70 86 111
70 86 110
70 86 110
70 86 111
60 74 96
69 86 110
64 80 103
70 87 111
68 85 110
73 90 115
70 87 112
68 84 108
69 85 108
70 86 111
67 83 106
70 87 113
69 86 111
72 89 115
67 85 112
74 90 115
68 85 111
66 83 109
72 89 114
69 86 111
69 86 112
69 86 111
71 89 116
72 90 116
70 87 113
72 88 112
73 91 119
69 86 111
72 90 116
70 88 114
70 87 111
71 89 116
70 87 113
70 86 110
71 88 114
68 84 109
70 87 113
73 90 115
73 90 116
74 92 118
73 90 116
71 88 113
72 88 113
71 88 114
71 87 110
74 92 118
71 88 113
75 93 119
71 88 112
70 88 114
75 93 120
71 87 112
73 91 118
76 94 120
72 89 115
73 90 115
71 88 114
71 89 114
77 95 122
73 90 116
72 89 116
74 93 121
70 87 113
74 92 119
73 90 116
76 94 122
72 89 115
77 95 123
74 92 118
71 89 115
74 92 119
72 89 114
74 93 121
72 91 118
75 93 119
72 90 117
72 88 113
73 91 118
73 91 118
76 94 120
75 92 117
73 91 118
76 95 123
77 95 122
72 89 115
72 90 117
75 92 119
72 91 120
75 93 121
77 95 123
74 92 119
78 96 123
78 96 124
75 93 120
74 92 119
75 93 119
73 90 117
77 95 123
71 88 115
72 90 117
75 92 119
75 92 118
71 88 114
76 94 121
73 91 117
75 93 121
73 91 118
74 92 118
74 91 117
71 88 114
75 93 121
71 89 115
72 89 114
75 93 120
72 90 117
74 92 119
70 88 115
75 92 117
74 92 120
71 89 116
71 89 116
73 90 116
69 86 111
71 90 117
73 90 116
71 89 116
72 90 117
71 88 115
77 96 126
76 94 120
73 91 117
74 92 119
73 90 116
75 93 121
72 89 114
71 88 114
71 88 114
72 90 118
72 89 115
71 88 114
73 90 116
74 91 118
72 88 114
71 89 116
73 90 116
72 90 116
72 89 115
71 87 112
75 94 122
71 89 115
72 89 115
69 86 112
73 90 116
72 89 115
71 87 112
69 86 111
68 84 108
72 90 116
71 88 113
69 86 112
75 93 120
70 87 112
73 91 117
71 88 113
70 88 115
70 86 111
70 87 113
73 91 118
71 88 114
70 86 110
68 85 110
69 86 110
69 85 110
67 83 106
71 88 114
71 88 114
71 88 113
75 92 118
72 89 115
70 87 112
72 88 114
69 85 110
74 92 118
67 82 106
69 85 110
74 91 116
62 78 102
69 86 112
68 84 109
67 83 107
72 88 114
72 89 113
66 81 104
69 85 109
73 90 114
70 86 111
73 91 118
68 85 109
65 81 104
64 80 103
66 82 106
66 82 106
66 81 105
67 83 106
66 82 107
63 77 99
72 89 113
70 86 111
66 82 106
66 83 107
71 87 111
71 88 113
74 90 115
70 87 111
67 82 104
67 83 107
66 81 105
69 84 108
66 82 106
70 86 111
68 84 107
65 79 100
68 84 110
68 84 107
66 82 105
67 82 105
66 80 102
71 88 112
67 83 106
64 78 99
66 80 102
64 79 101
69 84 108
65 81 104
67 82 106
67 82 104
69 85 109
63 77 98
70 86 109
65 80 103
62 77 100
65 80 102
66 81 103
66 81 105
66 81 104
63 77 100
67 83 106
59 72 91
66 81 105
63 78 100
66 81 104
70 86 110
64 78 99
62 75 96
65 81 104
65 80 103
62 77 99
63 77 99
64 79 101
65 80 102
60 74 96
62 76 98
61 74 94
65 79 102
66 80 103
68 83 107
67 82 105
69 85 107
63 77 99
61 74 94
69 85 109
61 76 97
62 75 96
69 84 107
63 77 99
61 74 94
62 77 98
62 77 98
66 80 101
65 79 100
65 80 101
60 74 95
63 78 99
62 76 98
66 81 103
57 70 89
63 77 98
66 80 101
57 70 89
60 73 93
61 75 96
59 72 92
65 80 102
59 73 94
70 86 110
64 79 102
64 78 100
64 78 99
62 77 98
63 77 98
65 80 101
62 77 98
65 80 102
62 76 97
66 80 102
62 77 99
61 74 95
63 77 98
64 79 102
57 70 90
65 80 102
61 75 95
63 77 98
64 79 100
62 75 95
65 80 102
64 79 101
54 67 86
61 75 96
66 81 104
61 76 98
64 78 101
68 82 104
62 76 97
65 80 103
66 82 106
64 78 99
65 80 102
69 84 106
63 78 101
68 83 105
66 81 103
61 76 98
66 81 103
63 77 97
63 78 100
68 83 107
64 78 98
60 75 96
65 81 104
66 81 103
61 76 97
65 80 102
66 80 102
67 82 105
68 84 107
65 80 102
62 76 97
70 86 111
71 86 110
66 81 103
65 80 102
62 77 100
63 78 99
66 82 105
65 81 105
65 81 104
66 82 105
67 81 104
71 87 111
67 83 106
62 77 100
67 84 108
71 87 112
70 85 108
70 85 109
67 82 106
67 83 105
70 86 111
65 80 104
72 88 113
70 86 110
64 79 101
70 85 108
67 82 105
67 84 108
69 86 111
71 88 113
66 82 105
69 85 109
71 87 110
67 83 108
69 86 110
71 86 110
73 90 116
66 83 108
72 89 114
69 85 110
66 81 104
68 85 109
71 87 111
67 83 107
72 89 114
69 85 110
70 87 112
67 84 109
69 86 112
71 87 113
72 89 113
68 84 109
68 84 108
67 84 108
67 82 105
67 83 107
71 89 116
69 85 110
67 84 109
67 83 107
68 85 110
68 84 107
72 90 117
69 85 109
69 86 110
65 81 105
68 84 107
71 87 111
71 89 115
71 89 115
69 87 115
71 87 111
70 87 112
73 90 115
66 82 107
75 92 118
73 90 116
75 93 120
73 90 117
69 86 110
66 83 107
73 90 117
70 87 113
70 87 113
74 91 117
73 91 117
75 92 118
72 90 117
74 91 117
74 92 119
71 89 116
70 88 114
69 86 111
72 89 115
72 90 116
72 90 116
71 88 113
71 88 114
73 89 115
71 89 116
73 91 118
75 92 119
73 90 116
68 86 112
74 92 119
74 91 116
71 89 115
74 93 121
72 89 116
71 88 113
70 86 112
76 94 121
74 92 120
74 91 117
72 90 117
71 88 114
75 93 120
74 92 120
72 89 116
68 86 111
70 88 115
77 96 124
79 98 125
76 94 120
76 93 119
76 94 122
73 91 118
72 89 114
74 93 120
77 95 122
77 95 122
74 92 119
75 93 121
73 90 116
76 95 123
74 92 118
78 95 122
76 95 122
77 94 121
72 89 115
74 92 119
76 94 121
73 92 120
74 92 120
74 92 119
73 91 119
75 92 119
69 87 114
74 93 120
75 92 118
72 90 117
76 94 121
75 93 120
71 88 113
74 92 119
72 89 116
74 91 117
73 90 116
71 88 114
72 89 114
69 85 110
71 89 115
72 90 117
76 93 119
71 89 117
70 86 111
75 92 119
73 90 116
70 87 112
73 90 117
74 91 118
76 94 122
73 91 118
75 93 120
72 89 115
73 91 119
72 91 119
74 92 119
75 93 121
73 92 119
69 86 111
71 88 114
74 92 119
73 90 117
70 88 115
71 88 114
72 90 116
70 88 114
70 87 113
72 90 116
71 87 112
70 88 114
72 90 116
71 89 117
72 89 115
70 88 114
70 89 116
70 86 112
73 91 118
74 91 116
69 86 112
74 92 118
70 87 112
73 90 117
71 89 115
73 91 118
65 80 104
72 90 117
74 90 116
74 92 118
74 92 119
70 87 113
71 88 115
69 86 111
68 84 109
73 89 115
66 82 106
66 82 106
71 89 116
74 91 117
70 88 114
72 90 116
74 92 120
68 86 112
71 87 113
75 92 119
69 86 110
69 87 113
68 85 110
67 83 108
67 83 107
70 86 111
68 85 110
65 82 106
67 84 109
72 89 115
67 83 106
74 90 115
68 84 108
70 86 110
65 80 103
65 82 106
60 76 99
72 88 113
74 90 115
75 90 114
68 84 108
69 85 110
70 87 112
66 83 108
70 85 109
62 77 100
67 83 108
70 87 111
68 84 107
66 82 105
70 87 112
75 92 117
70 85 109
64 80 105
63 77 99
67 84 109
70 86 110
64 78 99
68 84 107
67 84 108
69 84 107
63 78 100
65 80 102
67 83 107
67 82 105
67 83 108
66 81 103
64 78 100
67 83 106
65 80 103
70 85 108
65 80 104
61 76 97
67 83 106
65 79 100
64 78 100
68 84 107
62 76 97
64 80 104
67 83 106
62 77 99
66 81 104
64 79 101
64 79 101
62 78 102
68 85 111
67 82 106
68 83 105
63 78 100
62 76 98
65 80 103
66 81 103
66 80 102
65 81 105
71 87 112
69 85 109
60 74 95
59 71 90
65 80 102
65 80 102
66 81 104
61 77 99
66 81 103
67 82 105
66 81 102
60 75 96
64 79 102
65 80 102
64 79 101
61 75 96
63 78 100
63 77 99
65 79 102
67 81 102
69 85 108
65 80 103
66 81 103
64 79 100
65 79 102
58 71 90
62 75 96
59 72 92
58 71 91
62 76 98
68 83 106
65 80 103
59 72 93
60 74 95
66 80 102
63 77 99
63 78 99
62 74 94
61 74 95
67 81 104
69 84 107
63 77 98
57 70 90
58 72 92
65 80 102
67 82 104
63 78 100
63 77 98
65 80 102
63 77 98
61 75 96
64 78 100
66 82 107
63 77 98
56 69 88
66 80 101
59 72 92
60 74 96
63 78 100
61 75 96
66 80 101
64 78 100
64 79 101
65 79 102
66 80 102
64 78 99
69 85 108
64 77 98
63 78 100
63 78 100
66 81 103
63 78 99
64 78 100
66 81 103
61 75 96
60 73 94
61 75 96
65 80 102
66 81 103
60 74 95
64 79 101
63 78 101
62 76 98
69 84 108
68 83 106
63 78 100
65 80 102
62 76 97
66 81 103
58 72 93
67 82 104
66 82 106
65 80 103
60 74 95
63 79 102
67 82 105
65 79 101
66 81 104
62 76 98
62 76 98
66 80 102
64 79 101
70 86 110
63 77 99
66 82 106
70 86 108
66 81 104
68 83 105
61 75 97
62 77 100
71 88 114
68 84 107
68 84 108
66 81 104
64 79 102
65 80 104
68 85 110
67 81 104
68 84 109
67 83 106
65 81 105
67 83 108
71 88 114
70 86 110
64 78 100
68 83 106
64 78 99
66 82 107
64 79 102
63 79 102
67 83 107
69 84 108
68 84 107
71 88 113
68 84 108
72 88 114
67 83 108
69 85 110
72 89 115
68 84 109
66 81 103
69 86 110
69 85 109
71 87 111
71 88 113
68 83 107
75 92 118
70 86 111
68 84 109
70 87 112
68 85 111
70 86 111
71 89 114
73 90 116
68 84 109
71 88 114
70 87 111
69 87 113
70 87 111
65 81 104
72 88 111
71 88 114
71 88 114
69 86 112
69 85 109
74 91 117
66 81 105
71 88 114
71 88 113
71 89 115
71 89 115
71 87 112
73 92 119
71 87 112
72 89 115
73 90 117
71 88 114
71 88 114
69 85 110
69 86 113
71 87 112
74 92 119
73 90 116
71 88 114
68 84 109
71 88 113
73 90 117
70 86 110
73 90 116
73 91 117
72 90 117
72 90 118
71 87 112
68 84 108
71 89 116
70 87 113
73 91 119
71 89 115
73 91 117
71 89 115
75 93 120
69 86 112
70 88 114
77 96 125
71 88 114
74 90 116
74 92 119
74 92 119
72 90 117
76 93 120
74 93 121
74 92 118
72 90 117
74 92 119
70 87 112
70 87 112
71 89 116
73 89 115
73 91 118
72 90 117
73 90 116
74 93 121
71 89 116
74 92 118
70 88 114
70 89 116
73 91 118
75 93 119
74 93 121
73 91 117
75 93 120
71 88 114
73 90 116
72 90 116
75 93 121
72 91 119
75 94 122
72 90 116
76 94 121
75 93 120
74 92 119
73 91 117
75 93 120
75 92 119
74 91 118
74 91 117
69 86 112
74 92 119
70 88 115
72 91 119
72 91 119
74 92 121
74 92 118
74 92 119
74 92 120
74 92 118
72 90 116
71 89 115
76 95 123
73 92 119
74 90 115
73 90 116
73 91 117
73 91 118
72 90 117
75 93 120
69 88 117
74 91 118
76 94 122
75 93 120
75 93 121
70 86 111
71 89 116
74 92 120
71 89 116
74 92 119
71 89 116
72 89 115
77 95 123
74 91 118
71 88 114
73 90 117
74 91 117
72 90 115
76 94 122
70 86 112
73 90 116
73 91 118
73 90 116
72 89 116
73 90 116
69 86 111
69 86 110
74 92 118
72 89 115
71 88 113
70 87 113
72 89 114
77 95 122
71 88 115
74 92 118
73 89 114
72 88 113
73 89 114
72 89 115
68 85 111
72 89 115
69 86 111
73 90 117
69 85 109
72 90 116
72 89 115
71 88 114
69 85 108
67 84 109
70 87 112
74 92 118
71 88 114
72 90 116
69 86 113
71 88 113
72 88 113
65 81 107
73 90 116
66 83 108
67 83 106
68 84 108
66 83 108
68 84 108
69 85 110
73 90 116
67 82 104
70 88 115
71 87 112
70 87 113
69 85 109
67 84 108
69 85 111
70 86 111
68 85 109
74 91 117
71 87 112
67 84 108
68 84 108
71 87 112
72 89 114
71 87 112
68 84 107
61 76 98
70 86 112
69 85 111
70 87 111
68 84 108
66 81 105
72 89 114
71 88 114
70 87 111
65 80 104
68 85 110
70 86 110
69 85 108
71 88 113
67 82 106
70 86 110
68 84 106
65 80 104
66 81 103
67 82 104
68 84 107
67 82 106
68 84 109
69 84 107
68 84 107
69 85 109
70 86 110
66 81 104
64 78 100
68 84 107
66 81 104
62 76 98
69 85 108
65 80 102
61 76 99
67 83 106
67 83 107
63 77 98
70 84 106
65 81 104
63 77 98
65 80 104
68 84 107
60 75 98
66 80 102
67 82 105
62 76 98
65 80 104
62 76 98
65 79 101
69 85 108
64 80 103
63 77 98
69 84 108
66 82 105
67 82 104
67 82 105
67 82 105
64 79 102
61 76 97
70 85 109
69 85 110
62 76 97
64 79 102
64 79 102
65 80 102
66 81 103
66 81 104
66 81 103
62 76 96
62 77 99
68 83 106
58 71 91
61 74 95
59 73 95
67 82 104
63 77 99
62 77 100
65 80 102
68 83 106
64 78 99
58 70 89
62 78 101
58 72 93
63 77 99
64 80 103
64 78 100
67 82 104
60 74 94
64 79 101
62 76 97
62 76 97
62 76 98
63 77 98
64 78 99
65 80 103
64 79 101
57 70 89
67 82 103
65 80 101
60 74 94
60 73 93
58 72 92
61 76 97
64 78 99
59 72 92
63 77 99
64 79 101
55 69 90
63 78 99
61 75 96
65 81 103
70 87 111
65 80 103
63 78 101
67 83 108
66 81 102
63 77 99
64 78 100
60 74 94
66 81 104
63 78 100
63 77 98
62 77 99
67 82 105
65 79 101
65 81 104
66 81 103
69 84 108
64 79 102
69 85 108
68 83 105
70 85 109
62 76 97
66 81 104
66 81 103
64 79 100
68 83 106
62 77 99
67 82 105
67 82 105
65 79 101
67 82 104
65 79 100
62 76 98
68 84 107
67 82 105
67 82 105
70 87 111
65 80 102
68 85 111
72 89 114
66 81 104
67 83 108
67 83 107
65 81 104
63 77 99
68 84 109
69 84 107
66 80 102
66 81 104
63 78 100
67 83 106
62 76 97
63 78 101
65 81 106
68 83 107
66 82 105
63 78 99
67 83 107
65 81 104
64 79 102
68 85 109
65 81 105
64 79 101
66 81 103
69 85 110
65 81 104
67 82 106
69 84 108
70 86 111
70 86 110
64 79 102
70 87 113
74 91 115
65 82 106
70 87 111
67 83 107
66 82 107
66 82 105
70 88 114
69 86 111
65 80 104
66 81 104
70 86 111
69 87 113
69 86 111
66 81 105
68 84 106
71 87 111
69 85 110
72 88 112
66 81 104
71 88 113
67 83 106
72 89 115
69 86 110
69 85 109
67 83 108
70 87 112
71 88 113
71 87 112
69 86 111
74 91 117
70 86 110
67 83 107
68 84 108
71 88 113
75 92 117
70 88 114
75 92 118
69 85 110
71 88 114
72 90 117
71 88 114
74 91 117
71 88 114
72 88 113
71 88 113
69 86 110
72 89 115
70 87 112
72 88 114
70 87 112
74 91 117
70 86 111
70 87 113
72 90 117
70 87 113
73 90 116
67 84 109
73 90 116
70 88 113
72 90 116
72 91 118
71 88 114
73 92 119
69 86 110
77 95 121
73 91 118
69 86 111
73 91 117
68 85 110
72 90 116
73 91 119
73 90 116
69 86 112
73 90 117
69 86 111
70 87 112
72 89 116
70 86 111
75 92 118
73 91 117
73 90 115
69 85 111
72 89 115
72 89 114
73 90 117
70 87 112
75 94 122
69 86 112
72 89 114
73 90 117
77 94 120
72 90 117
75 93 120
74 92 120
72 90 117
71 88 114
74 92 119
72 90 117
74 92 119
74 91 116
75 94 122
71 89 115
77 96 123
74 93 122
74 91 117
75 92 119
72 90 118
76 94 120
74 92 119
74 92 120
73 92 120
72 89 116
73 92 120
76 94 121
73 91 117
73 91 117
73 91 119
76 94 121
76 93 120
76 94 121
76 95 123
76 94 122
73 91 118
75 92 118
75 94 123
75 93 119
74 91 118
74 92 120
74 91 118
75 93 121
76 94 122
75 92 119
70 87 113
74 92 119
74 91 117
72 89 115
74 91 116
73 91 119
71 88 113
76 93 119
75 92 117
71 87 112
72 89 116
73 91 118
72 90 117
73 91 118
72 89 114
74 92 119
71 89 115
75 93 120
70 86 111
75 93 120
72 90 117
72 90 116
69 87 114
74 93 120
70 87 112
72 89 115
70 87 113
71 87 111
67 84 109
69 86 112
69 85 110
73 90 116
70 88 114
73 91 118
69 86 110
72 90 117
68 85 110
73 90 117
72 89 115
70 87 112
72 89 114
73 91 119
72 89 114
73 91 119
73 90 115
73 91 118
72 89 115
75 92 119
70 86 112
71 88 114
72 89 114
73 90 116
71 87 112
70 88 114
69 86 111
68 85 110
69 86 110
72 88 113
70 87 113
72 89 115
71 87 112
69 84 108
69 86 111
70 86 111
70 87 111
73 91 117
70 87 113
69 85 110
73 90 115
65 81 105
70 86 110
70 87 112
69 85 108
69 85 110
72 88 112
72 89 115
68 84 107
67 82 106
65 81 104
70 86 110
72 91 119
70 86 110
69 85 110
72 88 113
68 83 105
68 84 107
68 84 109
70 86 111
70 87 112
70 87 112
68 84 108
68 84 108
67 83 108
70 86 111
70 86 110
70 87 113
69 85 110
63 78 101
66 81 104
64 80 103
67 82 104
66 83 108
68 84 108
69 85 110
65 80 103
71 87 111
67 83 108
64 80 103
68 84 109
63 78 100
70 87 112
65 81 104
67 82 105
69 85 110
67 82 104
63 78 101
66 81 103
64 80 103
69 85 108
64 79 102
68 84 108
70 85 108
64 80 103
68 83 106
61 75 95
65 81 105
65 80 103
63 77 99
67 82 105
63 77 99
63 77 99
63 77 99
64 79 102
67 82 104
62 77 99
67 82 104
62 76 97
62 77 99
66 81 105
63 79 102
69 85 107
63 78 99
66 81 104
63 78 99
61 74 95
63 78 100
67 82 104
61 75 96
65 79 100
67 82 104
63 76 97
60 74 94
62 77 101
72 89 114
61 74 95
69 85 109
60 74 96
64 78 99
59 73 95
66 80 101
63 77 98
65 80 103
58 72 92
71 87 111
62 76 96
62 76 97
62 75 96
61 75 96
63 77 99
66 80 102
69 85 108
68 83 106
65 79 100
66 82 106
67 82 105
62 77 99
66 82 105
66 80 101
61 74 95
64 78 100
67 83 106
61 76 98
62 76 96
69 84 106
66 81 103
63 77 99
62 76 97
63 78 99
62 77 98
62 77 98
68 84 108
67 81 103
67 82 105
66 80 101
68 83 105
60 74 95
67 82 105
63 76 95
59 73 95
58 72 93
61 75 96
61 75 97
63 77 98
69 84 107
68 82 104
59 72 91
65 80 102
65 80 102
60 76 99
66 80 101
65 79 101
66 81 103
59 73 92
63 77 98
66 81 104
62 76 98
64 79 102
63 77 98
63 79 101
66 81 104
68 84 108
62 76 98
59 73 94
65 81 105
67 82 105
70 87 112
65 80 103
69 84 107
67 84 108
64 78 98
67 82 104
68 84 107
66 81 104
64 80 103
65 80 103
65 80 102
66 81 103
69 84 106
67 82 105
65 80 103
62 76 98
64 79 102
71 87 111
67 82 106
65 81 104
65 81 105
63 78 101
67 83 106
61 75 96
66 82 106
63 78 101
66 81 103
68 83 107
66 82 106
64 79 102
70 86 109
70 87 111
70 86 110
69 86 111
67 82 105
59 74 96
71 88 112
63 77 100
67 83 108
69 85 109
65 80 102
68 84 108
69 85 109
66 81 103
74 91 116
65 81 105
72 90 117
69 84 108
72 89 115
68 86 111
74 91 117
70 86 111
65 81 104
71 86 109
71 87 112
71 88 112
66 83 107
68 85 110
71 88 114
68 83 106
73 89 114
68 85 109
73 89 114
67 83 107
69 86 110
68 85 110
66 82 107
71 87 113
70 86 111
69 85 109
69 85 110
70 86 110
67 83 107
71 87 113
66 82 106
72 88 113
71 88 115
71 88 114
68 84 107
70 87 113
70 87 114
76 93 118
73 89 114
70 87 112
72 90 117
73 90 117
75 92 118
74 92 117
70 87 112
73 92 119
70 87 112
68 85 111
72 88 112
71 88 113
70 87 112
71 89 114
73 90 115
71 88 114
71 88 114
73 91 117
70 87 113
70 87 113
75 93 121
73 91 118
70 88 114
73 91 117
73 90 116
73 90 117
70 87 113
75 92 118
74 92 119
75 92 119
74 92 119
71 87 113
74 92 119
74 92 119
71 89 115
71 89 115
70 87 113
72 90 116
69 86 113
73 91 117
75 93 120
70 88 114
75 92 118
69 85 110
69 85 110
70 87 112
76 94 122
74 91 116
75 93 121
73 91 119
71 88 113
74 91 118
76 94 120
72 90 117
75 93 121
72 89 116
73 90 116
76 94 120
71 88 113
73 91 118
73 91 117
74 91 118
75 93 119
74 92 119
74 93 121
73 92 120
72 90 116
75 94 122
71 89 115
71 88 113
75 93 121
74 92 120
72 89 114
79 97 126
75 92 118
73 91 117
76 94 120
72 90 118
72 90 118
78 96 123
75 92 119
75 94 122
74 91 117
75 93 120
73 91 119
72 90 116
73 91 119
74 92 120
73 92 120
71 89 115
74 93 122
74 91 117
74 92 119
75 93 120
73 91 117
73 91 119
73 89 115
73 90 117
74 92 118
73 92 120
70 88 115
71 89 116
75 93 121
73 90 117
72 90 116
70 88 115
73 91 118
71 88 114
75 92 119
74 92 118
75 93 119
73 91 118
74 92 120
74 92 119
74 93 120
72 89 115
73 91 117
70 88 115
70 86 110
74 91 117
73 91 117
74 92 118
74 92 118
74 93 120
74 91 117
71 88 112
72 88 114
70 86 111
70 86 111
72 89 115
72 89 116
70 87 112
71 87 111
71 88 114
72 90 116
70 87 113
75 92 118
73 90 114
71 88 113
71 88 113
69 86 111
74 92 120
70 87 112
72 89 115
69 87 113
72 90 116
69 86 111
69 85 108
72 89 114
72 89 115
72 88 114
73 90 115
71 89 115
73 89 115
69 85 109
71 88 113
68 85 110
67 83 108
72 90 117
66 83 109
74 91 116
71 88 113
69 86 112
66 83 108
70 87 113
70 86 110
72 88 112
71 88 113
74 91 116
73 89 114
71 88 113
71 88 114
68 84 108
67 83 108
69 86 112
67 84 109
70 87 112
73 91 117
71 88 112
73 90 115
69 85 110
72 88 113
70 86 110
71 88 113
68 84 107
65 79 102
66 82 107
70 86 110
68 85 110
66 83 107
66 83 108
69 85 108
71 88 113
69 86 111
64 79 102
64 79 101
67 81 103
68 83 107
66 81 104
72 88 113
70 87 111
68 84 109
70 86 110
63 78 100
65 80 103
64 80 103
66 82 106
67 82 105
61 74 95
69 85 110
69 86 111
62 77 100
65 80 102
70 86 110
63 79 101
71 87 111
64 80 103
64 79 101
62 77 98
66 80 101
67 82 104
69 84 107
67 82 105
64 78 99
60 74 95
71 88 112
63 78 100
69 85 109
68 84 109
65 81 104
65 80 103
68 84 109
65 80 103
59 72 93
64 79 101
60 74 96
63 78 100
65 79 101
65 80 101
64 79 102
67 83 106
64 78 98
65 79 100
68 84 108
64 79 101
67 83 106
67 81 103
64 78 98
65 80 103
67 82 104
62 76 97
60 74 94
65 79 101
65 80 101
66 80 102
61 74 94
60 74 95
62 77 99
60 74 95
67 82 105
60 73 93
58 71 90
62 78 100
65 80 101
65 79 101
68 83 106
57 70 90
67 82 104
63 79 101
67 82 105
66 81 103
58 73 95
65 80 103
62 75 96
65 80 103
68 83 106
63 78 100
63 77 99
67 82 104
62 77 98
65 80 102
64 79 102
66 81 104
64 80 103
61 75 97
64 79 100
63 76 97
64 78 99
62 76 97
68 84 107
63 77 99
59 73 94
62 77 99
67 82 105
64 78 100
64 79 101
64 79 101
62 77 99
61 75 96
61 76 98
68 83 107
65 80 102
63 78 100
64 79 101
65 80 102
69 84 107
64 79 100
65 81 104
62 77 98
58 72 93
66 80 101
66 80 103
64 79 101
63 78 100
66 82 106
60 74 94
63 77 99
64 79 101
64 78 99
64 80 104
64 78 100
66 81 104
66 82 105
67 82 105
64 79 101
59 73 95
61 75 97
62 77 100
71 87 111
63 78 101
66 83 107
65 81 105
68 84 108
66 81 104
68 84 108
64 78 99
70 85 108
69 86 110
67 82 106
59 74 95
64 80 103
68 83 107
65 80 103
68 83 107
67 83 107
67 83 106
67 84 108
67 83 107
64 79 102
63 77 99
67 83 106
70 86 111
67 84 108
62 76 98
66 81 104
72 89 115
69 85 109
66 82 105
67 83 107
73 90 115
65 80 103
72 88 113
70 86 111
66 83 108
67 84 110
71 87 111
70 87 112
65 81 104
65 82 106
69 84 108
72 89 114
68 84 107
65 81 105
64 79 101
69 86 111
69 86 112
74 91 117
65 80 103
69 85 109
66 82 106
70 86 112
72 89 116
73 91 116
67 82 105
71 87 111
72 89 115
70 86 111
70 86 110
69 85 110
73 90 117
70 86 111
71 88 114
69 86 111
70 87 113
74 92 119
67 84 109
70 87 112
72 89 114
71 88 113
69 86 112
72 89 115
70 87 113
71 89 115
69 87 113
72 89 115
73 91 117
70 88 114
69 85 109
71 89 115
72 89 115
73 89 115
72 90 116
69 85 109
74 91 118
71 87 113
69 84 107
75 92 118
75 92 118
76 95 123
72 90 117
68 84 109
73 90 116
72 90 117
71 88 113
76 94 121
71 88 113
69 85 110
72 89 114
70 86 111
72 89 115
74 91 117
72 89 115
70 88 114
74 92 119
71 88 114
71 88 113
70 88 116
73 92 119
76 94 121
73 91 118
73 91 118
73 92 119
75 93 120
72 90 117
73 91 118
75 93 119
78 96 122
74 91 118
75 94 122
74 92 119
73 91 117
75 94 121
73 90 116
76 94 122
75 93 121
71 89 115
71 88 114
70 88 115
73 91 117
75 92 118
74 93 120
72 90 116
73 92 121
74 93 121
73 91 119
69 86 111
75 92 118
73 90 117
73 92 119
75 93 120
71 87 112
75 93 120
75 93 120
76 93 119
73 90 117
76 95 124
71 88 113
74 92 120
72 90 117
74 93 120
72 89 116
75 93 120
72 90 117
77 95 122
77 95 123
77 95 122
75 93 119
75 93 120
70 87 114
70 87 113
74 92 119
74 93 121
68 84 109
73 90 116
70 88 113
73 90 115
69 86 111
70 87 112
72 89 115
72 89 115
72 89 115
74 92 118
72 89 115
70 87 114
74 91 118
73 92 119
73 90 116
73 92 120
71 88 114
74 93 121
74 91 116
75 92 119
73 90 116
73 91 117
71 88 113
67 84 110
71 89 115
70 86 110
72 89 115
72 89 115
69 86 111
73 91 118
68 85 110
72 89 115
72 89 116
69 86 113
71 87 111
72 89 113
74 93 121
73 89 115
71 88 113
72 89 115
73 90 116
74 92 119
68 85 110
67 82 106
75 92 118
73 91 118
70 87 112
69 85 109
71 87 112
69 87 112
73 91 117
72 90 116
75 92 119
72 90 117
68 85 111
71 86 110
74 91 117
71 87 112
71 90 117
70 87 112
72 90 116
71 88 114
70 86 110
73 90 117
75 93 120
75 92 118
69 86 110
67 83 108
66 82 106
73 90 115
69 85 110
69 85 110
73 90 115
70 86 111
67 83 106
72 89 114
69 86 112
69 86 112
71 88 113
68 84 106
68 85 109
71 89 116
70 87 113
68 84 109
70 86 110
75 92 118
68 84 108
68 84 107
67 84 110
71 87 112
69 86 111
72 88 112
71 87 111
70 86 110
73 89 113
68 85 110
69 84 107
69 85 110
67 84 108
68 84 108
72 88 114
72 88 113
62 77 100
64 78 100
69 85 110
69 85 109
74 91 116
67 83 107
70 86 111
68 85 109
65 81 104
70 86 110
64 79 102
67 83 108
64 79 103
66 82 105
68 84 107
71 87 110
68 84 108
69 85 109
70 86 110
63 77 98
69 85 108
67 83 107
70 86 109
66 81 103
63 78 100
67 83 108
60 73 94
65 80 103
69 84 108
65 80 103
66 82 105
60 75 97
68 85 109
65 80 102
70 87 112
65 82 106
64 79 101
65 80 102
63 77 97
62 77 99
66 81 103
65 80 102
64 78 99
68 83 106
62 76 98
59 73 95
63 78 100
64 78 99
68 82 104
68 84 108
59 73 94
66 81 103
68 83 106
63 79 103
63 78 99
63 78 100
60 73 94
64 81 105
59 72 91
70 86 111
65 79 101
64 78 100
60 75 96
65 79 101
68 83 107
57 71 91
63 78 99
63 77 98
64 79 102
60 74 96
62 77 100
63 77 100
64 79 103
66 81 103
68 84 106
63 78 100
62 76 97
64 78 100
61 74 94
64 79 102
63 76 97
61 75 95
67 82 105
62 76 98
69 84 106
64 78 101
63 78 99
61 75 95
58 72 94
60 73 94
68 84 106
67 83 106
66 81 103
62 77 99
67 81 103
65 80 102
64 78 98
67 83 106
64 79 100
65 80 103
59 73 93
66 82 105
60 75 96
61 75 97
60 73 93
63 76 97
60 73 93
64 79 102
60 73 92
62 77 99
60 74 95
59 73 93
69 85 109
65 80 103
64 78 99
65 80 101
62 76 97
69 84 107
65 80 103
64 79 101
61 76 97
65 79 102
68 84 107
60 75 97
66 81 103
66 80 102
63 78 101
67 82 104
65 81 104
66 81 104
69 86 111
70 86 111
68 84 109
65 79 101
66 80 102
69 85 108
65 80 102
65 80 103
61 77 100
65 80 103
67 82 105
65 80 101
64 78 100
67 83 108
65 79 101
64 80 103
68 83 107
68 84 107
67 83 107
71 88 114
64 79 102
67 82 104
64 80 103
70 85 108
65 79 101
61 76 98
66 81 104
68 85 109
68 86 112
65 81 104
70 87 112
67 83 108
70 85 109
68 84 108
67 84 108
68 84 108
73 90 116
69 85 110
64 79 101
73 90 117
67 83 107
67 83 107
74 90 116
73 90 117
73 90 116
70 87 112
69 86 111
72 89 114
71 87 112
69 86 110
69 85 110
71 88 115
66 81 104
69 86 111
70 88 114
67 83 108
74 91 116
71 88 113
68 83 107
67 84 109
71 88 114
66 82 107
73 89 115
68 84 108
71 87 113
70 87 112
71 87 111
65 82 107
68 83 107
71 88 113
71 89 115
71 88 114
68 84 109
72 89 115
69 87 112
73 90 116
74 90 115
70 87 112
68 84 108
71 88 113
68 84 108
71 88 114
69 87 113
74 92 119
71 89 116
72 90 117
71 89 116
72 89 114
71 89 117
72 88 113
72 89 114
72 90 117
74 91 117
73 91 118
68 85 111
77 95 123
67 83 109
68 86 112
69 85 109
73 91 118
74 92 118
73 92 119
74 93 122
75 92 118
71 87 113
72 89 115
69 86 111
71 88 114
71 87 113
73 91 118
72 90 117
72 90 118
74 91 117
74 93 121
73 91 116
73 90 116
74 91 118
69 86 111
71 89 116
76 94 121
70 88 114
73 91 118
76 94 121
71 88 114
75 92 118
72 88 113
75 94 122
72 90 115
77 95 122
74 93 122
73 90 115
72 89 116
75 93 120
73 92 120
74 91 118
75 93 121
72 92 121
75 93 121
73 91 117
75 93 121
73 91 118
76 95 124
73 91 118
73 91 118
75 93 121
74 92 120
76 94 122
75 93 121
73 91 117
74 92 119
72 89 113
76 94 120
72 90 117
72 90 115
75 93 120
71 88 113
71 90 117
74 92 119
76 94 123
72 90 117
71 89 116
73 91 117
75 93 121
70 88 115
70 87 113
72 90 117
75 94 121
72 90 116
73 91 118
72 90 117
75 94 121
73 91 117
70 87 113
71 89 116
72 90 117
71 88 114
73 90 117
71 89 115
72 89 115
71 89 115
73 91 119
69 86 112
74 92 118
73 90 114
69 86 111
75 93 120
71 88 112
73 91 118
70 88 113
70 87 113
74 91 117
74 91 116
73 90 116
76 94 122
71 88 113
72 89 114
74 91 118
71 87 112
75 93 119
74 92 118
71 88 113
74 91 117
71 87 112
74 92 119
72 90 118
72 89 115
72 89 115
70 86 111
73 91 117
70 87 113
73 90 117
75 93 119
68 84 109
72 89 115
70 88 115
72 90 116
71 88 115
73 90 114
73 90 115
68 85 111
72 89 114
74 91 118
67 83 107
67 84 110
70 88 114
72 90 116
73 91 119
67 83 107
75 92 118
70 87 112
70 87 112
69 85 110
67 83 107
69 86 112
69 86 111
73 90 115
72 90 115
74 93 120
72 89 115
72 89 114
70 87 112
70 86 110
70 87 112
68 83 106
67 83 107
73 90 115
70 86 111
69 86 112
70 87 112
68 85 109
70 86 111
64 79 101
66 82 107
66 81 104
69 86 110
69 86 110
64 80 104
70 86 111
64 80 102
68 85 110
67 83 106
68 84 108
69 85 110
67 82 105
72 87 110
71 88 114
66 82 106
68 85 110
67 83 107
68 84 109
68 84 108
65 81 105
67 84 108
69 86 111
69 84 108
69 84 108
65 79 101
71 88 113
61 76 99
63 78 101
71 87 112
66 82 107
65 81 105
67 83 106
66 82 105
65 80 103
68 84 109
65 81 105
62 77 98
71 86 110
69 85 109
64 78 100
69 85 108
67 82 105
71 88 113
66 82 105
62 77 99
61 77 100
71 88 112
63 78 101
62 76 97
69 86 111
67 82 104
66 82 105
65 80 103
60 75 96
64 78 100
67 82 105
67 82 105
66 81 104
72 88 111
62 77 100
60 74 95
64 79 101
70 87 111
63 78 100
64 80 104
66 81 104
64 78 100
63 78 100
70 86 110
65 80 102
60 73 93
66 82 105
62 76 98
63 78 99
69 85 110
65 79 101
62 76 96
63 77 99
67 82 105
65 80 102
66 82 105
70 85 109
70 85 108
67 81 103
65 79 101
70 86 111
63 77 100
68 83 105
62 76 96
63 78 101
62 75 96
63 77 98
58 71 92
61 75 97
64 79 101
69 85 108
64 78 100
69 84 106
69 85 109
65 80 103
66 80 102
61 75 97
63 78 99
68 84 107
65 80 102
64 78 100
64 80 103
67 82 105
70 87 111
63 77 99
66 81 103
63 77 99
64 80 103
64 79 101
61 76 97
60 74 96
67 84 109
63 77 99
68 82 104
62 76 97
64 79 101
63 78 101
66 81 105
66 81 104
62 76 97
63 77 99
64 80 102
67 81 103
65 80 102
61 75 96
64 79 102
68 83 106
64 79 101
58 72 92
67 82 103
64 79 101
68 83 107
65 80 101
66 81 103
65 79 101
66 82 105
68 82 104
66 81 104
66 82 104
70 85 109
63 78 101
72 87 111
64 79 101
69 85 109
67 83 106
72 89 113
65 80 104
63 77 99
66 81 104
64 80 103
65 79 100
67 83 106
66 80 102
68 84 107
63 78 100
66 81 105
61 76 99
66 81 103
71 87 112
63 79 103
65 79 100
68 84 107
68 84 108
68 84 108
70 87 111
67 82 105
67 82 105
69 85 109
63 77 98
65 81 105
71 87 111
65 81 103
71 88 112
64 79 101
66 82 105
69 85 108
65 80 104
64 79 102
65 80 103
67 83 107
74 92 118
67 82 104
67 83 107
68 84 108
68 85 110
70 87 113
70 87 113
68 84 109
67 84 109
68 84 108
72 88 113
66 83 108
69 86 111
69 85 110
72 88 114
68 84 109
67 83 108
68 85 110
73 89 115
70 87 111
67 82 106
71 87 112
70 86 110
72 89 115
69 86 112
72 89 115
68 84 108
72 88 112
68 85 109
72 89 115
73 91 118
70 88 116
68 84 108
70 88 113
70 87 112
71 88 114
70 87 113
70 87 112
68 85 111
75 93 120
67 83 107
70 87 112
68 84 108
76 94 122
76 94 122
68 84 108
69 86 112
76 93 120
72 90 117
74 91 117
73 90 116
73 91 118
71 89 115
71 89 116
72 91 119
72 90 116
71 89 115
74 91 118
72 89 116
70 87 112
71 88 114
71 88 114
73 90 117
70 87 113
72 89 113
68 85 111
74 91 117
71 89 115
75 93 121
72 90 116
74 92 118
71 88 115
70 87 111
72 90 118
78 96 123
74 91 116
73 90 117
74 91 116
70 87 113
69 87 113
76 94 122
72 89 115
72 90 118
70 86 111
76 94 122
73 90 117
72 90 118
76 94 120
77 95 122
73 90 114
76 94 122
73 90 116
75 93 120
71 90 117
72 90 117
73 89 115
74 92 119
74 93 121
70 87 113
73 91 118
73 90 117
75 94 122
73 91 118
75 94 122
75 94 121
77 94 120
72 89 116
71 88 114
75 94 122
75 94 123
78 97 125
72 90 117
